; generated by Slic3r 0.9.8 on 2013-09-09 at 14:09:16

; layer_height = 0.25
; perimeters = 3
; top_solid_layers = 3
; bottom_solid_layers = 3
; fill_density = 0.3
; perimeter_speed = 60
; infill_speed = 60
; travel_speed = 120
; scale = 1
; nozzle_diameter = 0.5
; filament_diameter = 2.9
; extrusion_multiplier = 0.81
; perimeters extrusion width = 0.40mm
; infill extrusion width = 0.25mm
; first layer extrusion width = 0.25mm

M107
M190 S70 ; wait for bed temperature to be reached
M104 S225 ; set temperature
G28 ; home all axes
M109 S225 ; wait for temperature to be reached
G90 ; use absolute coordinates
G21 ; set units to millimeters
G92 E0
M82 ; use absolute distances for extrusion
G1 F1800.000 E-1.00000
G92 E0
G1 Z0.250 F7200.000
G1 X103.760 Y75.530
G1 F1800.000 E1.00000
G1 X103.700 Y76.300 F1800.000 E1.00719
G1 X103.580 Y77.120 E1.01490
G1 X96.610 Y111.730 E1.34357
G1 X96.450 Y112.410 E1.35007
G1 X96.140 Y113.360 E1.35937
G1 X96.000 Y113.700 E1.36279
G1 X95.550 Y114.600 E1.37216
G1 X95.220 Y115.150 E1.37813
G1 X94.750 Y115.790 E1.38552
G1 X94.330 Y116.270 E1.39146
G1 X93.770 Y116.830 E1.39883
G1 X93.290 Y117.250 E1.40477
G1 X92.870 Y117.570 E1.40969
G1 X92.100 Y118.050 E1.41813
G1 X91.200 Y118.500 E1.42750
G1 X90.860 Y118.640 E1.43092
G1 X89.910 Y118.950 E1.44023
G1 X89.550 Y119.040 E1.44368
G1 X88.410 Y119.230 E1.45444
G1 X87.490 Y119.280 E1.46302
G1 X62.500 Y119.280 E1.69565
G1 X61.580 Y119.230 E1.70423
G1 X60.440 Y119.040 E1.71499
G1 X60.080 Y118.950 E1.71844
G1 X59.130 Y118.640 E1.72775
G1 X58.790 Y118.500 E1.73117
G1 X57.890 Y118.050 E1.74054
G1 X57.120 Y117.570 E1.74898
G1 X56.500 Y117.080 E1.75634
G1 X56.220 Y116.830 E1.75984
G1 X55.660 Y116.270 E1.76721
G1 X55.240 Y115.790 E1.77315
G1 X54.920 Y115.370 E1.77806
G1 X54.440 Y114.600 E1.78651
G1 X53.990 Y113.700 E1.79588
G1 X53.850 Y113.360 E1.79930
G1 X53.540 Y112.410 E1.80860
G1 X53.450 Y112.050 E1.81206
G1 X46.410 Y77.120 E2.14376
G1 X46.290 Y76.300 E2.15148
G1 X46.230 Y75.530 E2.15867
G1 X46.230 Y74.450 E2.16872
G1 X46.290 Y73.690 E2.17582
G1 X46.410 Y72.870 E2.18354
G1 X53.380 Y38.260 E2.51220
G1 X53.540 Y37.580 E2.51870
G1 X53.850 Y36.630 E2.52800
G1 X53.990 Y36.290 E2.53142
G1 X54.440 Y35.390 E2.54079
G1 X54.770 Y34.840 E2.54676
G1 X55.240 Y34.200 E2.55415
G1 X55.660 Y33.720 E2.56009
G1 X56.220 Y33.160 E2.56746
G1 X56.700 Y32.740 E2.57340
G1 X57.120 Y32.420 E2.57832
G1 X57.890 Y31.940 E2.58676
G1 X58.790 Y31.490 E2.59613
G1 X59.130 Y31.350 E2.59955
G1 X60.080 Y31.040 E2.60886
G1 X60.440 Y30.950 E2.61231
G1 X61.580 Y30.760 E2.62307
G1 X62.500 Y30.710 E2.63165
G1 X87.490 Y30.710 E2.86429
G1 X88.410 Y30.760 E2.87286
G1 X89.550 Y30.950 E2.88362
G1 X89.910 Y31.040 E2.88708
G1 X90.860 Y31.350 E2.89638
G1 X91.200 Y31.490 E2.89980
G1 X92.100 Y31.940 E2.90917
G1 X92.870 Y32.420 E2.91762
G1 X93.490 Y32.910 E2.92497
G1 X93.770 Y33.160 E2.92847
G1 X94.330 Y33.720 E2.93584
G1 X94.750 Y34.200 E2.94178
G1 X95.070 Y34.620 E2.94669
G1 X95.550 Y35.390 E2.95514
G1 X96.000 Y36.290 E2.96451
G1 X96.140 Y36.630 E2.96793
G1 X96.450 Y37.580 E2.97723
G1 X96.540 Y37.940 E2.98069
G1 X103.580 Y72.870 E3.31240
G1 X103.700 Y73.690 E3.32011
G1 X103.760 Y74.450 E3.32721
G1 X103.760 Y75.484 E3.33684
G1 X103.760 Y75.530 E3.33726
G1 X103.460 Y75.500 F7200.000
G1 X103.400 Y76.270 F1800.000 E3.34445
G1 X103.290 Y77.060 E3.35188
G1 X96.320 Y111.670 E3.68054
G1 X96.160 Y112.330 E3.68686
G1 X95.860 Y113.250 E3.69587
G1 X95.720 Y113.590 E3.69929
G1 X95.290 Y114.440 E3.70816
G1 X94.970 Y114.980 E3.71400
G1 X94.510 Y115.600 E3.72119
G1 X94.100 Y116.070 E3.72699
G1 X93.570 Y116.600 E3.73397
G1 X92.900 Y117.170 E3.74216
G1 X92.480 Y117.470 E3.74697
G1 X91.940 Y117.790 E3.75281
G1 X91.090 Y118.220 E3.76168
G1 X90.750 Y118.360 E3.76510
G1 X89.830 Y118.660 E3.77411
G1 X89.470 Y118.750 E3.77756
G1 X88.390 Y118.930 E3.78775
G1 X87.490 Y118.980 E3.79615
G1 X62.500 Y118.980 E4.02878
G1 X61.600 Y118.930 E4.03717
G1 X60.520 Y118.750 E4.04737
G1 X60.160 Y118.660 E4.05082
G1 X59.240 Y118.360 E4.05983
G1 X58.900 Y118.220 E4.06325
G1 X58.050 Y117.790 E4.07212
G1 X57.510 Y117.470 E4.07796
G1 X57.090 Y117.170 E4.08277
G1 X56.700 Y116.850 E4.08747
G1 X56.420 Y116.600 E4.09096
G1 X55.890 Y116.070 E4.09794
G1 X55.320 Y115.400 E4.10613
G1 X55.020 Y114.980 E4.11093
G1 X54.700 Y114.440 E4.11677
G1 X54.270 Y113.590 E4.12564
G1 X54.130 Y113.250 E4.12906
G1 X53.830 Y112.330 E4.13807
G1 X53.670 Y111.670 E4.14440
G1 X46.700 Y77.060 E4.47306
G1 X46.590 Y76.270 E4.48048
G1 X46.530 Y75.500 E4.48767
G1 X46.530 Y74.470 E4.49726
G1 X46.590 Y73.710 E4.50436
G1 X46.700 Y72.930 E4.51169
G1 X53.670 Y38.320 E4.84035
G1 X53.830 Y37.660 E4.84667
G1 X54.130 Y36.740 E4.85568
G1 X54.270 Y36.400 E4.85910
G1 X54.700 Y35.550 E4.86797
G1 X55.020 Y35.010 E4.87381
G1 X55.480 Y34.390 E4.88100
G1 X55.890 Y33.920 E4.88681
G1 X56.420 Y33.390 E4.89378
G1 X57.090 Y32.820 E4.90197
G1 X57.510 Y32.520 E4.90678
G1 X58.050 Y32.200 E4.91262
G1 X58.900 Y31.770 E4.92149
G1 X59.240 Y31.630 E4.92491
G1 X60.160 Y31.330 E4.93392
G1 X60.520 Y31.240 E4.93738
G1 X61.600 Y31.060 E4.94757
G1 X62.500 Y31.010 E4.95596
G1 X87.490 Y31.010 E5.18860
G1 X88.390 Y31.060 E5.19699
G1 X89.470 Y31.240 E5.20718
G1 X89.830 Y31.330 E5.21064
G1 X90.750 Y31.630 E5.21964
G1 X91.090 Y31.770 E5.22307
G1 X91.940 Y32.200 E5.23193
G1 X92.480 Y32.520 E5.23778
G1 X92.900 Y32.820 E5.24258
G1 X93.290 Y33.140 E5.24728
G1 X93.570 Y33.390 E5.25077
G1 X94.100 Y33.920 E5.25775
G1 X94.670 Y34.590 E5.26594
G1 X94.970 Y35.010 E5.27074
G1 X95.290 Y35.550 E5.27659
G1 X95.720 Y36.400 E5.28546
G1 X95.860 Y36.740 E5.28888
G1 X96.160 Y37.660 E5.29789
G1 X96.320 Y38.320 E5.30421
G1 X103.290 Y72.930 E5.63287
G1 X103.400 Y73.710 E5.64020
G1 X103.460 Y74.470 E5.64730
G1 X103.460 Y75.454 E5.65646
G1 X103.460 Y75.500 E5.65689
G1 X103.150 Y75.480 F7200.000
G1 X103.090 Y76.250 F1800.000 E5.66408
G1 X102.990 Y77.000 E5.67112
G1 X96.020 Y111.610 E5.99978
G1 X95.870 Y112.260 E6.00599
G1 X95.580 Y113.130 E6.01453
G1 X95.440 Y113.470 E6.01795
G1 X95.030 Y114.290 E6.02649
G1 X94.580 Y115.020 E6.03447
G1 X94.280 Y115.400 E6.03898
G1 X93.870 Y115.870 E6.04478
G1 X93.370 Y116.370 E6.05137
G1 X92.900 Y116.780 E6.05717
G1 X92.520 Y117.080 E6.06168
G1 X91.790 Y117.530 E6.06966
G1 X90.970 Y117.940 E6.07820
G1 X90.630 Y118.080 E6.08162
G1 X89.760 Y118.370 E6.09016
G1 X89.400 Y118.460 E6.09361
G1 X88.370 Y118.620 E6.10331
G1 X87.490 Y118.670 E6.11152
G1 X62.500 Y118.670 E6.34416
G1 X61.620 Y118.620 E6.35236
G1 X60.590 Y118.460 E6.36207
G1 X60.230 Y118.370 E6.36552
G1 X59.360 Y118.080 E6.37406
G1 X59.020 Y117.940 E6.37748
G1 X58.200 Y117.530 E6.38601
G1 X57.470 Y117.080 E6.39400
G1 X57.090 Y116.780 E6.39851
G1 X56.620 Y116.370 E6.40431
G1 X56.120 Y115.870 E6.41089
G1 X55.710 Y115.400 E6.41670
G1 X55.410 Y115.020 E6.42121
G1 X54.960 Y114.290 E6.42919
G1 X54.550 Y113.470 E6.43772
G1 X54.410 Y113.130 E6.44115
G1 X54.120 Y112.260 E6.44968
G1 X54.030 Y111.900 E6.45314
G1 X47.000 Y77.000 E6.78456
G1 X46.900 Y76.250 E6.79160
G1 X46.840 Y75.480 E6.79879
G1 X46.840 Y74.490 E6.80801
G1 X46.900 Y73.730 E6.81510
G1 X47.000 Y72.990 E6.82205
G1 X53.970 Y38.380 E7.15072
G1 X54.120 Y37.730 E7.15693
G1 X54.410 Y36.860 E7.16546
G1 X54.550 Y36.520 E7.16889
G1 X54.960 Y35.700 E7.17742
G1 X55.410 Y34.970 E7.18540
G1 X55.710 Y34.590 E7.18991
G1 X56.120 Y34.120 E7.19572
G1 X56.620 Y33.620 E7.20230
G1 X57.090 Y33.210 E7.20811
G1 X57.470 Y32.910 E7.21261
G1 X58.200 Y32.460 E7.22060
G1 X59.020 Y32.050 E7.22913
G1 X59.360 Y31.910 E7.23255
G1 X60.230 Y31.620 E7.24109
G1 X60.590 Y31.530 E7.24454
G1 X61.620 Y31.370 E7.25425
G1 X62.500 Y31.320 E7.26245
G1 X87.490 Y31.320 E7.49509
G1 X88.370 Y31.370 E7.50330
G1 X89.400 Y31.530 E7.51300
G1 X89.760 Y31.620 E7.51645
G1 X90.630 Y31.910 E7.52499
G1 X90.970 Y32.050 E7.52841
G1 X91.790 Y32.460 E7.53695
G1 X92.520 Y32.910 E7.54493
G1 X92.900 Y33.210 E7.54944
G1 X93.370 Y33.620 E7.55524
G1 X93.870 Y34.120 E7.56183
G1 X94.280 Y34.590 E7.56763
G1 X94.580 Y34.970 E7.57214
G1 X95.030 Y35.700 E7.58012
G1 X95.440 Y36.520 E7.58866
G1 X95.580 Y36.860 E7.59208
G1 X95.870 Y37.730 E7.60062
G1 X95.960 Y38.090 E7.60407
G1 X102.990 Y72.990 E7.93549
G1 X103.090 Y73.730 E7.94244
G1 X103.150 Y74.490 E7.94954
G1 X103.150 Y75.434 E7.95833
G1 X103.150 Y75.480 E7.95875
M204 S1000
G1 F1800.000 E6.95875
G92 E0
G1 X95.930 Y75.000 F7200.000
G1 F1800.000 E1.00000
G1 X95.882 Y75.615 F1800.000 E1.00574
G1 X95.738 Y76.214 E1.01148
G1 X95.502 Y76.784 E1.01722
G1 X95.179 Y77.310 E1.02296
G1 X94.779 Y77.779 E1.02870
G1 X94.310 Y78.179 E1.03445
G1 X93.784 Y78.502 E1.04019
G1 X93.214 Y78.738 E1.04593
G1 X92.615 Y78.882 E1.05167
G1 X92.017 Y78.929 E1.05725
G1 X84.983 Y78.929 E1.12273
G1 X84.385 Y78.882 E1.12831
G1 X83.786 Y78.738 E1.13405
G1 X83.216 Y78.502 E1.13980
G1 X82.690 Y78.179 E1.14554
G1 X82.221 Y77.779 E1.15128
G1 X81.785 Y77.252 E1.15764
G1 X81.498 Y76.784 E1.16275
G1 X81.262 Y76.214 E1.16849
G1 X81.118 Y75.615 E1.17423
G1 X81.070 Y75.000 E1.17997
G1 X81.118 Y74.385 E1.18571
G1 X81.262 Y73.786 E1.19146
G1 X81.498 Y73.216 E1.19720
G1 X81.785 Y72.748 E1.20230
G1 X82.221 Y72.221 E1.20867
G1 X82.690 Y71.821 E1.21441
G1 X83.216 Y71.498 E1.22015
G1 X83.786 Y71.262 E1.22589
G1 X84.385 Y71.118 E1.23163
G1 X84.983 Y71.071 E1.23722
G1 X92.017 Y71.071 E1.30270
G1 X92.615 Y71.118 E1.30828
G1 X93.214 Y71.262 E1.31402
G1 X93.784 Y71.498 E1.31976
G1 X94.310 Y71.821 E1.32550
G1 X94.779 Y72.221 E1.33124
G1 X95.179 Y72.690 E1.33698
G1 X95.502 Y73.216 E1.34272
G1 X95.738 Y73.786 E1.34847
G1 X95.882 Y74.385 E1.35421
G1 X95.926 Y74.955 E1.35952
G1 X95.930 Y75.000 E1.35995
G1 X95.625 Y75.000 F7200.000
G1 X95.581 Y75.567 F1800.000 E1.36524
G1 X95.448 Y76.120 E1.37054
G1 X95.230 Y76.646 E1.37583
G1 X94.933 Y77.131 E1.38113
G1 X94.564 Y77.564 E1.38643
G1 X94.131 Y77.933 E1.39172
G1 X93.646 Y78.230 E1.39702
G1 X93.120 Y78.448 E1.40231
G1 X92.567 Y78.581 E1.40761
G1 X92.005 Y78.625 E1.41286
G1 X84.995 Y78.625 E1.47812
G1 X84.433 Y78.581 E1.48337
G1 X83.880 Y78.448 E1.48866
G1 X83.354 Y78.230 E1.49396
G1 X82.869 Y77.933 E1.49925
G1 X82.436 Y77.564 E1.50455
G1 X82.067 Y77.131 E1.50985
G1 X81.770 Y76.646 E1.51514
G1 X81.552 Y76.120 E1.52044
G1 X81.417 Y75.544 E1.52595
G1 X81.375 Y75.000 E1.53103
G1 X81.419 Y74.433 E1.53632
G1 X81.552 Y73.880 E1.54162
G1 X81.770 Y73.354 E1.54691
G1 X82.044 Y72.907 E1.55180
G1 X82.436 Y72.436 E1.55750
G1 X82.869 Y72.067 E1.56280
G1 X83.354 Y71.770 E1.56809
G1 X83.880 Y71.552 E1.57339
G1 X84.433 Y71.419 E1.57869
G1 X84.995 Y71.375 E1.58394
G1 X92.005 Y71.375 E1.64919
G1 X92.567 Y71.419 E1.65444
G1 X93.120 Y71.552 E1.65974
G1 X93.646 Y71.770 E1.66503
G1 X94.131 Y72.067 E1.67033
G1 X94.564 Y72.436 E1.67563
G1 X94.933 Y72.869 E1.68092
G1 X95.230 Y73.354 E1.68622
G1 X95.448 Y73.880 E1.69151
G1 X95.581 Y74.433 E1.69681
G1 X95.622 Y74.955 E1.70168
G1 X95.625 Y75.000 E1.70210
G1 X95.884 Y75.159 F7200.000
G1 F1800.000 E0.70210
G92 E0
G1 X68.930 Y75.000 F7200.000
G1 F1800.000 E1.00000
G1 X68.882 Y75.615 F1800.000 E1.00574
G1 X68.738 Y76.214 E1.01148
G1 X68.502 Y76.784 E1.01722
G1 X68.179 Y77.310 E1.02296
G1 X67.779 Y77.779 E1.02870
G1 X67.310 Y78.179 E1.03444
G1 X66.784 Y78.502 E1.04019
G1 X66.214 Y78.738 E1.04593
G1 X65.615 Y78.882 E1.05167
G1 X65.017 Y78.929 E1.05725
G1 X57.983 Y78.929 E1.12273
G1 X57.385 Y78.882 E1.12831
G1 X56.785 Y78.738 E1.13405
G1 X56.216 Y78.502 E1.13980
G1 X55.690 Y78.179 E1.14553
G1 X55.221 Y77.779 E1.15128
G1 X54.796 Y77.269 E1.15745
G1 X54.498 Y76.784 E1.16275
G1 X54.262 Y76.214 E1.16849
G1 X54.118 Y75.615 E1.17423
G1 X54.070 Y75.000 E1.17998
G1 X54.118 Y74.385 E1.18572
G1 X54.262 Y73.786 E1.19146
G1 X54.498 Y73.216 E1.19720
G1 X54.796 Y72.730 E1.20250
G1 X55.221 Y72.221 E1.20867
G1 X55.690 Y71.821 E1.21442
G1 X56.216 Y71.498 E1.22016
G1 X56.785 Y71.262 E1.22590
G1 X57.385 Y71.118 E1.23164
G1 X57.983 Y71.071 E1.23722
G1 X65.017 Y71.071 E1.30270
G1 X65.615 Y71.118 E1.30828
G1 X66.214 Y71.262 E1.31402
G1 X66.784 Y71.498 E1.31977
G1 X67.310 Y71.821 E1.32551
G1 X67.779 Y72.221 E1.33125
G1 X68.179 Y72.690 E1.33699
G1 X68.502 Y73.216 E1.34273
G1 X68.738 Y73.786 E1.34847
G1 X68.882 Y74.385 E1.35421
G1 X68.926 Y74.955 E1.35953
G1 X68.930 Y75.000 E1.35995
G1 X68.625 Y75.000 F7200.000
G1 X68.581 Y75.567 F1800.000 E1.36525
G1 X68.448 Y76.120 E1.37054
G1 X68.230 Y76.646 E1.37584
G1 X67.933 Y77.131 E1.38113
G1 X67.564 Y77.564 E1.38643
G1 X67.131 Y77.933 E1.39173
G1 X66.646 Y78.230 E1.39702
G1 X66.120 Y78.448 E1.40232
G1 X65.567 Y78.581 E1.40761
G1 X65.005 Y78.625 E1.41286
G1 X57.995 Y78.625 E1.47812
G1 X57.433 Y78.581 E1.48337
G1 X56.880 Y78.448 E1.48867
G1 X56.354 Y78.230 E1.49396
G1 X55.869 Y77.933 E1.49926
G1 X55.436 Y77.564 E1.50455
G1 X55.055 Y77.111 E1.51007
G1 X54.770 Y76.646 E1.51514
G1 X54.552 Y76.120 E1.52044
G1 X54.419 Y75.567 E1.52573
G1 X54.375 Y75.000 E1.53103
G1 X54.419 Y74.433 E1.53633
G1 X54.552 Y73.880 E1.54162
G1 X54.770 Y73.354 E1.54692
G1 X55.055 Y72.889 E1.55199
G1 X55.436 Y72.436 E1.55751
G1 X55.869 Y72.067 E1.56280
G1 X56.354 Y71.770 E1.56810
G1 X56.880 Y71.552 E1.57340
G1 X57.433 Y71.419 E1.57869
G1 X57.995 Y71.375 E1.58394
G1 X65.005 Y71.375 E1.64920
G1 X65.567 Y71.419 E1.65445
G1 X66.120 Y71.552 E1.65974
G1 X66.646 Y71.770 E1.66504
G1 X67.131 Y72.067 E1.67034
G1 X67.564 Y72.436 E1.67563
G1 X67.933 Y72.869 E1.68093
G1 X68.230 Y73.354 E1.68622
G1 X68.448 Y73.880 E1.69152
G1 X68.581 Y74.433 E1.69681
G1 X68.622 Y74.955 E1.70169
G1 X68.625 Y75.000 E1.70211
G1 X68.884 Y75.159 F7200.000
G1 X69.227 Y75.092
G1 X69.235 Y75.000 F1800.000 E1.70297
G1 X69.182 Y74.338 E1.70915
G1 X69.027 Y73.691 E1.71534
G1 X68.773 Y73.078 E1.72152
G1 X68.380 Y72.457 E1.72837
G1 X67.994 Y72.006 E1.73389
G1 X67.489 Y71.574 E1.74007
G1 X66.923 Y71.227 E1.74626
G1 X66.308 Y70.973 E1.75245
G1 X65.662 Y70.818 E1.75863
G1 X65.029 Y70.768 E1.76455
G1 X63.732 Y70.768 E1.77662
G1 X63.732 Y44.971 E2.01676
G1 X63.707 Y44.650 E2.01976
G1 X63.625 Y44.310 E2.02302
G1 X63.491 Y43.985 E2.02629
G1 X63.308 Y43.687 E2.02955
G1 X63.080 Y43.420 E2.03282
G1 X62.813 Y43.192 E2.03608
G1 X62.515 Y43.009 E2.03934
G1 X62.190 Y42.875 E2.04261
G1 X61.850 Y42.793 E2.04587
G1 X61.529 Y42.768 E2.04887
G1 X60.732 Y42.768 E2.05628
G1 X60.732 Y40.029 E2.08178
G1 X60.756 Y39.724 E2.08463
G1 X60.821 Y39.454 E2.08721
G1 X60.927 Y39.198 E2.08979
G1 X61.072 Y38.962 E2.09236
G1 X61.252 Y38.752 E2.09494
G1 X61.462 Y38.572 E2.09752
G1 X61.698 Y38.427 E2.10010
G1 X61.954 Y38.321 E2.10268
G1 X62.224 Y38.256 E2.10526
G1 X62.529 Y38.232 E2.10811
G1 X87.471 Y38.232 E2.34030
G1 X87.776 Y38.256 E2.34315
G1 X88.046 Y38.321 E2.34573
G1 X88.302 Y38.427 E2.34831
G1 X88.538 Y38.572 E2.35089
G1 X88.748 Y38.752 E2.35346
G1 X88.928 Y38.962 E2.35604
G1 X89.073 Y39.198 E2.35862
G1 X89.179 Y39.454 E2.36120
G1 X89.244 Y39.724 E2.36378
G1 X89.268 Y40.029 E2.36663
G1 X89.268 Y42.768 E2.39212
G1 X88.471 Y42.768 E2.39954
G1 X88.150 Y42.793 E2.40253
G1 X87.810 Y42.875 E2.40580
G1 X87.485 Y43.009 E2.40906
G1 X87.187 Y43.192 E2.41233
G1 X86.920 Y43.420 E2.41559
G1 X86.692 Y43.687 E2.41886
G1 X86.509 Y43.985 E2.42212
G1 X86.375 Y44.310 E2.42538
G1 X86.293 Y44.650 E2.42865
G1 X86.268 Y44.971 E2.43164
G1 X86.268 Y70.768 E2.67179
G1 X84.971 Y70.768 E2.68386
G1 X84.338 Y70.818 E2.68978
G1 X83.691 Y70.973 E2.69596
G1 X83.078 Y71.227 E2.70215
G1 X82.511 Y71.574 E2.70833
G1 X82.006 Y72.006 E2.71452
G1 X81.574 Y72.511 E2.72070
G1 X81.227 Y73.078 E2.72689
G1 X80.973 Y73.691 E2.73308
G1 X80.951 Y73.781 E2.73393
G1 X80.818 Y74.338 E2.73926
G1 X80.765 Y75.000 E2.74545
G1 X80.818 Y75.662 E2.75163
G1 X80.951 Y76.219 E2.75696
G1 X80.973 Y76.309 E2.75782
