; generated by Slic3r 0.9.8 on 2013-09-08 at 21:18:09

; layer_height = 0.25
; perimeters = 3
; top_solid_layers = 3
; bottom_solid_layers = 3
; fill_density = 0.3
; perimeter_speed = 60
; infill_speed = 60
; travel_speed = 120
; scale = 1
; nozzle_diameter = 0.5
; filament_diameter = 2.9
; extrusion_multiplier = 0.81
; perimeters extrusion width = 0.40mm
; infill extrusion width = 0.25mm
; first layer extrusion width = 0.25mm

M107
M190 S70 ; wait for bed temperature to be reached
M104 S225 ; set temperature
G28 ; home all axes
M109 S225 ; wait for temperature to be reached
G90 ; use absolute coordinates
G21 ; set units to millimeters
G92 E0
M82 ; use absolute distances for extrusion
G1 F1800.000 E-1.00000
G92 E0
G1 Z0.250 F7200.000
G1 X14.647 Y28.477
G1 F1800.000 E1.00000
G1 X14.137 Y27.897 F1800.000 E1.00719
G1 X13.547 Y27.087 E1.01652
G1 X13.177 Y26.497 E1.02300
G1 X12.737 Y25.607 E1.03224
G1 X12.567 Y25.187 E1.03646
G1 X12.237 Y24.127 E1.04680
G1 X12.137 Y23.687 E1.05100
G1 X11.997 Y22.767 E1.05966
G1 X11.927 Y21.827 E1.06844
G1 X11.937 Y21.327 E1.07309
G1 X11.997 Y20.637 E1.07954
G1 X12.137 Y19.737 E1.08802
G1 X12.237 Y19.297 E1.09222
G1 X12.567 Y18.237 E1.10255
G1 X12.837 Y17.587 E1.10911
G1 X13.177 Y16.927 E1.11602
G1 X13.547 Y16.337 E1.12250
G1 X14.067 Y15.617 E1.13077
G1 X14.357 Y15.267 E1.13500
G1 X14.887 Y14.697 E1.14224
G1 X15.617 Y14.067 E1.15122
G1 X16.337 Y13.547 E1.15949
G1 X17.147 Y13.057 E1.16830
G1 X17.587 Y12.837 E1.17288
G1 X18.237 Y12.567 E1.17943
G1 X19.297 Y12.237 E1.18977
G1 X19.737 Y12.137 E1.19397
G1 X20.637 Y11.997 E1.20245
G1 X21.327 Y11.937 E1.20890
G1 X22.067 Y11.937 E1.21578
G1 X22.767 Y11.997 E1.22233
G1 X23.687 Y12.137 E1.23099
G1 X24.127 Y12.237 E1.23519
G1 X25.187 Y12.567 E1.24552
G1 X25.837 Y12.837 E1.25208
G1 X26.497 Y13.177 E1.25899
G1 X27.087 Y13.547 E1.26547
G1 X27.897 Y14.137 E1.27480
G1 X28.477 Y14.647 E1.28199
G1 X122.877 Y103.377 E2.48804
G1 X123.407 Y103.927 E2.49515
G1 X124.107 Y104.747 E2.50519
G1 X124.497 Y105.257 E2.51116
G1 X136.157 Y121.817 E2.69970
G1 X136.657 Y122.597 E2.70833
G1 X137.187 Y123.637 E2.71920
G1 X137.387 Y124.127 E2.72412
G1 X137.717 Y125.157 E2.73419
G1 X137.837 Y125.667 E2.73907
G1 X137.987 Y126.597 E2.74784
G1 X138.057 Y127.387 E2.75522
G1 X138.057 Y128.167 E2.76248
G1 X137.987 Y128.957 E2.76987
G1 X137.837 Y129.887 E2.77864
G1 X137.717 Y130.397 E2.78351
G1 X137.387 Y131.427 E2.79358
G1 X137.187 Y131.917 E2.79851
G1 X136.657 Y132.957 E2.80937
G1 X136.377 Y133.407 E2.81431
G1 X135.827 Y134.167 E2.82304
G1 X135.317 Y134.777 E2.83044
G1 X134.957 Y135.147 E2.83525
G1 X134.577 Y135.487 E2.84000
G1 X134.167 Y135.827 E2.84495
G1 X133.407 Y136.377 E2.85369
G1 X132.957 Y136.657 E2.85862
G1 X131.917 Y137.187 E2.86949
G1 X131.427 Y137.387 E2.87441
G1 X130.397 Y137.717 E2.88448
G1 X129.887 Y137.837 E2.88936
G1 X128.957 Y137.987 E2.89813
G1 X127.907 Y138.067 E2.90793
G1 X127.387 Y138.057 E2.91277
G1 X126.597 Y137.987 E2.92016
G1 X125.667 Y137.837 E2.92893
G1 X125.157 Y137.717 E2.93380
G1 X124.127 Y137.387 E2.94387
G1 X123.637 Y137.187 E2.94880
G1 X122.597 Y136.657 E2.95967
G1 X121.817 Y136.157 E2.96829
G1 X105.257 Y124.497 E3.15683
G1 X104.747 Y124.107 E3.16281
G1 X103.927 Y123.407 E3.17285
G1 X103.377 Y122.877 E3.17996
G1 X14.678 Y28.510 E4.38558
G1 X14.647 Y28.477 E4.38601
G1 X14.877 Y28.277 F7200.000
G1 X14.367 Y27.697 F1800.000 E4.39320
G1 X13.797 Y26.927 E4.40212
G1 X13.437 Y26.347 E4.40847
G1 X13.117 Y25.717 E4.41505
G1 X12.857 Y25.077 E4.42148
G1 X12.537 Y24.057 E4.43143
G1 X12.437 Y23.617 E4.43563
G1 X12.297 Y22.747 E4.44383
G1 X12.227 Y21.817 E4.45252
G1 X12.237 Y21.347 E4.45689
G1 X12.297 Y20.667 E4.46325
G1 X12.437 Y19.807 E4.47136
G1 X12.537 Y19.367 E4.47556
G1 X12.857 Y18.347 E4.48551
G1 X13.117 Y17.707 E4.49194
G1 X13.437 Y17.077 E4.49852
G1 X13.797 Y16.497 E4.50487
G1 X14.297 Y15.807 E4.51281
G1 X14.587 Y15.457 E4.51704
G1 X15.097 Y14.917 E4.52395
G1 X15.807 Y14.297 E4.53273
G1 X16.497 Y13.797 E4.54066
G1 X17.077 Y13.437 E4.54702
G1 X17.497 Y13.217 E4.55143
G1 X18.347 Y12.857 E4.56002
G1 X19.367 Y12.537 E4.56997
G1 X19.807 Y12.437 E4.57417
G1 X20.667 Y12.297 E4.58229
G1 X21.577 Y12.227 E4.59078
G1 X22.057 Y12.237 E4.59525
G1 X22.747 Y12.297 E4.60170
G1 X23.617 Y12.437 E4.60990
G1 X24.057 Y12.537 E4.61410
G1 X25.077 Y12.857 E4.62405
G1 X25.717 Y13.117 E4.63049
G1 X26.347 Y13.437 E4.63706
G1 X26.927 Y13.797 E4.64342
G1 X27.697 Y14.367 E4.65234
G1 X28.277 Y14.877 E4.65953
G1 X122.677 Y103.607 E5.86558
G1 X123.177 Y104.127 E5.87229
G1 X123.877 Y104.947 E5.88233
G1 X124.247 Y105.437 E5.88805
G1 X135.907 Y121.997 E6.07659
G1 X136.397 Y122.757 E6.08500
G1 X136.907 Y123.747 E6.09537
G1 X137.107 Y124.237 E6.10030
G1 X137.417 Y125.227 E6.10996
G1 X137.537 Y125.737 E6.11483
G1 X137.687 Y126.627 E6.12324
G1 X137.757 Y127.407 E6.13053
G1 X137.767 Y127.897 E6.13509
G1 X137.687 Y128.927 E6.14471
G1 X137.537 Y129.817 E6.15311
G1 X137.417 Y130.327 E6.15798
G1 X137.107 Y131.317 E6.16764
G1 X136.907 Y131.807 E6.17257
G1 X136.397 Y132.797 E6.18294
G1 X136.117 Y133.247 E6.18787
G1 X135.597 Y133.977 E6.19621
G1 X135.257 Y134.387 E6.20117
G1 X134.927 Y134.747 E6.20572
G1 X134.387 Y135.257 E6.21263
G1 X133.977 Y135.597 E6.21759
G1 X133.247 Y136.117 E6.22593
G1 X132.797 Y136.397 E6.23087
G1 X131.807 Y136.907 E6.24124
G1 X131.317 Y137.107 E6.24616
G1 X130.327 Y137.417 E6.25582
G1 X129.817 Y137.537 E6.26070
G1 X128.927 Y137.687 E6.26910
G1 X127.897 Y137.767 E6.27872
G1 X127.407 Y137.757 E6.28328
G1 X126.627 Y137.687 E6.29057
G1 X125.737 Y137.537 E6.29897
G1 X125.227 Y137.417 E6.30385
G1 X124.237 Y137.107 E6.31351
G1 X123.747 Y136.907 E6.31843
G1 X122.757 Y136.397 E6.32880
G1 X121.997 Y135.907 E6.33722
G1 X105.437 Y124.247 E6.52576
G1 X104.947 Y123.877 E6.53148
G1 X104.127 Y123.177 E6.54151
G1 X103.607 Y122.677 E6.54823
G1 X14.908 Y28.310 E7.75385
G1 X14.877 Y28.277 E7.75428
G1 X15.097 Y28.067 F7200.000
G1 X14.597 Y27.497 F1800.000 E7.76134
G1 X14.057 Y26.767 E7.76979
G1 X13.587 Y25.997 E7.77819
G1 X13.307 Y25.387 E7.78444
G1 X13.137 Y24.967 E7.78865
G1 X12.827 Y23.997 E7.79813
G1 X12.727 Y23.557 E7.80233
G1 X12.597 Y22.717 E7.81025
G1 X12.537 Y21.817 E7.81864
G1 X12.557 Y21.137 E7.82498
G1 X12.597 Y20.697 E7.82909
G1 X12.727 Y19.867 E7.83691
G1 X12.827 Y19.427 E7.84111
G1 X13.137 Y18.457 E7.85059
G1 X13.487 Y17.627 E7.85898
G1 X13.817 Y17.037 E7.86527
G1 X14.057 Y16.657 E7.86945
G1 X14.537 Y16.007 E7.87698
G1 X14.827 Y15.657 E7.88121
G1 X15.307 Y15.137 E7.88780
G1 X16.007 Y14.537 E7.89638
G1 X16.657 Y14.057 E7.90390
G1 X17.427 Y13.587 E7.91230
G1 X18.457 Y13.137 E7.92276
G1 X19.427 Y12.827 E7.93224
G1 X19.867 Y12.727 E7.93644
G1 X20.697 Y12.597 E7.94426
G1 X21.587 Y12.537 E7.95257
G1 X22.267 Y12.557 E7.95890
G1 X22.717 Y12.597 E7.96311
G1 X23.557 Y12.727 E7.97102
G1 X23.997 Y12.827 E7.97522
G1 X24.967 Y13.137 E7.98470
G1 X25.797 Y13.487 E7.99308
G1 X26.187 Y13.697 E7.99721
G1 X26.767 Y14.057 E8.00356
G1 X27.497 Y14.597 E8.01202
G1 X28.067 Y15.097 E8.01907
G1 X122.467 Y103.827 E9.22513
G1 X122.937 Y104.327 E9.23151
G1 X123.637 Y105.147 E9.24155
G1 X123.997 Y105.607 E9.24699
G1 X135.657 Y122.167 E9.43553
G1 X136.137 Y122.917 E9.44382
G1 X136.627 Y123.867 E9.45377
G1 X136.827 Y124.357 E9.45870
G1 X137.127 Y125.297 E9.46788
G1 X137.247 Y125.807 E9.47276
G1 X137.387 Y126.657 E9.48078
G1 X137.437 Y127.187 E9.48573
G1 X137.457 Y127.657 E9.49011
G1 X137.437 Y128.367 E9.49673
G1 X137.387 Y128.897 E9.50168
G1 X137.247 Y129.747 E9.50970
G1 X137.127 Y130.257 E9.51458
G1 X136.827 Y131.197 E9.52376
G1 X136.627 Y131.687 E9.52869
G1 X136.137 Y132.637 E9.53864
G1 X135.857 Y133.087 E9.54357
G1 X135.357 Y133.777 E9.55151
G1 X134.867 Y134.367 E9.55865
G1 X134.367 Y134.867 E9.56523
G1 X133.777 Y135.357 E9.57237
G1 X133.087 Y135.857 E9.58030
G1 X132.637 Y136.137 E9.58524
G1 X131.687 Y136.627 E9.59519
G1 X131.197 Y136.827 E9.60011
G1 X130.257 Y137.127 E9.60930
G1 X129.747 Y137.247 E9.61418
G1 X128.897 Y137.387 E9.62220
G1 X128.367 Y137.437 E9.62715
G1 X127.897 Y137.457 E9.63153
G1 X127.187 Y137.437 E9.63814
G1 X126.657 Y137.387 E9.64310
G1 X125.807 Y137.247 E9.65112
G1 X125.297 Y137.127 E9.65600
G1 X124.357 Y136.827 E9.66518
G1 X123.867 Y136.627 E9.67011
G1 X122.917 Y136.137 E9.68006
G1 X122.167 Y135.657 E9.68835
G1 X105.607 Y123.997 E9.87689
G1 X105.147 Y123.637 E9.88233
G1 X104.327 Y122.937 E9.89236
G1 X103.827 Y122.467 E9.89875
G1 X15.128 Y28.100 E11.10438
G1 X15.097 Y28.067 E11.10480
M204 S1000
G1 F1800.000 E10.10480
G92 E0
G1 X21.021 Y23.444 F7200.000
G1 F1800.000 E1.00000
G1 X20.853 Y23.149 F1800.000 E1.00316
G1 X20.774 Y22.960 E1.00506
G1 X20.711 Y22.695 E1.00759
G1 X20.690 Y22.424 E1.01013
G1 X20.711 Y22.153 E1.01266
G1 X20.774 Y21.888 E1.01520
G1 X20.879 Y21.636 E1.01773
G1 X21.021 Y21.405 E1.02026
G1 X21.198 Y21.198 E1.02280
G1 X21.405 Y21.021 E1.02533
G1 X21.636 Y20.879 E1.02786
G1 X21.888 Y20.774 E1.03040
G1 X22.087 Y20.727 E1.03230
G1 X22.424 Y20.690 E1.03546
G1 X22.695 Y20.711 E1.03799
G1 X22.960 Y20.774 E1.04053
G1 X23.212 Y20.879 E1.04306
G1 X23.444 Y21.021 E1.04560
G1 X23.651 Y21.198 E1.04813
G1 X23.827 Y21.404 E1.05066
G1 X23.970 Y21.636 E1.05320
G1 X24.074 Y21.888 E1.05573
G1 X24.137 Y22.153 E1.05826
G1 X24.159 Y22.424 E1.06080
G1 X24.137 Y22.695 E1.06333
G1 X24.074 Y22.960 E1.06587
G1 X23.970 Y23.212 E1.06840
G1 X23.827 Y23.444 E1.07093
G1 X23.651 Y23.651 E1.07347
G1 X23.444 Y23.827 E1.07600
G1 X23.212 Y23.970 E1.07854
G1 X22.960 Y24.074 E1.08107
G1 X22.695 Y24.137 E1.08360
G1 X22.424 Y24.159 E1.08614
G1 X22.153 Y24.137 E1.08867
G1 X21.888 Y24.074 E1.09121
G1 X21.636 Y23.970 E1.09374
G1 X21.405 Y23.827 E1.09627
G1 X21.198 Y23.651 E1.09881
G1 X21.050 Y23.478 E1.10092
G1 X21.021 Y23.444 E1.10134
G1 X21.267 Y23.265 F7200.000
G1 X21.133 Y23.033 F1800.000 E1.10383
G1 X21.064 Y22.866 E1.10551
G1 X21.012 Y22.648 E1.10760
G1 X20.994 Y22.424 E1.10969
G1 X21.012 Y22.200 E1.11178
G1 X21.064 Y21.982 E1.11387
G1 X21.150 Y21.775 E1.11596
G1 X21.267 Y21.584 E1.11805
G1 X21.413 Y21.413 E1.12014
G1 X21.584 Y21.267 E1.12223
G1 X21.775 Y21.150 E1.12431
G1 X21.982 Y21.064 E1.12640
G1 X22.158 Y21.022 E1.12808
G1 X22.424 Y20.994 E1.13058
G1 X22.648 Y21.012 E1.13267
G1 X22.866 Y21.064 E1.13475
G1 X23.073 Y21.150 E1.13684
G1 X23.265 Y21.267 E1.13893
G1 X23.435 Y21.413 E1.14102
G1 X23.581 Y21.583 E1.14311
G1 X23.698 Y21.775 E1.14520
G1 X23.784 Y21.982 E1.14729
G1 X23.836 Y22.200 E1.14938
G1 X23.854 Y22.424 E1.15147
G1 X23.836 Y22.648 E1.15355
G1 X23.784 Y22.866 E1.15564
G1 X23.698 Y23.073 E1.15773
G1 X23.581 Y23.265 E1.15982
G1 X23.435 Y23.435 E1.16191
G1 X23.265 Y23.581 E1.16400
G1 X23.073 Y23.698 E1.16609
G1 X22.866 Y23.784 E1.16818
G1 X22.648 Y23.836 E1.17026
G1 X22.424 Y23.854 E1.17235
G1 X22.200 Y23.836 E1.17444
G1 X21.982 Y23.784 E1.17653
G1 X21.775 Y23.698 E1.17862
G1 X21.584 Y23.581 E1.18071
G1 X21.413 Y23.435 E1.18280
G1 X21.297 Y23.299 E1.18446
G1 X21.267 Y23.265 E1.18489
G1 X21.514 Y23.086 F7200.000
G1 X21.414 Y22.917 F1800.000 E1.18671
G1 X21.354 Y22.772 E1.18817
G1 X21.313 Y22.600 E1.18982
G1 X21.299 Y22.424 E1.19146
G1 X21.313 Y22.248 E1.19311
G1 X21.354 Y22.076 E1.19475
G1 X21.421 Y21.913 E1.19639
G1 X21.514 Y21.763 E1.19804
G1 X21.628 Y21.628 E1.19968
G1 X21.763 Y21.514 E1.20133
G1 X21.913 Y21.421 E1.20297
G1 X22.076 Y21.354 E1.20461
G1 X22.229 Y21.317 E1.20607
G1 X22.424 Y21.299 E1.20790
G1 X22.600 Y21.313 E1.20954
G1 X22.772 Y21.354 E1.21119
G1 X22.935 Y21.421 E1.21283
G1 X23.086 Y21.514 E1.21447
G1 X23.220 Y21.628 E1.21612
G1 X23.334 Y21.763 E1.21776
G1 X23.427 Y21.913 E1.21941
G1 X23.494 Y22.076 E1.22105
G1 X23.536 Y22.248 E1.22269
G1 X23.549 Y22.424 E1.22434
G1 X23.536 Y22.600 E1.22598
G1 X23.494 Y22.772 E1.22763
G1 X23.427 Y22.935 E1.22927
G1 X23.335 Y23.086 E1.23091
G1 X23.220 Y23.220 E1.23256
G1 X23.086 Y23.335 E1.23420
G1 X22.935 Y23.427 E1.23585
G1 X22.772 Y23.494 E1.23749
G1 X22.600 Y23.536 E1.23913
G1 X22.424 Y23.549 E1.24078
G1 X22.248 Y23.536 E1.24242
G1 X22.076 Y23.494 E1.24407
G1 X21.913 Y23.427 E1.24571
G1 X21.763 Y23.335 E1.24735
G1 X21.543 Y23.120 E1.25021
G1 X21.514 Y23.086 E1.25063
G1 X21.211 Y23.114 F7200.000
G1 F1800.000 E0.25063
G92 E0
G1 X29.506 Y29.890 F7200.000
G1 F1800.000 E1.00000
G1 X29.683 Y29.683 F1800.000 E1.00253
G1 X29.838 Y29.550 E1.00444
G1 X30.122 Y29.364 E1.00760
G1 X30.373 Y29.260 E1.01013
G1 X30.638 Y29.196 E1.01266
G1 X30.909 Y29.175 E1.01520
G1 X31.181 Y29.196 E1.01773
G1 X31.445 Y29.260 E1.02026
G1 X31.697 Y29.364 E1.02280
G1 X31.929 Y29.506 E1.02533
G1 X32.136 Y29.683 E1.02787
G1 X32.313 Y29.890 E1.03040
G1 X32.455 Y30.122 E1.03293
G1 X32.559 Y30.373 E1.03547
G1 X32.623 Y30.638 E1.03800
G1 X32.644 Y30.909 E1.04053
G1 X32.623 Y31.181 E1.04307
G1 X32.575 Y31.380 E1.04497
G1 X32.455 Y31.697 E1.04813
G1 X32.313 Y31.929 E1.05066
G1 X32.136 Y32.136 E1.05320
G1 X31.929 Y32.313 E1.05573
G1 X31.697 Y32.455 E1.05827
G1 X31.445 Y32.559 E1.06080
G1 X31.181 Y32.623 E1.06333
G1 X30.909 Y32.644 E1.06587
G1 X30.638 Y32.623 E1.06840
G1 X30.373 Y32.559 E1.07093
G1 X30.122 Y32.455 E1.07347
G1 X29.890 Y32.313 E1.07600
G1 X29.683 Y32.136 E1.07854
G1 X29.506 Y31.929 E1.08107
G1 X29.364 Y31.697 E1.08360
G1 X29.260 Y31.445 E1.08614
G1 X29.196 Y31.181 E1.08867
G1 X29.175 Y30.909 E1.09121
G1 X29.196 Y30.638 E1.09374
G1 X29.260 Y30.373 E1.09627
G1 X29.364 Y30.122 E1.09881
G1 X29.482 Y29.929 E1.10092
G1 X29.506 Y29.890 E1.10134
G1 X29.752 Y30.069 F7200.000
G1 X29.898 Y29.898 F1800.000 E1.10343
G1 X30.036 Y29.781 E1.10511
G1 X30.260 Y29.635 E1.10760
G1 X30.467 Y29.549 E1.10969
G1 X30.686 Y29.497 E1.11178
G1 X30.909 Y29.479 E1.11387
G1 X31.133 Y29.497 E1.11596
G1 X31.351 Y29.549 E1.11805
G1 X31.559 Y29.635 E1.12014
G1 X31.750 Y29.752 E1.12223
G1 X31.921 Y29.898 E1.12431
G1 X32.066 Y30.069 E1.12640
G1 X32.183 Y30.260 E1.12849
G1 X32.269 Y30.467 E1.13058
G1 X32.322 Y30.686 E1.13267
G1 X32.339 Y30.909 E1.13476
G1 X32.322 Y31.133 E1.13685
G1 X32.280 Y31.309 E1.13853
G1 X32.184 Y31.559 E1.14102
G1 X32.066 Y31.750 E1.14311
G1 X31.920 Y31.920 E1.14520
G1 X31.750 Y32.066 E1.14729
G1 X31.559 Y32.184 E1.14938
G1 X31.351 Y32.269 E1.15147
G1 X31.133 Y32.322 E1.15356
G1 X30.909 Y32.339 E1.15564
G1 X30.686 Y32.322 E1.15773
G1 X30.467 Y32.269 E1.15982
G1 X30.260 Y32.183 E1.16191
G1 X30.069 Y32.066 E1.16400
G1 X29.898 Y31.921 E1.16609
G1 X29.752 Y31.750 E1.16818
G1 X29.635 Y31.559 E1.17027
G1 X29.549 Y31.351 E1.17236
G1 X29.497 Y31.133 E1.17444
G1 X29.479 Y30.909 E1.17653
G1 X29.497 Y30.686 E1.17862
G1 X29.549 Y30.467 E1.18071
G1 X29.635 Y30.260 E1.18280
G1 X29.729 Y30.108 E1.18446
G1 X29.752 Y30.069 E1.18489
G1 X29.999 Y30.248 F7200.000
G1 X30.114 Y30.114 F1800.000 E1.18653
G1 X30.233 Y30.012 E1.18799
G1 X30.398 Y29.907 E1.18982
G1 X30.562 Y29.839 E1.19146
G1 X30.733 Y29.798 E1.19311
G1 X30.909 Y29.784 E1.19475
G1 X31.085 Y29.798 E1.19639
G1 X31.257 Y29.839 E1.19804
G1 X31.420 Y29.907 E1.19968
G1 X31.571 Y29.999 E1.20133
G1 X31.705 Y30.114 E1.20297
G1 X31.820 Y30.248 E1.20461
G1 X31.912 Y30.398 E1.20626
G1 X31.980 Y30.562 E1.20790
G1 X32.021 Y30.733 E1.20955
G1 X32.035 Y30.909 E1.21119
G1 X32.021 Y31.085 E1.21283
G1 X31.984 Y31.238 E1.21429
G1 X31.912 Y31.420 E1.21612
G1 X31.820 Y31.571 E1.21776
G1 X31.705 Y31.705 E1.21941
G1 X31.571 Y31.820 E1.22105
G1 X31.420 Y31.912 E1.22270
G1 X31.257 Y31.980 E1.22434
G1 X31.085 Y32.021 E1.22598
G1 X30.909 Y32.035 E1.22763
G1 X30.733 Y32.021 E1.22927
G1 X30.562 Y31.980 E1.23091
G1 X30.398 Y31.912 E1.23256
G1 X30.248 Y31.820 E1.23420
G1 X30.101 Y31.690 E1.23603
G1 X29.999 Y31.571 E1.23749
G1 X29.907 Y31.420 E1.23913
G1 X29.839 Y31.257 E1.24078
G1 X29.798 Y31.085 E1.24242
