; generated by Slic3r 0.9.8 on 2013-09-08 at 15:07:23

; layer_height = 0.25
; perimeters = 3
; top_solid_layers = 3
; bottom_solid_layers = 3
; fill_density = 0.5
; perimeter_speed = 30
; infill_speed = 40
; travel_speed = 100
; scale = 1
; nozzle_diameter = 0.5
; filament_diameter = 2.9
; extrusion_multiplier = 0.81
; perimeters extrusion width = 0.40mm
; infill extrusion width = 0.25mm
; first layer extrusion width = 0.27mm

M107
M190 S70 ; wait for bed temperature to be reached
M104 S225 ; set temperature
G28 ; home all axes
M109 S225 ; wait for temperature to be reached
G90 ; use absolute coordinates
G21 ; set units to millimeters
G92 E0
M82 ; use absolute distances for extrusion
G1 F1800.000 E-2.00000
G92 E0
G1 Z0.250 F6000.000
G1 X11.037 Y37.397
G1 F1800.000 E2.00000
G1 X10.357 Y36.637 F1200.000 E2.00992
G1 X9.817 Y35.897 E2.01884
G1 X9.507 Y35.407 E2.02448
G1 X9.247 Y34.927 E2.02979
G1 X8.907 Y34.147 E2.03807
G1 X8.577 Y33.127 E2.04850
G1 X8.397 Y32.317 E2.05658
G1 X8.317 Y31.777 E2.06189
G1 X8.277 Y31.207 E2.06745
G1 X8.277 Y30.187 E2.07737
G1 X8.317 Y29.627 E2.08284
G1 X8.447 Y28.837 E2.09063
G1 X8.577 Y28.297 E2.09603
G1 X8.907 Y27.277 E2.10646
G1 X9.247 Y26.497 E2.11474
G1 X9.507 Y26.017 E2.12006
G1 X10.097 Y25.117 E2.13053
G1 X17.097 Y15.627 E2.24527
G1 X17.657 Y14.947 E2.25385
G1 X18.437 Y14.167 E2.26458
G1 X18.657 Y13.977 E2.26741
G1 X19.527 Y13.327 E2.27797
G1 X20.017 Y13.017 E2.28362
G1 X20.497 Y12.757 E2.28893
G1 X21.277 Y12.417 E2.29721
G1 X22.297 Y12.087 E2.30764
G1 X22.837 Y11.957 E2.31304
G1 X23.627 Y11.827 E2.32084
G1 X24.187 Y11.787 E2.32630
G1 X25.277 Y11.787 E2.33690
G1 X111.987 Y18.317 E3.18303
G1 X112.577 Y18.407 E3.18884
G1 X113.157 Y18.547 E3.19465
G1 X114.007 Y18.837 E3.20339
G1 X114.547 Y19.087 E3.20918
G1 X115.327 Y19.547 E3.21799
G1 X115.807 Y19.897 E3.22377
G1 X116.267 Y20.287 E3.22964
G1 X119.157 Y23.177 E3.26941
G1 X119.757 Y23.907 E3.27860
G1 X120.097 Y24.437 E3.28473
G1 X120.397 Y24.987 E3.29082
G1 X120.757 Y25.857 E3.29999
G1 X120.937 Y26.457 E3.30608
G1 X121.007 Y26.767 E3.30917
G1 X141.537 Y125.197 E4.28757
G1 X141.677 Y126.177 E4.29720
G1 X141.717 Y126.707 E4.30237
G1 X141.717 Y127.847 E4.31346
G1 X141.677 Y128.377 E4.31864
G1 X141.617 Y128.907 E4.32383
G1 X141.517 Y129.427 E4.32898
G1 X141.327 Y130.187 E4.33660
G1 X140.997 Y131.187 E4.34685
G1 X140.797 Y131.677 E4.35200
G1 X140.217 Y132.817 E4.36444
G1 X139.937 Y133.267 E4.36960
G1 X139.277 Y134.167 E4.38046
G1 X138.937 Y134.567 E4.38557
G1 X138.067 Y135.437 E4.39754
G1 X137.667 Y135.777 E4.40265
G1 X136.767 Y136.437 E4.41351
G1 X136.317 Y136.717 E4.41867
G1 X135.177 Y137.297 E4.43111
G1 X134.687 Y137.497 E4.43626
G1 X133.687 Y137.827 E4.44651
G1 X132.927 Y138.017 E4.45413
G1 X132.407 Y138.117 E4.45929
G1 X131.347 Y138.217 E4.46965
G1 X130.207 Y138.217 E4.48074
G1 X129.147 Y138.117 E4.49110
G1 X128.627 Y138.017 E4.49625
G1 X127.867 Y137.827 E4.50387
G1 X126.867 Y137.497 E4.51412
G1 X125.997 Y137.137 E4.52328
G1 X98.467 Y124.087 E4.81974
G1 X97.817 Y123.737 E4.82692
G1 X97.117 Y123.297 E4.83497
G1 X96.487 Y122.807 E4.84273
G1 X95.877 Y122.237 E4.85086
G1 X11.071 Y37.431 E6.01789
G1 X11.037 Y37.397 E6.01835
G1 X11.257 Y37.177 F6000.000
G1 X10.607 Y36.437 F1200.000 E6.02794
G1 X10.087 Y35.727 E6.03650
G1 X9.787 Y35.247 E6.04201
G1 X9.537 Y34.787 E6.04710
G1 X9.417 Y34.547 E6.04971
G1 X9.207 Y34.027 E6.05517
G1 X8.887 Y33.047 E6.06520
G1 X8.707 Y32.267 E6.07299
G1 X8.637 Y31.747 E6.07810
G1 X8.597 Y31.187 E6.08356
G1 X8.597 Y30.207 E6.09310
G1 X8.667 Y29.407 E6.10091
G1 X8.757 Y28.907 E6.10585
G1 X8.887 Y28.377 E6.11116
G1 X9.207 Y27.397 E6.12119
G1 X9.417 Y26.877 E6.12665
G1 X9.787 Y26.177 E6.13436
G1 X10.357 Y25.297 E6.14456
G1 X17.357 Y15.807 E6.25931
G1 X17.897 Y15.157 E6.26753
G1 X18.647 Y14.407 E6.27785
G1 X18.867 Y14.217 E6.28068
G1 X19.697 Y13.597 E6.29076
G1 X20.407 Y13.167 E6.29884
G1 X20.877 Y12.927 E6.30397
G1 X21.397 Y12.717 E6.30943
G1 X22.377 Y12.397 E6.31946
G1 X22.907 Y12.267 E6.32477
G1 X23.407 Y12.177 E6.32971
G1 X24.207 Y12.107 E6.33753
G1 X25.257 Y12.107 E6.34774
G1 X111.667 Y18.607 E7.19094
G1 X112.237 Y18.677 E7.19653
G1 X113.077 Y18.857 E7.20489
G1 X113.617 Y19.027 E7.21040
G1 X114.147 Y19.247 E7.21598
G1 X114.657 Y19.507 E7.22155
G1 X115.147 Y19.807 E7.22714
G1 X115.837 Y20.327 E7.23555
G1 X116.257 Y20.717 E7.24112
G1 X118.717 Y23.177 E7.27498
G1 X119.127 Y23.617 E7.28083
G1 X119.317 Y23.857 E7.28381
G1 X119.667 Y24.347 E7.28967
G1 X119.977 Y24.857 E7.29547
G1 X120.237 Y25.397 E7.30131
G1 X120.347 Y25.677 E7.30423
G1 X120.457 Y25.967 E7.30725
G1 X120.627 Y26.537 E7.31304
G1 X141.227 Y125.267 E8.29443
G1 X141.357 Y126.197 E8.30357
G1 X141.397 Y126.727 E8.30874
G1 X141.397 Y127.827 E8.31944
G1 X141.337 Y128.607 E8.32705
G1 X141.207 Y129.357 E8.33446
G1 X141.017 Y130.117 E8.34208
G1 X140.707 Y131.067 E8.35181
G1 X140.507 Y131.557 E8.35696
G1 X139.947 Y132.647 E8.36888
G1 X139.667 Y133.097 E8.37404
G1 X139.037 Y133.967 E8.38449
G1 X138.697 Y134.367 E8.38960
G1 X137.867 Y135.197 E8.40102
G1 X137.467 Y135.537 E8.40613
G1 X136.597 Y136.167 E8.41658
G1 X136.147 Y136.447 E8.42174
G1 X135.057 Y137.007 E8.43366
G1 X134.567 Y137.207 E8.43881
G1 X133.617 Y137.517 E8.44854
G1 X132.857 Y137.707 E8.45616
G1 X132.107 Y137.837 E8.46357
G1 X131.327 Y137.897 E8.47118
G1 X130.227 Y137.897 E8.48188
G1 X129.447 Y137.837 E8.48950
G1 X128.697 Y137.707 E8.49690
G1 X127.937 Y137.517 E8.50452
G1 X126.987 Y137.207 E8.51425
G1 X126.497 Y137.007 E8.51940
G1 X98.607 Y123.797 E8.81969
G1 X97.977 Y123.457 E8.82665
G1 X97.507 Y123.177 E8.83198
G1 X97.097 Y122.887 E8.83686
G1 X96.697 Y122.567 E8.84185
G1 X96.097 Y122.017 E8.84977
G1 X11.291 Y37.211 E10.01680
G1 X11.257 Y37.177 E10.01726
G1 X11.477 Y36.957 F6000.000
G1 X10.847 Y36.237 F1200.000 E10.02657
G1 X10.347 Y35.557 E10.03478
G1 X10.057 Y35.087 E10.04016
G1 X9.817 Y34.647 E10.04504
G1 X9.497 Y33.907 E10.05288
G1 X9.197 Y32.977 E10.06239
G1 X9.067 Y32.447 E10.06770
G1 X8.977 Y31.967 E10.07245
G1 X8.907 Y31.167 E10.08027
G1 X8.907 Y30.227 E10.08941
G1 X9.017 Y29.207 E10.09939
G1 X9.197 Y28.447 E10.10699
G1 X9.497 Y27.517 E10.11650
G1 X9.817 Y26.777 E10.12435
G1 X10.187 Y26.117 E10.13171
G1 X10.617 Y25.487 E10.13913
G1 X17.617 Y15.997 E10.25388
G1 X18.137 Y15.367 E10.26183
G1 X18.857 Y14.647 E10.27174
G1 X19.077 Y14.457 E10.27457
G1 X19.867 Y13.857 E10.28422
G1 X20.337 Y13.567 E10.28959
G1 X21.007 Y13.217 E10.29695
G1 X21.517 Y13.007 E10.30231
G1 X22.447 Y12.707 E10.31182
G1 X23.207 Y12.527 E10.31942
G1 X24.227 Y12.417 E10.32941
G1 X25.227 Y12.427 E10.33914
G1 X111.637 Y18.927 E11.18233
G1 X112.217 Y18.997 E11.18802
G1 X112.787 Y19.107 E11.19367
G1 X113.347 Y19.267 E11.19933
G1 X113.887 Y19.477 E11.20497
G1 X114.147 Y19.597 E11.20776
G1 X114.657 Y19.877 E11.21342
G1 X115.147 Y20.187 E11.21906
G1 X115.607 Y20.547 E11.22474
G1 X116.037 Y20.937 E11.23039
G1 X118.497 Y23.397 E11.26425
G1 X118.887 Y23.827 E11.26989
G1 X119.237 Y24.277 E11.27544
G1 X119.697 Y25.007 E11.28384
G1 X119.947 Y25.527 E11.28945
G1 X120.157 Y26.067 E11.29509
G1 X120.387 Y26.897 E11.30347
G1 X140.917 Y125.327 E12.28186
G1 X141.037 Y126.227 E12.29070
G1 X141.077 Y126.757 E12.29587
G1 X141.077 Y127.797 E12.30599
G1 X141.017 Y128.567 E12.31351
G1 X140.947 Y129.047 E12.31823
G1 X140.717 Y130.037 E12.32812
G1 X140.417 Y130.947 E12.33744
G1 X140.217 Y131.437 E12.34259
G1 X139.677 Y132.477 E12.35399
G1 X139.397 Y132.927 E12.35915
G1 X138.797 Y133.757 E12.36911
G1 X138.457 Y134.157 E12.37422
G1 X137.657 Y134.957 E12.38523
G1 X137.257 Y135.297 E12.39034
G1 X136.427 Y135.897 E12.40031
G1 X135.977 Y136.177 E12.40546
G1 X134.937 Y136.717 E12.41687
G1 X134.447 Y136.917 E12.42202
G1 X133.537 Y137.217 E12.43134
G1 X133.027 Y137.347 E12.43646
G1 X132.307 Y137.487 E12.44360
G1 X131.297 Y137.577 E12.45346
G1 X130.257 Y137.577 E12.46358
G1 X129.247 Y137.487 E12.47345
G1 X128.527 Y137.347 E12.48059
G1 X128.017 Y137.217 E12.48571
G1 X127.107 Y136.917 E12.49503
G1 X126.617 Y136.717 E12.50018
G1 X98.737 Y123.507 E12.80038
G1 X97.887 Y123.037 E12.80984
G1 X97.477 Y122.777 E12.81456
G1 X97.087 Y122.477 E12.81935
G1 X96.317 Y121.797 E12.82934
G1 X11.511 Y36.991 E13.99637
G1 X11.477 Y36.957 E13.99684
G1 X11.707 Y36.727 F6000.000
G1 X11.087 Y36.037 F1200.000 E14.00586
G1 X10.617 Y35.387 E14.01367
G1 X10.327 Y34.927 E14.01896
G1 X10.097 Y34.497 E14.02371
G1 X9.797 Y33.787 E14.03121
G1 X9.497 Y32.897 E14.04034
G1 X9.327 Y32.157 E14.04773
G1 X9.267 Y31.687 E14.05234
G1 X9.227 Y31.147 E14.05761
G1 X9.227 Y30.247 E14.06637
G1 X9.297 Y29.497 E14.07370
G1 X9.377 Y29.037 E14.07824
G1 X9.497 Y28.527 E14.08334
G1 X9.797 Y27.637 E14.09248
G1 X10.097 Y26.927 E14.09998
G1 X10.327 Y26.497 E14.10472
G1 X10.867 Y25.677 E14.11428
G1 X17.867 Y16.187 E14.22903
G1 X18.377 Y15.567 E14.23684
G1 X19.057 Y14.887 E14.24619
G1 X19.277 Y14.697 E14.24902
G1 X20.037 Y14.127 E14.25827
G1 X20.497 Y13.837 E14.26356
G1 X20.927 Y13.607 E14.26830
G1 X21.637 Y13.307 E14.27580
G1 X22.527 Y13.007 E14.28494
G1 X23.037 Y12.887 E14.29004
G1 X23.727 Y12.777 E14.29684
G1 X24.247 Y12.737 E14.30191
G1 X25.207 Y12.737 E14.31126
G1 X111.887 Y19.267 E15.15709
G1 X112.437 Y19.357 E15.16252
G1 X113.237 Y19.567 E15.17056
G1 X113.757 Y19.767 E15.17599
G1 X114.007 Y19.887 E15.17868
G1 X114.497 Y20.147 E15.18408
G1 X114.967 Y20.447 E15.18951
G1 X115.397 Y20.787 E15.19484
G1 X115.807 Y21.167 E15.20028
G1 X118.477 Y23.837 E15.23702
G1 X118.857 Y24.297 E15.24283
G1 X119.027 Y24.537 E15.24569
G1 X119.187 Y24.777 E15.24850
G1 X119.487 Y25.297 E15.25434
G1 X119.837 Y26.107 E15.26293
G1 X120.077 Y26.967 E15.27161
G1 X140.607 Y125.397 E16.25001
G1 X140.727 Y126.247 E16.25836
G1 X140.767 Y126.777 E16.26353
G1 X140.767 Y127.777 E16.27326
G1 X140.727 Y128.307 E16.27843
G1 X140.637 Y128.997 E16.28521
G1 X140.407 Y129.957 E16.29481
G1 X140.117 Y130.827 E16.30373
G1 X139.917 Y131.317 E16.30888
G1 X139.407 Y132.317 E16.31981
G1 X139.127 Y132.767 E16.32496
G1 X138.557 Y133.557 E16.33444
G1 X138.217 Y133.957 E16.33955
G1 X137.457 Y134.717 E16.35001
G1 X137.057 Y135.057 E16.35512
G1 X136.267 Y135.627 E16.36460
G1 X135.817 Y135.907 E16.36976
G1 X134.817 Y136.417 E16.38068
G1 X134.327 Y136.617 E16.38583
G1 X133.457 Y136.907 E16.39475
G1 X132.947 Y137.037 E16.39987
G1 X132.267 Y137.177 E16.40663
G1 X131.277 Y137.267 E16.41630
G1 X130.277 Y137.267 E16.42603
G1 X129.287 Y137.177 E16.43571
G1 X128.607 Y137.037 E16.44246
G1 X128.097 Y136.907 E16.44758
G1 X127.227 Y136.617 E16.45651
G1 X126.407 Y136.277 E16.46514
G1 X98.877 Y123.227 E16.76160
G1 X97.857 Y122.647 E16.77302
G1 X97.287 Y122.237 E16.77985
G1 X96.547 Y121.567 E16.78956
G1 X11.741 Y36.761 E17.95659
G1 X11.707 Y36.727 E17.95706
G1 X11.927 Y36.507 F6000.000
G1 X11.337 Y35.827 F1200.000 E17.96582
G1 X10.887 Y35.217 E17.97319
G1 X10.487 Y34.567 E17.98062
G1 X10.287 Y34.157 E17.98506
G1 X10.087 Y33.667 E17.99021
G1 X9.807 Y32.817 E17.99892
G1 X9.687 Y32.317 E18.00392
G1 X9.607 Y31.877 E18.00827
G1 X9.547 Y31.127 E18.01559
G1 X9.547 Y30.277 E18.02386
G1 X9.607 Y29.537 E18.03109
G1 X9.687 Y29.097 E18.03544
G1 X9.807 Y28.607 E18.04035
G1 X10.087 Y27.757 E18.04906
G1 X10.287 Y27.267 E18.05421
G1 X10.487 Y26.857 E18.05865
G1 X10.887 Y26.207 E18.06607
G1 X11.127 Y25.867 E18.07012
G1 X18.127 Y16.377 E18.18487
G1 X18.617 Y15.777 E18.19241
G1 X19.267 Y15.127 E18.20135
G1 X19.487 Y14.937 E18.20418
G1 X20.207 Y14.397 E18.21294
G1 X20.857 Y13.997 E18.22036
G1 X21.267 Y13.797 E18.22480
G1 X21.757 Y13.597 E18.22995
G1 X22.607 Y13.317 E18.23866
G1 X23.097 Y13.197 E18.24357
G1 X23.537 Y13.117 E18.24792
G1 X24.277 Y13.057 E18.25515
G1 X25.177 Y13.057 E18.26390
G1 X111.867 Y19.587 E19.10984
G1 X112.697 Y19.737 E19.11805
G1 X113.237 Y19.907 E19.12355
G1 X114.007 Y20.237 E19.13171
G1 X114.727 Y20.667 E19.13987
G1 X115.167 Y21.007 E19.14528
G1 X115.587 Y21.387 E19.15079
G1 X118.047 Y23.847 E19.18464
G1 X118.427 Y24.267 E19.19015
G1 X118.597 Y24.487 E19.19286
G1 X118.767 Y24.717 E19.19564
G1 X119.067 Y25.187 E19.20107
G1 X119.327 Y25.687 E19.20655
G1 X119.437 Y25.947 E19.20930
G1 X119.617 Y26.477 E19.21474
G1 X119.757 Y27.027 E19.22027
G1 X140.287 Y125.457 E20.19866
G1 X140.407 Y126.267 E20.20663
G1 X140.447 Y126.797 E20.21180
G1 X140.447 Y127.757 E20.22114
G1 X140.407 Y128.287 E20.22631
G1 X140.327 Y128.937 E20.23269
G1 X140.097 Y129.877 E20.24210
G1 X139.827 Y130.707 E20.25059
G1 X139.627 Y131.197 E20.25574
G1 X139.137 Y132.147 E20.26615
G1 X138.857 Y132.597 E20.27130
G1 X138.307 Y133.347 E20.28035
G1 X137.967 Y133.747 E20.28546
G1 X137.247 Y134.467 E20.29537
G1 X136.847 Y134.807 E20.30048
G1 X136.097 Y135.357 E20.30953
G1 X135.647 Y135.637 E20.31468
G1 X134.697 Y136.127 E20.32509
G1 X134.207 Y136.327 E20.33024
G1 X133.377 Y136.597 E20.33873
G1 X132.867 Y136.727 E20.34385
G1 X132.437 Y136.827 E20.34815
G1 X131.997 Y136.887 E20.35247
G1 X131.257 Y136.947 E20.35969
G1 X130.297 Y136.947 E20.36903
G1 X129.557 Y136.887 E20.37626
G1 X129.117 Y136.827 E20.38058
G1 X128.177 Y136.597 E20.38999
G1 X127.347 Y136.327 E20.39849
G1 X126.857 Y136.127 E20.40364
G1 X99.007 Y122.937 E20.70349
G1 X98.467 Y122.647 E20.70946
G1 X98.027 Y122.377 E20.71448
G1 X97.667 Y122.127 E20.71874
G1 X97.317 Y121.847 E20.72310
G1 X96.767 Y121.347 E20.73034
G1 X11.961 Y36.541 E21.89737
G1 X11.927 Y36.507 E21.89783
M204 S1000
G1 F1800.000 E19.89783
G92 E0
G1 X25.601 Y20.804 F6000.000
G1 F1800.000 E2.00000
G1 X25.775 Y20.845 F1200.000 E2.00173
G1 X25.939 Y20.913 E2.00346
G1 X26.091 Y21.006 E2.00520
G1 X26.226 Y21.122 E2.00693
G1 X26.342 Y21.257 E2.00866
G1 X26.435 Y21.409 E2.01039
G1 X26.503 Y21.574 E2.01212
G1 X26.544 Y21.747 E2.01385
G1 X26.558 Y21.924 E2.01559
G1 X26.544 Y22.101 E2.01732
G1 X26.503 Y22.275 E2.01905
G1 X26.435 Y22.439 E2.02078
G1 X26.342 Y22.591 E2.02251
G1 X26.226 Y22.726 E2.02425
G1 X26.091 Y22.842 E2.02598
G1 X25.939 Y22.935 E2.02771
G1 X25.775 Y23.003 E2.02944
G1 X25.601 Y23.044 E2.03117
G1 X25.404 Y23.057 E2.03310
G1 X25.247 Y23.044 E2.03463
G1 X25.074 Y23.003 E2.03637
G1 X24.909 Y22.935 E2.03810
G1 X24.757 Y22.842 E2.03983
G1 X24.622 Y22.726 E2.04156
G1 X24.506 Y22.591 E2.04329
G1 X24.413 Y22.439 E2.04502
G1 X24.345 Y22.275 E2.04676
G1 X24.304 Y22.101 E2.04849
G1 X24.290 Y21.924 E2.05022
G1 X24.304 Y21.747 E2.05195
G1 X24.345 Y21.574 E2.05368
G1 X24.413 Y21.409 E2.05541
G1 X24.506 Y21.257 E2.05715
G1 X24.622 Y21.122 E2.05888
G1 X24.757 Y21.006 E2.06061
G1 X24.909 Y20.913 E2.06234
G1 X25.074 Y20.845 E2.06407
G1 X25.247 Y20.804 E2.06581
G1 X25.554 Y20.800 E2.06880
G1 X25.601 Y20.804 E2.06926
G1 X25.801 Y20.557 F6000.000
G1 F1800.000 E0.06926
G92 E0
G1 X33.243 Y29.492 F6000.000
G1 F1800.000 E2.00000
G1 X33.394 Y29.399 F1200.000 E2.00173
G1 X33.559 Y29.331 E2.00346
G1 X33.732 Y29.289 E2.00520
G1 X33.909 Y29.275 E2.00693
G1 X34.087 Y29.289 E2.00866
G1 X34.260 Y29.331 E2.01039
G1 X34.424 Y29.399 E2.01212
G1 X34.576 Y29.492 E2.01386
G1 X34.711 Y29.607 E2.01559
G1 X34.827 Y29.743 E2.01732
G1 X34.920 Y29.894 E2.01905
G1 X34.988 Y30.059 E2.02078
G1 X35.030 Y30.232 E2.02251
G1 X35.043 Y30.409 E2.02424
G1 X35.030 Y30.587 E2.02598
G1 X34.988 Y30.760 E2.02771
G1 X34.920 Y30.924 E2.02944
G1 X34.827 Y31.076 E2.03117
G1 X34.711 Y31.211 E2.03290
G1 X34.576 Y31.327 E2.03464
G1 X34.424 Y31.420 E2.03637
G1 X34.260 Y31.488 E2.03810
G1 X34.087 Y31.530 E2.03983
G1 X33.909 Y31.543 E2.04156
G1 X33.732 Y31.530 E2.04329
G1 X33.559 Y31.488 E2.04503
G1 X33.394 Y31.420 E2.04676
G1 X33.243 Y31.327 E2.04849
G1 X33.107 Y31.211 E2.05022
G1 X32.992 Y31.076 E2.05195
G1 X32.899 Y30.924 E2.05369
G1 X32.831 Y30.760 E2.05542
G1 X32.789 Y30.587 E2.05715
G1 X32.775 Y30.409 E2.05888
