; generated by Slic3r 0.9.8 on 2013-09-08 at 22:06:27

; layer_height = 0.25
; perimeters = 3
; top_solid_layers = 3
; bottom_solid_layers = 3
; fill_density = 0.3
; perimeter_speed = 60
; infill_speed = 60
; travel_speed = 120
; scale = 1
; nozzle_diameter = 0.5
; filament_diameter = 2.9
; extrusion_multiplier = 0.81
; perimeters extrusion width = 0.40mm
; infill extrusion width = 0.25mm
; first layer extrusion width = 0.25mm

M107
M190 S70 ; wait for bed temperature to be reached
M104 S225 ; set temperature
G28 ; home all axes
M109 S225 ; wait for temperature to be reached
G90 ; use absolute coordinates
G21 ; set units to millimeters
G92 E0
M82 ; use absolute distances for extrusion
G1 F1800.000 E-1.00000
G92 E0
G1 Z0.250 F7200.000
G1 X14.647 Y28.477
G1 F1800.000 E1.00000
G1 X14.137 Y27.897 F1800.000 E1.00719
G1 X13.547 Y27.087 E1.01652
G1 X13.177 Y26.497 E1.02300
G1 X12.837 Y25.837 E1.02991
G1 X12.567 Y25.187 E1.03647
G1 X12.237 Y24.127 E1.04680
G1 X12.137 Y23.687 E1.05100
G1 X11.997 Y22.767 E1.05966
G1 X11.927 Y21.827 E1.06844
G1 X11.937 Y21.327 E1.07309
G1 X11.997 Y20.637 E1.07954
G1 X12.137 Y19.737 E1.08802
G1 X12.237 Y19.297 E1.09222
G1 X12.567 Y18.237 E1.10256
G1 X12.837 Y17.587 E1.10911
G1 X13.057 Y17.147 E1.11369
G1 X13.307 Y16.717 E1.11832
G1 X13.547 Y16.337 E1.12250
G1 X14.067 Y15.617 E1.13077
G1 X14.697 Y14.887 E1.13975
G1 X15.067 Y14.527 E1.14455
G1 X15.617 Y14.067 E1.15123
G1 X16.337 Y13.547 E1.15950
G1 X16.927 Y13.177 E1.16598
G1 X17.817 Y12.737 E1.17522
G1 X18.237 Y12.567 E1.17944
G1 X19.297 Y12.237 E1.18977
G1 X19.737 Y12.137 E1.19397
G1 X20.637 Y11.997 E1.20245
G1 X21.077 Y11.957 E1.20657
G1 X22.167 Y11.937 E1.21672
G1 X44.677 Y13.437 E1.42673
G1 X45.227 Y13.487 E1.43187
G1 X45.707 Y13.547 E1.43637
G1 X45.947 Y13.597 E1.43866
G1 X46.467 Y13.727 E1.44365
G1 X47.317 Y13.997 E1.45195
G1 X48.087 Y14.317 E1.45971
G1 X48.567 Y14.577 E1.46479
G1 X49.047 Y14.877 E1.47006
G1 X49.837 Y15.467 E1.47924
G1 X50.427 Y15.997 E1.48662
G1 X121.137 Y86.707 E2.41754
G1 X121.667 Y87.297 E2.42492
G1 X122.257 Y88.087 E2.43410
G1 X122.667 Y88.757 E2.44141
G1 X122.887 Y89.197 E2.44599
G1 X137.187 Y123.637 E2.79314
G1 X137.387 Y124.127 E2.79807
G1 X137.717 Y125.157 E2.80813
G1 X137.837 Y125.667 E2.81301
G1 X137.987 Y126.597 E2.82178
G1 X138.067 Y127.647 E2.83158
G1 X138.057 Y128.167 E2.83643
G1 X137.987 Y128.957 E2.84381
G1 X137.837 Y129.887 E2.85258
G1 X137.717 Y130.397 E2.85746
G1 X137.387 Y131.427 E2.86752
G1 X137.187 Y131.917 E2.87245
G1 X136.657 Y132.957 E2.88332
G1 X136.377 Y133.407 E2.88825
G1 X135.827 Y134.167 E2.89699
G1 X135.147 Y134.957 E2.90669
G1 X134.777 Y135.317 E2.91149
G1 X134.167 Y135.827 E2.91890
G1 X133.407 Y136.377 E2.92763
G1 X132.957 Y136.657 E2.93256
G1 X131.917 Y137.187 E2.94343
G1 X131.427 Y137.387 E2.94836
G1 X130.397 Y137.717 E2.95843
G1 X129.887 Y137.837 E2.96330
G1 X128.957 Y137.987 E2.97207
G1 X127.907 Y138.067 E2.98188
G1 X127.387 Y138.057 E2.98672
G1 X126.597 Y137.987 E2.99410
G1 X125.667 Y137.837 E3.00287
G1 X125.157 Y137.717 E3.00775
G1 X124.127 Y137.387 E3.01782
G1 X123.637 Y137.187 E3.02274
G1 X122.597 Y136.657 E3.03361
G1 X121.817 Y136.157 E3.04223
G1 X105.257 Y124.497 E3.23077
G1 X104.747 Y124.107 E3.23675
G1 X103.927 Y123.407 E3.24679
G1 X103.377 Y122.877 E3.25390
G1 X14.678 Y28.510 E4.45952
G1 X14.647 Y28.477 E4.45995
G1 X14.877 Y28.277 F7200.000
G1 X14.367 Y27.697 F1800.000 E4.46714
G1 X13.797 Y26.927 E4.47606
G1 X13.437 Y26.347 E4.48241
G1 X13.117 Y25.717 E4.48899
G1 X12.857 Y25.077 E4.49542
G1 X12.537 Y24.057 E4.50537
G1 X12.437 Y23.617 E4.50957
G1 X12.297 Y22.747 E4.51778
G1 X12.227 Y21.817 E4.52646
G1 X12.237 Y21.347 E4.53083
G1 X12.297 Y20.667 E4.53719
G1 X12.437 Y19.807 E4.54530
G1 X12.537 Y19.367 E4.54950
G1 X12.857 Y18.347 E4.55945
G1 X13.117 Y17.707 E4.56588
G1 X13.557 Y16.877 E4.57463
G1 X13.797 Y16.497 E4.57881
G1 X14.297 Y15.807 E4.58675
G1 X14.917 Y15.097 E4.59552
G1 X15.277 Y14.747 E4.60019
G1 X15.807 Y14.297 E4.60667
G1 X16.497 Y13.797 E4.61460
G1 X17.077 Y13.437 E4.62095
G1 X17.497 Y13.217 E4.62537
G1 X17.927 Y13.027 E4.62974
G1 X18.347 Y12.857 E4.63396
G1 X19.367 Y12.537 E4.64391
G1 X19.807 Y12.437 E4.64811
G1 X20.667 Y12.297 E4.65623
G1 X21.107 Y12.257 E4.66034
G1 X22.147 Y12.247 E4.67002
G1 X45.197 Y13.787 E4.88508
G1 X45.657 Y13.847 E4.88940
G1 X46.387 Y14.017 E4.89637
G1 X47.207 Y14.277 E4.90438
G1 X47.717 Y14.487 E4.90952
G1 X48.187 Y14.707 E4.91435
G1 X48.877 Y15.127 E4.92187
G1 X49.637 Y15.697 E4.93071
G1 X50.207 Y16.217 E4.93789
G1 X120.917 Y86.927 E5.86881
G1 X121.247 Y87.277 E5.87328
G1 X121.437 Y87.497 E5.87599
G1 X122.007 Y88.257 E5.88483
G1 X122.287 Y88.707 E5.88977
G1 X122.607 Y89.317 E5.89618
G1 X136.907 Y123.747 E6.24324
G1 X137.107 Y124.237 E6.24817
G1 X137.417 Y125.227 E6.25783
G1 X137.537 Y125.737 E6.26270
G1 X137.687 Y126.627 E6.27111
G1 X137.767 Y127.657 E6.28072
G1 X137.757 Y128.147 E6.28529
G1 X137.687 Y128.927 E6.29258
G1 X137.537 Y129.817 E6.30098
G1 X137.417 Y130.327 E6.30585
G1 X137.107 Y131.317 E6.31551
G1 X136.907 Y131.807 E6.32044
G1 X136.397 Y132.797 E6.33081
G1 X136.117 Y133.247 E6.33574
G1 X135.597 Y133.977 E6.34408
G1 X135.257 Y134.387 E6.34904
G1 X134.927 Y134.747 E6.35359
G1 X134.567 Y135.097 E6.35826
G1 X133.977 Y135.597 E6.36546
G1 X133.247 Y136.117 E6.37381
G1 X132.797 Y136.397 E6.37874
G1 X131.807 Y136.907 E6.38911
G1 X131.317 Y137.107 E6.39403
G1 X130.327 Y137.417 E6.40369
G1 X129.817 Y137.537 E6.40857
G1 X128.927 Y137.687 E6.41697
G1 X127.897 Y137.767 E6.42659
G1 X127.407 Y137.757 E6.43115
G1 X126.627 Y137.687 E6.43844
G1 X125.737 Y137.537 E6.44684
G1 X125.227 Y137.417 E6.45172
G1 X124.237 Y137.107 E6.46138
G1 X123.747 Y136.907 E6.46630
G1 X122.757 Y136.397 E6.47667
G1 X121.997 Y135.907 E6.48509
G1 X105.437 Y124.247 E6.67363
G1 X104.947 Y123.877 E6.67935
G1 X104.127 Y123.177 E6.68938
G1 X103.607 Y122.677 E6.69610
G1 X14.908 Y28.310 E7.90173
G1 X14.877 Y28.277 E7.90215
G1 X15.097 Y28.067 F7200.000
G1 X14.597 Y27.497 F1800.000 E7.90921
G1 X14.057 Y26.767 E7.91766
G1 X13.587 Y25.997 E7.92606
G1 X13.137 Y24.967 E7.93652
G1 X12.827 Y23.997 E7.94600
G1 X12.727 Y23.557 E7.95020
G1 X12.597 Y22.717 E7.95812
G1 X12.537 Y21.817 E7.96651
G1 X12.557 Y21.137 E7.97285
G1 X12.597 Y20.697 E7.97696
G1 X12.727 Y19.867 E7.98478
G1 X12.827 Y19.427 E7.98898
G1 X13.137 Y18.457 E7.99846
G1 X13.587 Y17.427 E8.00892
G1 X14.057 Y16.657 E8.01732
G1 X14.537 Y16.007 E8.02484
G1 X14.977 Y15.477 E8.03126
G1 X15.477 Y14.977 E8.03784
G1 X16.007 Y14.537 E8.04425
G1 X16.657 Y14.057 E8.05177
G1 X17.427 Y13.587 E8.06017
G1 X18.457 Y13.137 E8.07063
G1 X19.427 Y12.827 E8.08011
G1 X19.867 Y12.727 E8.08431
G1 X20.697 Y12.597 E8.09214
G1 X21.137 Y12.557 E8.09625
G1 X22.127 Y12.547 E8.10547
G1 X45.157 Y14.087 E8.32034
G1 X45.597 Y14.147 E8.32447
G1 X46.037 Y14.237 E8.32865
G1 X46.317 Y14.307 E8.33134
G1 X47.087 Y14.557 E8.33887
G1 X47.827 Y14.867 E8.34634
G1 X48.257 Y15.097 E8.35088
G1 X48.717 Y15.387 E8.35594
G1 X49.437 Y15.927 E8.36432
G1 X49.997 Y16.427 E8.37131
G1 X120.707 Y87.137 E9.30222
G1 X121.207 Y87.697 E9.30921
G1 X121.747 Y88.417 E9.31759
G1 X122.137 Y89.047 E9.32449
G1 X122.417 Y89.647 E9.33065
G1 X136.827 Y124.357 E9.68051
G1 X137.127 Y125.297 E9.68970
G1 X137.247 Y125.807 E9.69458
G1 X137.387 Y126.657 E9.70260
G1 X137.437 Y127.187 E9.70755
G1 X137.457 Y127.897 E9.71416
G1 X137.437 Y128.367 E9.71854
G1 X137.387 Y128.897 E9.72350
G1 X137.247 Y129.747 E9.73152
G1 X137.127 Y130.257 E9.73640
G1 X136.827 Y131.197 E9.74558
G1 X136.627 Y131.687 E9.75051
G1 X136.137 Y132.637 E9.76046
G1 X135.857 Y133.087 E9.76539
G1 X135.357 Y133.777 E9.77333
G1 X134.707 Y134.537 E9.78264
G1 X134.367 Y134.867 E9.78705
G1 X133.777 Y135.357 E9.79419
G1 X133.087 Y135.857 E9.80212
G1 X132.637 Y136.137 E9.80705
G1 X131.687 Y136.627 E9.81700
G1 X131.197 Y136.827 E9.82193
G1 X130.257 Y137.127 E9.83112
G1 X129.747 Y137.247 E9.83599
G1 X128.897 Y137.387 E9.84401
G1 X128.367 Y137.437 E9.84897
G1 X127.897 Y137.457 E9.85335
G1 X127.187 Y137.437 E9.85996
G1 X126.657 Y137.387 E9.86492
G1 X125.807 Y137.247 E9.87294
G1 X125.297 Y137.127 E9.87781
G1 X124.357 Y136.827 E9.88700
G1 X123.867 Y136.627 E9.89192
G1 X122.917 Y136.137 E9.90188
G1 X122.167 Y135.657 E9.91016
G1 X105.607 Y123.997 E10.09871
G1 X105.147 Y123.637 E10.10414
G1 X104.327 Y122.937 E10.11418
G1 X103.827 Y122.467 E10.12057
G1 X15.128 Y28.100 E11.32620
G1 X15.097 Y28.067 E11.32662
M204 S1000
G1 F1800.000 E10.32662
G92 E0
G1 X21.021 Y23.444 F7200.000
G1 F1800.000 E1.00000
G1 X20.853 Y23.149 F1800.000 E1.00316
G1 X20.774 Y22.960 E1.00506
G1 X20.711 Y22.695 E1.00759
G1 X20.690 Y22.424 E1.01013
G1 X20.711 Y22.153 E1.01266
G1 X20.774 Y21.888 E1.01520
G1 X20.879 Y21.636 E1.01773
G1 X21.021 Y21.405 E1.02026
G1 X21.198 Y21.198 E1.02280
G1 X21.405 Y21.021 E1.02533
G1 X21.636 Y20.879 E1.02786
G1 X21.888 Y20.774 E1.03040
G1 X22.087 Y20.727 E1.03230
G1 X22.424 Y20.690 E1.03546
G1 X22.695 Y20.711 E1.03799
G1 X22.960 Y20.774 E1.04053
G1 X23.212 Y20.879 E1.04306
G1 X23.444 Y21.021 E1.04560
G1 X23.651 Y21.198 E1.04813
G1 X23.827 Y21.404 E1.05066
G1 X23.970 Y21.636 E1.05320
G1 X24.074 Y21.888 E1.05573
G1 X24.137 Y22.153 E1.05826
G1 X24.159 Y22.424 E1.06080
G1 X24.137 Y22.695 E1.06333
G1 X24.074 Y22.960 E1.06587
G1 X23.970 Y23.212 E1.06840
G1 X23.827 Y23.444 E1.07093
G1 X23.651 Y23.651 E1.07347
G1 X23.444 Y23.827 E1.07600
G1 X23.212 Y23.970 E1.07854
G1 X22.960 Y24.074 E1.08107
G1 X22.695 Y24.137 E1.08360
G1 X22.424 Y24.159 E1.08614
G1 X22.153 Y24.137 E1.08867
G1 X21.888 Y24.074 E1.09121
G1 X21.636 Y23.970 E1.09374
G1 X21.405 Y23.827 E1.09627
G1 X21.198 Y23.651 E1.09881
G1 X21.050 Y23.478 E1.10092
G1 X21.021 Y23.444 E1.10134
G1 X21.267 Y23.265 F7200.000
G1 X21.133 Y23.033 F1800.000 E1.10383
G1 X21.064 Y22.866 E1.10551
G1 X21.012 Y22.648 E1.10760
G1 X20.994 Y22.424 E1.10969
G1 X21.012 Y22.200 E1.11178
G1 X21.064 Y21.982 E1.11387
G1 X21.150 Y21.775 E1.11596
G1 X21.267 Y21.584 E1.11805
G1 X21.413 Y21.413 E1.12014
G1 X21.584 Y21.267 E1.12223
G1 X21.775 Y21.150 E1.12431
G1 X21.982 Y21.064 E1.12640
G1 X22.158 Y21.022 E1.12808
G1 X22.424 Y20.994 E1.13058
G1 X22.648 Y21.012 E1.13267
G1 X22.866 Y21.064 E1.13475
G1 X23.073 Y21.150 E1.13684
G1 X23.265 Y21.267 E1.13893
G1 X23.435 Y21.413 E1.14102
G1 X23.581 Y21.583 E1.14311
G1 X23.698 Y21.775 E1.14520
G1 X23.784 Y21.982 E1.14729
G1 X23.836 Y22.200 E1.14938
G1 X23.854 Y22.424 E1.15147
G1 X23.836 Y22.648 E1.15355
G1 X23.784 Y22.866 E1.15564
G1 X23.698 Y23.073 E1.15773
G1 X23.581 Y23.265 E1.15982
G1 X23.435 Y23.435 E1.16191
G1 X23.265 Y23.581 E1.16400
G1 X23.073 Y23.698 E1.16609
G1 X22.866 Y23.784 E1.16818
G1 X22.648 Y23.836 E1.17026
G1 X22.424 Y23.854 E1.17235
G1 X22.200 Y23.836 E1.17444
G1 X21.982 Y23.784 E1.17653
G1 X21.775 Y23.698 E1.17862
G1 X21.584 Y23.581 E1.18071
G1 X21.413 Y23.435 E1.18280
G1 X21.297 Y23.299 E1.18446
G1 X21.267 Y23.265 E1.18489
G1 X21.514 Y23.086 F7200.000
G1 X21.414 Y22.917 F1800.000 E1.18671
G1 X21.354 Y22.772 E1.18817
G1 X21.313 Y22.600 E1.18982
G1 X21.299 Y22.424 E1.19146
G1 X21.313 Y22.248 E1.19311
G1 X21.354 Y22.076 E1.19475
G1 X21.421 Y21.913 E1.19639
G1 X21.514 Y21.763 E1.19804
G1 X21.628 Y21.628 E1.19968
G1 X21.763 Y21.514 E1.20133
G1 X21.913 Y21.421 E1.20297
G1 X22.076 Y21.354 E1.20461
G1 X22.229 Y21.317 E1.20607
G1 X22.424 Y21.299 E1.20790
G1 X22.600 Y21.313 E1.20954
G1 X22.772 Y21.354 E1.21119
G1 X22.935 Y21.421 E1.21283
G1 X23.086 Y21.514 E1.21447
G1 X23.220 Y21.628 E1.21612
G1 X23.334 Y21.763 E1.21776
G1 X23.427 Y21.913 E1.21941
G1 X23.494 Y22.076 E1.22105
G1 X23.536 Y22.248 E1.22269
G1 X23.549 Y22.424 E1.22434
G1 X23.536 Y22.600 E1.22598
G1 X23.494 Y22.772 E1.22763
G1 X23.427 Y22.935 E1.22927
G1 X23.335 Y23.086 E1.23091
G1 X23.220 Y23.220 E1.23256
G1 X23.086 Y23.335 E1.23420
G1 X22.935 Y23.427 E1.23585
G1 X22.772 Y23.494 E1.23749
G1 X22.600 Y23.536 E1.23913
G1 X22.424 Y23.549 E1.24078
G1 X22.248 Y23.536 E1.24242
G1 X22.076 Y23.494 E1.24407
G1 X21.913 Y23.427 E1.24571
G1 X21.763 Y23.335 E1.24735
G1 X21.543 Y23.120 E1.25021
G1 X21.514 Y23.086 E1.25063
G1 X21.211 Y23.114 F7200.000
G1 F1800.000 E0.25063
G92 E0
G1 X29.506 Y29.890 F7200.000
G1 F1800.000 E1.00000
G1 X29.683 Y29.683 F1800.000 E1.00253
G1 X29.838 Y29.550 E1.00444
G1 X30.122 Y29.364 E1.00760
G1 X30.373 Y29.260 E1.01013
G1 X30.638 Y29.196 E1.01266
G1 X30.909 Y29.175 E1.01520
G1 X31.181 Y29.196 E1.01773
G1 X31.445 Y29.260 E1.02026
G1 X31.697 Y29.364 E1.02280
G1 X31.929 Y29.506 E1.02533
G1 X32.136 Y29.683 E1.02787
G1 X32.313 Y29.890 E1.03040
G1 X32.455 Y30.122 E1.03293
G1 X32.559 Y30.373 E1.03547
G1 X32.623 Y30.638 E1.03800
G1 X32.644 Y30.909 E1.04053
G1 X32.623 Y31.181 E1.04307
G1 X32.575 Y31.380 E1.04497
G1 X32.455 Y31.697 E1.04813
G1 X32.313 Y31.929 E1.05066
G1 X32.136 Y32.136 E1.05320
G1 X31.929 Y32.313 E1.05573
G1 X31.697 Y32.455 E1.05827
G1 X31.445 Y32.559 E1.06080
G1 X31.181 Y32.623 E1.06333
G1 X30.909 Y32.644 E1.06587
G1 X30.638 Y32.623 E1.06840
G1 X30.373 Y32.559 E1.07093
G1 X30.122 Y32.455 E1.07347
G1 X29.890 Y32.313 E1.07600
G1 X29.683 Y32.136 E1.07854
G1 X29.506 Y31.929 E1.08107
G1 X29.364 Y31.697 E1.08360
G1 X29.260 Y31.445 E1.08614
G1 X29.196 Y31.181 E1.08867
G1 X29.175 Y30.909 E1.09121
G1 X29.196 Y30.638 E1.09374
G1 X29.260 Y30.373 E1.09627
G1 X29.364 Y30.122 E1.09881
G1 X29.482 Y29.929 E1.10092
G1 X29.506 Y29.890 E1.10134
G1 X29.752 Y30.069 F7200.000
G1 X29.898 Y29.898 F1800.000 E1.10343
G1 X30.036 Y29.781 E1.10511
G1 X30.260 Y29.635 E1.10760
G1 X30.467 Y29.549 E1.10969
G1 X30.686 Y29.497 E1.11178
G1 X30.909 Y29.479 E1.11387
G1 X31.133 Y29.497 E1.11596
G1 X31.351 Y29.549 E1.11805
G1 X31.559 Y29.635 E1.12014
G1 X31.750 Y29.752 E1.12223
G1 X31.921 Y29.898 E1.12431
G1 X32.066 Y30.069 E1.12640
G1 X32.183 Y30.260 E1.12849
G1 X32.269 Y30.467 E1.13058
G1 X32.322 Y30.686 E1.13267
G1 X32.339 Y30.909 E1.13476
G1 X32.322 Y31.133 E1.13685
G1 X32.280 Y31.309 E1.13853
G1 X32.184 Y31.559 E1.14102
G1 X32.066 Y31.750 E1.14311
G1 X31.920 Y31.920 E1.14520
G1 X31.750 Y32.066 E1.14729
G1 X31.559 Y32.184 E1.14938
G1 X31.351 Y32.269 E1.15147
G1 X31.133 Y32.322 E1.15356
G1 X30.909 Y32.339 E1.15564
G1 X30.686 Y32.322 E1.15773
G1 X30.467 Y32.269 E1.15982
G1 X30.260 Y32.183 E1.16191
G1 X30.069 Y32.066 E1.16400
G1 X29.898 Y31.921 E1.16609
G1 X29.752 Y31.750 E1.16818
G1 X29.635 Y31.559 E1.17027
G1 X29.549 Y31.351 E1.17236
G1 X29.497 Y31.133 E1.17444
G1 X29.479 Y30.909 E1.17653
G1 X29.497 Y30.686 E1.17862
G1 X29.549 Y30.467 E1.18071
G1 X29.635 Y30.260 E1.18280
G1 X29.729 Y30.108 E1.18446
G1 X29.752 Y30.069 E1.18489
G1 X29.999 Y30.248 F7200.000
G1 X30.114 Y30.114 F1800.000 E1.18653
G1 X30.233 Y30.012 E1.18799
G1 X30.398 Y29.907 E1.18982
G1 X30.562 Y29.839 E1.19146
G1 X30.733 Y29.798 E1.19311
G1 X30.909 Y29.784 E1.19475
G1 X31.085 Y29.798 E1.19639
G1 X31.257 Y29.839 E1.19804
G1 X31.420 Y29.907 E1.19968
G1 X31.571 Y29.999 E1.20133
G1 X31.705 Y30.114 E1.20297
G1 X31.820 Y30.248 E1.20461
G1 X31.912 Y30.398 E1.20626
G1 X31.980 Y30.562 E1.20790
G1 X32.021 Y30.733 E1.20955
G1 X32.035 Y30.909 E1.21119
G1 X32.021 Y31.085 E1.21283
G1 X31.984 Y31.238 E1.21429
G1 X31.912 Y31.420 E1.21612
G1 X31.820 Y31.571 E1.21776
G1 X31.705 Y31.705 E1.21941
G1 X31.571 Y31.820 E1.22105
G1 X31.420 Y31.912 E1.22270
G1 X31.257 Y31.980 E1.22434
G1 X31.085 Y32.021 E1.22598
G1 X30.909 Y32.035 E1.22763
G1 X30.733 Y32.021 E1.22927
G1 X30.562 Y31.980 E1.23091
G1 X30.398 Y31.912 E1.23256
G1 X30.248 Y31.820 E1.23420
G1 X30.101 Y31.690 E1.23603
G1 X29.999 Y31.571 E1.23749
G1 X29.907 Y31.420 E1.23913
G1 X29.839 Y31.257 E1.24078
G1 X29.798 Y31.085 E1.24242
G1 X29.784 Y30.909 E1.24406
G1 X29.798 Y30.733 E1.24571
