; generated by Slic3r 0.9.8 on 2013-09-08 at 16:54:41

; layer_height = 0.25
; perimeters = 3
; top_solid_layers = 3
; bottom_solid_layers = 3
; fill_density = 0.5
; perimeter_speed = 30
; infill_speed = 40
; travel_speed = 100
; scale = 1
; nozzle_diameter = 0.5
; filament_diameter = 2.9
; extrusion_multiplier = 0.81
; perimeters extrusion width = 0.40mm
; infill extrusion width = 0.25mm
; first layer extrusion width = 0.27mm

M107
M190 S70 ; wait for bed temperature to be reached
M104 S225 ; set temperature
G28 ; home all axes
M109 S225 ; wait for temperature to be reached
G90 ; use absolute coordinates
G21 ; set units to millimeters
G92 E0
M82 ; use absolute distances for extrusion
G1 F1800.000 E-1.00000
G92 E0
G1 Z0.250 F6000.000
G1 X25.894 Y39.254
G1 F1800.000 E1.00000
G1 X25.214 Y38.494 F1200.000 E1.00992
G1 X24.674 Y37.754 E1.01884
G1 X24.364 Y37.264 E1.02448
G1 X23.984 Y36.534 E1.03249
G1 X23.764 Y36.004 E1.03807
G1 X23.434 Y34.984 E1.04850
G1 X23.364 Y34.704 E1.05131
G1 X23.254 Y34.174 E1.05658
G1 X23.174 Y33.634 E1.06189
G1 X23.134 Y33.064 E1.06745
G1 X23.134 Y32.044 E1.07738
G1 X23.174 Y31.484 E1.08284
G1 X23.254 Y30.954 E1.08805
G1 X23.434 Y30.154 E1.09603
G1 X23.764 Y29.134 E1.10647
G1 X23.984 Y28.604 E1.11205
G1 X24.364 Y27.874 E1.12006
G1 X24.674 Y27.384 E1.12570
G1 X25.324 Y26.514 E1.13627
G1 X25.514 Y26.294 E1.13910
G1 X26.294 Y25.514 E1.14983
G1 X26.514 Y25.324 E1.15266
G1 X27.384 Y24.674 E1.16322
G1 X27.874 Y24.364 E1.16887
G1 X28.354 Y24.104 E1.17418
G1 X29.134 Y23.764 E1.18246
G1 X30.154 Y23.434 E1.19289
G1 X30.954 Y23.254 E1.20087
G1 X31.484 Y23.174 E1.20608
G1 X32.044 Y23.134 E1.21155
G1 X33.064 Y23.134 E1.22147
G1 X33.634 Y23.174 E1.22703
G1 X34.174 Y23.254 E1.23234
G1 X34.984 Y23.434 E1.24042
G1 X36.004 Y23.764 E1.25085
G1 X36.784 Y24.104 E1.25913
G1 X37.264 Y24.364 E1.26444
G1 X37.754 Y24.674 E1.27008
G1 X38.494 Y25.214 E1.27900
G1 X39.254 Y25.894 E1.28892
G1 X124.094 Y110.734 E2.45642
G1 X124.664 Y111.344 E2.46454
G1 X125.154 Y111.974 E2.47231
G1 X125.594 Y112.674 E2.48035
G1 X126.114 Y113.714 E2.49167
G1 X126.224 Y113.984 E2.49450
G1 X126.574 Y115.064 E2.50555
G1 X126.644 Y115.354 E2.50845
G1 X126.834 Y116.614 E2.52085
G1 X126.854 Y116.904 E2.52368
G1 X126.854 Y117.944 E2.53380
G1 X126.814 Y118.504 E2.53926
G1 X126.734 Y119.034 E2.54448
G1 X126.624 Y119.554 E2.54965
G1 X126.554 Y119.834 E2.55246
G1 X126.224 Y120.854 E2.56289
G1 X126.114 Y121.124 E2.56573
G1 X125.594 Y122.164 E2.57704
G1 X125.444 Y122.414 E2.57988
G1 X124.784 Y123.344 E2.59098
G1 X124.214 Y124.004 E2.59946
G1 X123.794 Y124.404 E2.60510
G1 X123.344 Y124.784 E2.61084
G1 X122.414 Y125.444 E2.62193
G1 X122.164 Y125.594 E2.62477
G1 X121.124 Y126.114 E2.63608
G1 X120.854 Y126.224 E2.63892
G1 X119.834 Y126.554 E2.64935
G1 X119.554 Y126.624 E2.65216
G1 X119.034 Y126.734 E2.65733
G1 X118.504 Y126.814 E2.66255
G1 X117.944 Y126.854 E2.66801
G1 X116.904 Y126.854 E2.67813
G1 X116.614 Y126.834 E2.68096
G1 X115.354 Y126.644 E2.69336
G1 X115.064 Y126.574 E2.69626
G1 X113.984 Y126.224 E2.70731
G1 X113.714 Y126.114 E2.71015
G1 X112.674 Y125.594 E2.72146
G1 X111.974 Y125.154 E2.72951
G1 X111.344 Y124.664 E2.73727
G1 X110.734 Y124.094 E2.74540
G1 X25.927 Y39.287 E3.91243
G1 X25.894 Y39.254 E3.91289
G1 X26.114 Y39.034 F6000.000
G1 X25.464 Y38.294 F1200.000 E3.92247
G1 X24.944 Y37.584 E3.93104
G1 X24.644 Y37.104 E3.93655
G1 X24.274 Y36.404 E3.94425
G1 X24.064 Y35.884 E3.94971
G1 X23.744 Y34.904 E3.95974
G1 X23.674 Y34.624 E3.96255
G1 X23.524 Y33.864 E3.97008
G1 X23.454 Y33.044 E3.97809
G1 X23.454 Y32.064 E3.98763
G1 X23.494 Y31.514 E3.99299
G1 X23.564 Y31.014 E3.99791
G1 X23.744 Y30.234 E4.00570
G1 X24.064 Y29.254 E4.01573
G1 X24.274 Y28.734 E4.02118
G1 X24.514 Y28.264 E4.02632
G1 X24.784 Y27.804 E4.03151
G1 X24.944 Y27.554 E4.03440
G1 X25.564 Y26.724 E4.04448
G1 X25.754 Y26.504 E4.04731
G1 X26.504 Y25.754 E4.05763
G1 X26.724 Y25.564 E4.06046
G1 X27.554 Y24.944 E4.07054
G1 X28.034 Y24.644 E4.07605
G1 X28.734 Y24.274 E4.08375
G1 X29.254 Y24.064 E4.08921
G1 X30.234 Y23.744 E4.09924
G1 X30.514 Y23.674 E4.10205
G1 X31.264 Y23.524 E4.10949
G1 X32.064 Y23.454 E4.11730
G1 X33.044 Y23.454 E4.12684
G1 X33.604 Y23.494 E4.13230
G1 X34.124 Y23.564 E4.13741
G1 X34.904 Y23.744 E4.14520
G1 X35.884 Y24.064 E4.15523
G1 X36.404 Y24.274 E4.16069
G1 X36.644 Y24.394 E4.16330
G1 X37.104 Y24.644 E4.16839
G1 X37.584 Y24.944 E4.17390
G1 X38.294 Y25.464 E4.18246
G1 X39.034 Y26.114 E4.19205
G1 X123.874 Y110.954 E5.35954
G1 X124.224 Y111.324 E5.36450
G1 X124.744 Y111.954 E5.37245
G1 X125.034 Y112.364 E5.37733
G1 X125.314 Y112.834 E5.38266
G1 X125.814 Y113.834 E5.39354
G1 X125.924 Y114.104 E5.39637
G1 X126.264 Y115.134 E5.40693
G1 X126.334 Y115.424 E5.40983
G1 X126.514 Y116.634 E5.42173
G1 X126.534 Y116.924 E5.42456
G1 X126.534 Y117.924 E5.43429
G1 X126.464 Y118.724 E5.44211
G1 X126.374 Y119.224 E5.44705
G1 X126.244 Y119.754 E5.45236
G1 X125.924 Y120.734 E5.46239
G1 X125.814 Y121.004 E5.46523
G1 X125.314 Y122.004 E5.47611
G1 X125.164 Y122.254 E5.47894
G1 X124.534 Y123.144 E5.48955
G1 X123.984 Y123.784 E5.49777
G1 X123.584 Y124.164 E5.50313
G1 X123.144 Y124.534 E5.50873
G1 X122.254 Y125.164 E5.51934
G1 X122.004 Y125.314 E5.52218
G1 X121.004 Y125.814 E5.53306
G1 X120.734 Y125.924 E5.53589
G1 X119.754 Y126.244 E5.54592
G1 X119.224 Y126.374 E5.55123
G1 X118.724 Y126.464 E5.55618
G1 X117.924 Y126.534 E5.56399
G1 X116.924 Y126.534 E5.57372
G1 X116.634 Y126.514 E5.57655
G1 X115.424 Y126.334 E5.58845
G1 X115.134 Y126.264 E5.59136
G1 X114.104 Y125.924 E5.60191
G1 X113.834 Y125.814 E5.60475
G1 X112.834 Y125.314 E5.61563
G1 X112.154 Y124.894 E5.62340
G1 X111.554 Y124.424 E5.63082
G1 X110.954 Y123.874 E5.63874
G1 X26.147 Y39.067 E6.80577
G1 X26.114 Y39.034 E6.80624
G1 X26.334 Y38.814 F6000.000
G1 X25.704 Y38.094 F1200.000 E6.81554
G1 X25.204 Y37.414 E6.82376
G1 X24.914 Y36.944 E6.82913
G1 X24.564 Y36.274 E6.83649
G1 X24.354 Y35.764 E6.84185
G1 X24.054 Y34.834 E6.85136
G1 X23.984 Y34.554 E6.85417
G1 X23.834 Y33.824 E6.86142
G1 X23.764 Y33.024 E6.86924
G1 X23.764 Y32.084 E6.87838
G1 X23.874 Y31.064 E6.88837
G1 X24.054 Y30.304 E6.89597
G1 X24.354 Y29.374 E6.90547
G1 X24.674 Y28.634 E6.91332
G1 X25.044 Y27.974 E6.92068
G1 X25.204 Y27.724 E6.92357
G1 X25.804 Y26.934 E6.93322
G1 X25.994 Y26.714 E6.93605
G1 X26.714 Y25.994 E6.94596
G1 X26.934 Y25.804 E6.94879
G1 X27.724 Y25.204 E6.95844
G1 X28.194 Y24.914 E6.96382
G1 X28.634 Y24.674 E6.96869
G1 X29.374 Y24.354 E6.97654
G1 X30.304 Y24.054 E6.98605
G1 X31.064 Y23.874 E6.99365
G1 X31.794 Y23.784 E7.00080
G1 X32.084 Y23.764 E7.00363
G1 X33.024 Y23.764 E7.01278
G1 X33.574 Y23.804 E7.01814
G1 X34.064 Y23.874 E7.02296
G1 X34.834 Y24.054 E7.03066
G1 X35.764 Y24.354 E7.04016
G1 X36.504 Y24.674 E7.04801
G1 X36.944 Y24.914 E7.05289
G1 X37.414 Y25.204 E7.05826
G1 X38.094 Y25.704 E7.06647
G1 X38.814 Y26.334 E7.07578
G1 X123.654 Y111.174 E8.24328
G1 X124.184 Y111.764 E8.25099
G1 X124.634 Y112.334 E8.25806
G1 X125.044 Y112.994 E8.26562
G1 X125.524 Y113.954 E8.27606
G1 X125.634 Y114.224 E8.27890
G1 X125.954 Y115.214 E8.28903
G1 X126.024 Y115.504 E8.29193
G1 X126.204 Y116.654 E8.30326
G1 X126.224 Y116.944 E8.30608
G1 X126.224 Y117.904 E8.31543
G1 X126.114 Y118.924 E8.32541
G1 X125.934 Y119.684 E8.33301
G1 X125.634 Y120.614 E8.34252
G1 X125.524 Y120.884 E8.34535
G1 X125.044 Y121.844 E8.35580
G1 X124.894 Y122.094 E8.35863
G1 X124.294 Y122.944 E8.36876
G1 X124.104 Y123.174 E8.37166
G1 X123.754 Y123.564 E8.37676
G1 X123.174 Y124.104 E8.38447
G1 X122.944 Y124.294 E8.38737
G1 X122.094 Y124.894 E8.39750
G1 X121.844 Y125.044 E8.40034
G1 X120.884 Y125.524 E8.41078
G1 X120.614 Y125.634 E8.41362
G1 X119.684 Y125.934 E8.42312
G1 X119.164 Y126.064 E8.42834
G1 X118.684 Y126.144 E8.43308
G1 X117.904 Y126.224 E8.44071
G1 X116.944 Y126.224 E8.45005
G1 X116.654 Y126.204 E8.45288
G1 X115.504 Y126.024 E8.46420
G1 X115.214 Y125.954 E8.46710
G1 X114.224 Y125.634 E8.47723
G1 X113.954 Y125.524 E8.48007
G1 X112.994 Y125.044 E8.49051
G1 X112.334 Y124.634 E8.49807
G1 X111.764 Y124.184 E8.50514
G1 X111.174 Y123.654 E8.51285
G1 X26.367 Y38.847 E9.67988
G1 X26.334 Y38.814 E9.68035
G1 X26.564 Y38.584 F6000.000
G1 X25.944 Y37.894 F1200.000 E9.68937
G1 X25.474 Y37.244 E9.69718
G1 X25.184 Y36.784 E9.70247
G1 X24.854 Y36.144 E9.70948
G1 X24.654 Y35.644 E9.71472
G1 X24.354 Y34.754 E9.72386
G1 X24.284 Y34.474 E9.72666
G1 X24.184 Y34.014 E9.73125
G1 X24.124 Y33.544 E9.73586
G1 X24.084 Y33.004 E9.74112
G1 X24.084 Y32.104 E9.74988
G1 X24.154 Y31.354 E9.75721
G1 X24.234 Y30.894 E9.76176
G1 X24.354 Y30.384 E9.76685
G1 X24.654 Y29.494 E9.77599
G1 X24.854 Y28.994 E9.78123
G1 X25.184 Y28.354 E9.78824
G1 X25.474 Y27.894 E9.79353
G1 X26.044 Y27.134 E9.80277
G1 X26.234 Y26.914 E9.80560
G1 X26.914 Y26.234 E9.81496
G1 X27.134 Y26.044 E9.81779
G1 X27.894 Y25.474 E9.82703
G1 X28.354 Y25.184 E9.83232
G1 X28.784 Y24.954 E9.83707
G1 X29.494 Y24.654 E9.84457
G1 X30.384 Y24.354 E9.85371
G1 X30.894 Y24.234 E9.85881
G1 X31.354 Y24.154 E9.86335
G1 X31.814 Y24.104 E9.86785
G1 X32.104 Y24.084 E9.87068
G1 X33.004 Y24.084 E9.87944
G1 X33.544 Y24.124 E9.88471
G1 X34.014 Y24.184 E9.88932
G1 X34.754 Y24.354 E9.89671
G1 X35.644 Y24.654 E9.90585
G1 X36.354 Y24.954 E9.91335
G1 X36.784 Y25.184 E9.91809
G1 X37.244 Y25.474 E9.92338
G1 X37.894 Y25.944 E9.93119
G1 X38.584 Y26.564 E9.94021
G1 X123.424 Y111.404 E11.10771
G1 X124.094 Y112.144 E11.11742
G1 X124.504 Y112.714 E11.12425
G1 X124.774 Y113.164 E11.12936
G1 X125.224 Y114.074 E11.13924
G1 X125.334 Y114.344 E11.14208
G1 X125.644 Y115.284 E11.15171
G1 X125.714 Y115.574 E11.15461
G1 X125.884 Y116.674 E11.16544
G1 X125.904 Y116.964 E11.16827
G1 X125.904 Y117.884 E11.17722
G1 X125.834 Y118.634 E11.18455
G1 X125.754 Y119.094 E11.18909
G1 X125.634 Y119.604 E11.19419
G1 X125.334 Y120.494 E11.20333
G1 X125.224 Y120.764 E11.20617
G1 X124.774 Y121.674 E11.21605
G1 X124.624 Y121.924 E11.21888
G1 X124.054 Y122.744 E11.22860
G1 X123.864 Y122.974 E11.23150
G1 X123.344 Y123.524 E11.23887
G1 X122.744 Y124.054 E11.24666
G1 X121.924 Y124.624 E11.25638
G1 X121.674 Y124.774 E11.25921
G1 X120.764 Y125.224 E11.26909
G1 X120.494 Y125.334 E11.27193
G1 X119.604 Y125.634 E11.28107
G1 X119.094 Y125.754 E11.28617
G1 X118.404 Y125.864 E11.29296
G1 X117.884 Y125.904 E11.29804
G1 X116.964 Y125.904 E11.30699
G1 X116.674 Y125.884 E11.30982
G1 X115.574 Y125.714 E11.32065
G1 X115.284 Y125.644 E11.32355
G1 X114.344 Y125.334 E11.33318
G1 X114.074 Y125.224 E11.33602
G1 X113.164 Y124.774 E11.34590
G1 X112.714 Y124.504 E11.35101
G1 X112.144 Y124.094 E11.35784
G1 X111.404 Y123.424 E11.36755
G1 X26.597 Y38.617 E12.53458
G1 X26.564 Y38.584 E12.53505
G1 X26.784 Y38.364 F6000.000
G1 X26.194 Y37.684 F1200.000 E12.54381
G1 X25.744 Y37.074 E12.55118
G1 X25.344 Y36.424 E12.55861
G1 X25.144 Y36.014 E12.56305
G1 X24.944 Y35.524 E12.56820
G1 X24.664 Y34.674 E12.57691
G1 X24.594 Y34.394 E12.57971
G1 X24.464 Y33.734 E12.58626
G1 X24.404 Y32.984 E12.59358
G1 X24.404 Y32.134 E12.60185
G1 X24.464 Y31.394 E12.60908
G1 X24.544 Y30.954 E12.61343
G1 X24.664 Y30.464 E12.61834
G1 X24.944 Y29.614 E12.62705
G1 X25.144 Y29.124 E12.63220
G1 X25.344 Y28.714 E12.63663
G1 X25.584 Y28.314 E12.64117
G1 X25.744 Y28.064 E12.64406
G1 X26.284 Y27.344 E12.65282
G1 X26.474 Y27.124 E12.65565
G1 X27.124 Y26.474 E12.66459
G1 X27.344 Y26.284 E12.66742
G1 X28.064 Y25.744 E12.67618
G1 X28.714 Y25.344 E12.68361
G1 X29.124 Y25.144 E12.68804
G1 X29.614 Y24.944 E12.69319
G1 X30.464 Y24.664 E12.70190
G1 X30.954 Y24.544 E12.70681
G1 X31.394 Y24.464 E12.71116
G1 X31.844 Y24.424 E12.71556
G1 X32.134 Y24.404 E12.71839
G1 X32.984 Y24.404 E12.72666
G1 X33.284 Y24.424 E12.72958
G1 X33.734 Y24.464 E12.73398
G1 X34.174 Y24.544 E12.73833
G1 X34.674 Y24.664 E12.74334
G1 X35.524 Y24.944 E12.75204
G1 X36.014 Y25.144 E12.75719
G1 X36.424 Y25.344 E12.76163
G1 X37.074 Y25.744 E12.76906
G1 X37.684 Y26.194 E12.77643
G1 X38.364 Y26.784 E12.78519
G1 X123.204 Y111.624 E13.95269
G1 X123.704 Y112.174 E13.95992
G1 X124.114 Y112.704 E13.96644
G1 X124.504 Y113.324 E13.97357
G1 X124.934 Y114.194 E13.98301
G1 X125.044 Y114.464 E13.98585
G1 X125.334 Y115.364 E13.99505
G1 X125.404 Y115.654 E13.99795
G1 X125.564 Y116.704 E14.00829
G1 X125.584 Y116.994 E14.01112
G1 X125.584 Y117.854 E14.01949
G1 X125.524 Y118.594 E14.02671
G1 X125.444 Y119.034 E14.03106
G1 X125.324 Y119.524 E14.03597
G1 X125.044 Y120.374 E14.04468
G1 X124.934 Y120.644 E14.04752
G1 X124.504 Y121.514 E14.05696
G1 X124.354 Y121.764 E14.05980
G1 X123.804 Y122.534 E14.06900
G1 X123.454 Y122.954 E14.07432
G1 X122.954 Y123.454 E14.08120
G1 X122.534 Y123.804 E14.08652
G1 X121.764 Y124.354 E14.09573
G1 X121.514 Y124.504 E14.09857
G1 X120.644 Y124.934 E14.10801
G1 X120.374 Y125.044 E14.11085
G1 X119.524 Y125.324 E14.11956
G1 X119.034 Y125.444 E14.12447
G1 X118.594 Y125.524 E14.12882
G1 X117.854 Y125.584 E14.13604
G1 X116.994 Y125.584 E14.14441
G1 X116.704 Y125.564 E14.14724
G1 X115.654 Y125.404 E14.15757
G1 X115.364 Y125.334 E14.16048
G1 X114.464 Y125.044 E14.16968
G1 X114.194 Y124.934 E14.17251
G1 X113.324 Y124.504 E14.18196
G1 X112.884 Y124.234 E14.18698
G1 X112.524 Y123.984 E14.19125
G1 X112.174 Y123.704 E14.19561
G1 X111.624 Y123.204 E14.20284
G1 X26.817 Y38.397 E15.36987
G1 X26.784 Y38.364 E15.37033
M204 S1000
G1 F1800.000 E14.37033
G92 E0
G1 X32.363 Y33.947 F6000.000
G1 F1800.000 E1.00000
G1 X32.270 Y33.796 F1200.000 E1.00173
G1 X32.202 Y33.631 E1.00346
G1 X32.161 Y33.458 E1.00520
G1 X32.147 Y33.281 E1.00693
G1 X32.161 Y33.103 E1.00866
G1 X32.202 Y32.930 E1.01039
G1 X32.270 Y32.766 E1.01212
G1 X32.363 Y32.614 E1.01385
G1 X32.479 Y32.479 E1.01559
G1 X32.598 Y32.377 E1.01712
G1 X32.766 Y32.270 E1.01905
G1 X32.930 Y32.202 E1.02078
G1 X33.103 Y32.161 E1.02251
G1 X33.281 Y32.147 E1.02424
G1 X33.458 Y32.161 E1.02597
G1 X33.631 Y32.202 E1.02771
G1 X33.796 Y32.270 E1.02944
G1 X33.947 Y32.363 E1.03117
G1 X34.083 Y32.479 E1.03290
G1 X34.198 Y32.614 E1.03463
G1 X34.291 Y32.766 E1.03636
G1 X34.359 Y32.930 E1.03810
G1 X34.401 Y33.103 E1.03983
G1 X34.415 Y33.281 E1.04156
G1 X34.401 Y33.458 E1.04329
G1 X34.359 Y33.631 E1.04502
G1 X34.291 Y33.796 E1.04676
G1 X34.198 Y33.947 E1.04849
G1 X34.083 Y34.083 E1.05022
G1 X33.947 Y34.198 E1.05195
G1 X33.796 Y34.291 E1.05368
G1 X33.631 Y34.359 E1.05541
G1 X33.458 Y34.401 E1.05715
G1 X33.281 Y34.415 E1.05888
G1 X33.103 Y34.401 E1.06061
G1 X32.930 Y34.359 E1.06234
G1 X32.766 Y34.291 E1.06407
G1 X32.614 Y34.198 E1.06580
G1 X32.394 Y33.984 E1.06880
G1 X32.363 Y33.947 E1.06926
G1 X32.048 Y33.981 F6000.000
G1 F1800.000 E0.06926
G92 E0
G1 X40.849 Y41.099 F6000.000
G1 F1800.000 E1.00000
G1 X40.964 Y40.964 F1200.000 E1.00173
G1 X41.099 Y40.849 E1.00346
G1 X41.251 Y40.755 E1.00520
G1 X41.416 Y40.687 E1.00693
G1 X41.589 Y40.646 E1.00866
G1 X41.766 Y40.632 E1.01039
G1 X41.943 Y40.646 E1.01212
G1 X42.117 Y40.687 E1.01385
G1 X42.281 Y40.756 E1.01559
G1 X42.433 Y40.849 E1.01732
G1 X42.568 Y40.964 E1.01905
G1 X42.684 Y41.099 E1.02078
G1 X42.777 Y41.251 E1.02251
G1 X42.845 Y41.416 E1.02424
G1 X42.886 Y41.589 E1.02598
G1 X42.900 Y41.766 E1.02771
G1 X42.886 Y41.943 E1.02944
G1 X42.845 Y42.116 E1.03117
G1 X42.777 Y42.281 E1.03290
G1 X42.684 Y42.433 E1.03464
G1 X42.568 Y42.568 E1.03637
G1 X42.433 Y42.684 E1.03810
G1 X42.281 Y42.777 E1.03983
G1 X42.116 Y42.845 E1.04156
G1 X41.943 Y42.886 E1.04329
G1 X41.766 Y42.900 E1.04503
G1 X41.589 Y42.886 E1.04676
G1 X41.416 Y42.845 E1.04849
G1 X41.251 Y42.777 E1.05022
G1 X41.099 Y42.684 E1.05195
G1 X40.951 Y42.552 E1.05388
G1 X40.849 Y42.433 E1.05541
G1 X40.756 Y42.281 E1.05715
G1 X40.687 Y42.117 E1.05888
G1 X40.646 Y41.943 E1.06061
