; generated by Slic3r 0.9.8 on 2013-09-08 at 12:47:28

; layer_height = 0.25
; perimeters = 3
; top_solid_layers = 3
; bottom_solid_layers = 3
; fill_density = 0.3
; perimeter_speed = 60
; infill_speed = 80
; travel_speed = 120
; scale = 1
; nozzle_diameter = 0.5
; filament_diameter = 2.9
; extrusion_multiplier = 0.81
; perimeters extrusion width = 0.40mm
; infill extrusion width = 0.25mm
; first layer extrusion width = 0.27mm

M107
M190 S70 ; wait for bed temperature to be reached
M104 S225 ; set temperature
G28 ; home all axes
M109 S225 ; wait for temperature to be reached
G90 ; use absolute coordinates
G21 ; set units to millimeters
G92 E0
M82 ; use absolute distances for extrusion
G1 F1800.000 E-2.00000
G92 E0
G1 Z0.250 F7200.000
G1 X14.917 Y27.387
G1 F1800.000 E2.00000
G1 X14.347 Y26.737 F1800.000 E2.00841
G1 X13.847 Y26.057 E2.01663
G1 X13.557 Y25.587 E2.02200
G1 X13.207 Y24.917 E2.02935
G1 X12.997 Y24.407 E2.03472
G1 X12.697 Y23.477 E2.04423
G1 X12.627 Y23.197 E2.04704
G1 X12.477 Y22.467 E2.05429
G1 X12.407 Y21.667 E2.06210
G1 X12.407 Y20.727 E2.07125
G1 X12.517 Y19.707 E2.08123
G1 X12.697 Y18.947 E2.08883
G1 X12.997 Y18.017 E2.09834
G1 X13.317 Y17.277 E2.10619
G1 X13.687 Y16.617 E2.11355
G1 X13.847 Y16.367 E2.11644
G1 X14.447 Y15.577 E2.12609
G1 X14.637 Y15.357 E2.12892
G1 X15.357 Y14.637 E2.13883
G1 X15.577 Y14.447 E2.14166
G1 X16.367 Y13.847 E2.15131
G1 X16.837 Y13.557 E2.15668
G1 X17.277 Y13.317 E2.16156
G1 X18.017 Y12.997 E2.16941
G1 X18.947 Y12.697 E2.17891
G1 X19.707 Y12.517 E2.18651
G1 X20.437 Y12.427 E2.19367
G1 X20.727 Y12.407 E2.19650
G1 X21.667 Y12.407 E2.20565
G1 X22.217 Y12.447 E2.21101
G1 X22.707 Y12.517 E2.21583
G1 X23.477 Y12.697 E2.22352
G1 X24.407 Y12.997 E2.23303
G1 X25.147 Y13.317 E2.24088
G1 X25.587 Y13.557 E2.24575
G1 X26.057 Y13.847 E2.25113
G1 X26.737 Y14.347 E2.25934
G1 X27.387 Y14.917 E2.26775
G1 X106.297 Y91.697 E3.33909
G1 X134.577 Y119.977 E3.72825
G1 X135.297 Y120.797 E3.73887
G1 X135.897 Y121.627 E3.74884
G1 X136.177 Y122.077 E3.75399
G1 X136.717 Y123.117 E3.76540
G1 X136.917 Y123.607 E3.77055
G1 X137.217 Y124.517 E3.77987
G1 X137.347 Y125.027 E3.78499
G1 X137.487 Y125.747 E3.79213
G1 X137.577 Y126.757 E3.80200
G1 X137.577 Y127.797 E3.81212
G1 X137.487 Y128.807 E3.82198
G1 X137.347 Y129.527 E3.82912
G1 X137.217 Y130.037 E3.83424
G1 X136.917 Y130.947 E3.84356
G1 X136.717 Y131.437 E3.84871
G1 X136.177 Y132.477 E3.86012
G1 X135.897 Y132.927 E3.86527
G1 X135.297 Y133.757 E3.87524
G1 X134.957 Y134.157 E3.88035
G1 X134.157 Y134.957 E3.89136
G1 X133.757 Y135.297 E3.89647
G1 X132.927 Y135.897 E3.90643
G1 X132.477 Y136.177 E3.91159
G1 X131.437 Y136.717 E3.92299
G1 X130.947 Y136.917 E3.92814
G1 X130.037 Y137.217 E3.93746
G1 X129.047 Y137.447 E3.94735
G1 X128.327 Y137.537 E3.95441
G1 X127.797 Y137.577 E3.95959
G1 X126.757 Y137.577 E3.96971
G1 X125.987 Y137.517 E3.97722
G1 X125.507 Y137.447 E3.98194
G1 X124.517 Y137.217 E3.99183
G1 X123.607 Y136.917 E4.00116
G1 X123.117 Y136.717 E4.00631
G1 X122.077 Y136.177 E4.01771
G1 X121.627 Y135.897 E4.02287
G1 X120.797 Y135.297 E4.03283
G1 X119.977 Y134.577 E4.04345
G1 X91.697 Y106.297 E4.43261
G1 X14.950 Y27.421 E5.50349
G1 X14.917 Y27.387 E5.50395
G1 X15.137 Y27.167 F7200.000
G1 X14.587 Y26.537 F1800.000 E5.51209
G1 X14.117 Y25.887 E5.51989
G1 X13.827 Y25.427 E5.52518
G1 X13.497 Y24.787 E5.53219
G1 X13.297 Y24.287 E5.53743
G1 X12.997 Y23.397 E5.54657
G1 X12.927 Y23.117 E5.54938
G1 X12.827 Y22.657 E5.55396
G1 X12.767 Y22.187 E5.55857
G1 X12.727 Y21.647 E5.56384
G1 X12.727 Y20.747 E5.57260
G1 X12.797 Y19.997 E5.57992
G1 X12.877 Y19.537 E5.58447
G1 X12.997 Y19.027 E5.58957
G1 X13.297 Y18.137 E5.59871
G1 X13.497 Y17.637 E5.60395
G1 X13.827 Y16.997 E5.61095
G1 X14.117 Y16.537 E5.61624
G1 X14.687 Y15.777 E5.62549
G1 X14.877 Y15.557 E5.62832
G1 X15.557 Y14.877 E5.63767
G1 X15.777 Y14.687 E5.64050
G1 X16.537 Y14.117 E5.64975
G1 X16.997 Y13.827 E5.65504
G1 X17.427 Y13.597 E5.65978
G1 X18.137 Y13.297 E5.66728
G1 X19.027 Y12.997 E5.67642
G1 X19.537 Y12.877 E5.68152
G1 X19.997 Y12.797 E5.68606
G1 X20.457 Y12.747 E5.69057
G1 X20.747 Y12.727 E5.69339
G1 X21.647 Y12.727 E5.70215
G1 X22.187 Y12.767 E5.70742
G1 X22.657 Y12.827 E5.71203
G1 X23.397 Y12.997 E5.71942
G1 X24.287 Y13.297 E5.72856
G1 X24.997 Y13.597 E5.73606
G1 X25.427 Y13.827 E5.74080
G1 X25.887 Y14.117 E5.74609
G1 X26.537 Y14.587 E5.75390
G1 X27.167 Y15.137 E5.76204
G1 X106.007 Y91.857 E6.83248
G1 X134.347 Y120.207 E7.22254
G1 X134.717 Y120.597 E7.22777
G1 X135.057 Y120.997 E7.23288
G1 X135.627 Y121.787 E7.24236
G1 X135.907 Y122.237 E7.24751
G1 X136.417 Y123.237 E7.25844
G1 X136.617 Y123.727 E7.26359
G1 X136.907 Y124.597 E7.27251
G1 X137.037 Y125.107 E7.27763
G1 X137.177 Y125.787 E7.28439
G1 X137.267 Y126.777 E7.29406
G1 X137.267 Y127.777 E7.30379
G1 X137.177 Y128.767 E7.31346
G1 X137.037 Y129.447 E7.32022
G1 X136.907 Y129.957 E7.32534
G1 X136.617 Y130.827 E7.33426
G1 X136.417 Y131.317 E7.33941
G1 X135.907 Y132.317 E7.35034
G1 X135.627 Y132.767 E7.35549
G1 X135.057 Y133.557 E7.36497
G1 X134.717 Y133.957 E7.37008
G1 X133.957 Y134.717 E7.38054
G1 X133.557 Y135.057 E7.38565
G1 X132.767 Y135.627 E7.39513
G1 X132.317 Y135.907 E7.40028
G1 X131.317 Y136.417 E7.41121
G1 X130.827 Y136.617 E7.41636
G1 X129.957 Y136.907 E7.42528
G1 X128.997 Y137.137 E7.43489
G1 X128.307 Y137.227 E7.44166
G1 X127.777 Y137.267 E7.44683
G1 X126.777 Y137.267 E7.45656
G1 X126.247 Y137.227 E7.46173
G1 X125.557 Y137.137 E7.46850
G1 X124.597 Y136.907 E7.47811
G1 X123.727 Y136.617 E7.48703
G1 X123.237 Y136.417 E7.49218
G1 X122.237 Y135.907 E7.50310
G1 X121.787 Y135.627 E7.50826
G1 X120.997 Y135.057 E7.51774
G1 X120.597 Y134.717 E7.52285
G1 X120.207 Y134.347 E7.52808
G1 X91.857 Y106.007 E7.91814
G1 X15.170 Y27.201 E8.98812
G1 X15.137 Y27.167 E8.98858
G1 X15.367 Y26.947 F7200.000
G1 X14.837 Y26.327 F1800.000 E8.99652
G1 X14.387 Y25.717 E9.00389
G1 X13.987 Y25.067 E9.01132
G1 X13.787 Y24.657 E9.01576
G1 X13.587 Y24.167 E9.02091
G1 X13.307 Y23.317 E9.02962
G1 X13.237 Y23.037 E9.03242
G1 X13.107 Y22.377 E9.03897
G1 X13.047 Y21.627 E9.04629
G1 X13.047 Y20.777 E9.05456
G1 X13.107 Y20.037 E9.06179
G1 X13.187 Y19.597 E9.06614
G1 X13.307 Y19.107 E9.07105
G1 X13.587 Y18.257 E9.07976
G1 X13.787 Y17.767 E9.08491
G1 X13.987 Y17.357 E9.08934
G1 X14.227 Y16.957 E9.09388
G1 X14.387 Y16.707 E9.09677
G1 X14.927 Y15.987 E9.10553
G1 X15.117 Y15.767 E9.10836
G1 X15.767 Y15.117 E9.11730
G1 X15.987 Y14.927 E9.12013
G1 X16.707 Y14.387 E9.12889
G1 X17.357 Y13.987 E9.13631
G1 X17.767 Y13.787 E9.14075
G1 X18.257 Y13.587 E9.14590
G1 X19.107 Y13.307 E9.15461
G1 X19.597 Y13.187 E9.15952
G1 X20.037 Y13.107 E9.16387
G1 X20.487 Y13.067 E9.16827
G1 X20.777 Y13.047 E9.17110
G1 X21.627 Y13.047 E9.17937
G1 X21.927 Y13.067 E9.18229
G1 X22.377 Y13.107 E9.18669
G1 X22.817 Y13.187 E9.19104
G1 X23.317 Y13.307 E9.19604
G1 X24.167 Y13.587 E9.20475
G1 X24.657 Y13.787 E9.20990
G1 X25.067 Y13.987 E9.21434
G1 X25.717 Y14.387 E9.22177
G1 X26.327 Y14.837 E9.22914
G1 X26.947 Y15.367 E9.23708
G1 X105.787 Y92.087 E10.30752
G1 X134.127 Y120.427 E10.69751
G1 X134.807 Y121.207 E10.70758
G1 X135.357 Y121.957 E10.71663
G1 X135.637 Y122.407 E10.72179
G1 X136.127 Y123.357 E10.73219
G1 X136.327 Y123.847 E10.73734
G1 X136.597 Y124.677 E10.74583
G1 X136.727 Y125.187 E10.75095
G1 X136.827 Y125.617 E10.75525
G1 X136.887 Y126.057 E10.75957
G1 X136.947 Y126.797 E10.76679
G1 X136.947 Y127.757 E10.77614
G1 X136.887 Y128.497 E10.78336
G1 X136.827 Y128.937 E10.78768
G1 X136.597 Y129.877 E10.79710
G1 X136.327 Y130.707 E10.80559
G1 X136.127 Y131.197 E10.81074
G1 X135.637 Y132.147 E10.82114
G1 X135.357 Y132.597 E10.82630
G1 X134.807 Y133.347 E10.83535
G1 X134.467 Y133.747 E10.84046
G1 X133.747 Y134.467 E10.85037
G1 X133.347 Y134.807 E10.85547
G1 X132.597 Y135.357 E10.86452
G1 X132.147 Y135.637 E10.86968
G1 X131.197 Y136.127 E10.88008
G1 X130.707 Y136.327 E10.88523
G1 X129.877 Y136.597 E10.89372
G1 X128.937 Y136.827 E10.90314
G1 X128.287 Y136.907 E10.90951
G1 X127.757 Y136.947 E10.91469
G1 X126.797 Y136.947 E10.92403
G1 X126.267 Y136.907 E10.92920
G1 X125.617 Y136.827 E10.93557
G1 X124.677 Y136.597 E10.94499
G1 X123.847 Y136.327 E10.95348
G1 X123.357 Y136.127 E10.95863
G1 X122.407 Y135.637 E10.96903
G1 X121.957 Y135.357 E10.97419
G1 X121.207 Y134.807 E10.98324
G1 X120.427 Y134.127 E10.99331
G1 X92.087 Y105.787 E11.38330
G1 X15.400 Y26.981 E12.45328
G1 X15.367 Y26.947 E12.45374
M204 S1000
G1 F1800.000 E10.45374
G92 E0
G1 X34.348 Y34.844 F7200.000
G1 F1800.000 E2.00000
G1 X34.442 Y34.692 F1800.000 E2.00173
G1 X34.557 Y34.557 E2.00346
G1 X34.692 Y34.442 E2.00520
G1 X34.844 Y34.348 E2.00693
G1 X35.009 Y34.280 E2.00866
G1 X35.182 Y34.239 E2.01039
G1 X35.359 Y34.225 E2.01212
G1 X35.536 Y34.239 E2.01385
G1 X35.710 Y34.280 E2.01559
G1 X35.874 Y34.349 E2.01732
G1 X36.026 Y34.442 E2.01905
G1 X36.157 Y34.554 E2.02073
G1 X46.771 Y45.168 E2.16679
G1 X46.883 Y45.299 E2.16847
G1 X46.976 Y45.451 E2.17020
G1 X47.044 Y45.615 E2.17194
G1 X47.086 Y45.788 E2.17367
G1 X47.100 Y45.966 E2.17540
G1 X47.086 Y46.143 E2.17713
G1 X47.044 Y46.316 E2.17886
G1 X46.976 Y46.481 E2.18059
G1 X46.883 Y46.632 E2.18233
G1 X46.768 Y46.768 E2.18406
G1 X46.632 Y46.883 E2.18579
G1 X46.481 Y46.976 E2.18752
G1 X46.316 Y47.044 E2.18925
G1 X46.143 Y47.086 E2.19098
G1 X45.966 Y47.100 E2.19272
G1 X45.788 Y47.086 E2.19445
G1 X45.615 Y47.044 E2.19618
G1 X45.451 Y46.976 E2.19791
G1 X45.299 Y46.883 E2.19964
G1 X45.168 Y46.771 E2.20132
G1 X34.554 Y36.157 E2.34738
G1 X34.442 Y36.026 E2.34906
G1 X34.349 Y35.874 E2.35080
G1 X34.280 Y35.710 E2.35253
G1 X34.239 Y35.536 E2.35426
G1 X34.225 Y35.359 E2.35599
G1 X34.239 Y35.182 E2.35772
G1 X34.330 Y34.888 E2.36072
G1 X34.348 Y34.844 E2.36118
G1 X34.176 Y34.578 F7200.000
G1 F1800.000 E0.36118
G92 E0
G1 X48.699 Y48.699 F7200.000
G1 F1800.000 E2.00000
G1 X48.835 Y48.584 F1800.000 E2.00173
G1 X48.986 Y48.491 E2.00346
G1 X49.151 Y48.423 E2.00520
G1 X49.324 Y48.381 E2.00693
G1 X49.501 Y48.367 E2.00866
G1 X49.679 Y48.381 E2.01039
G1 X49.852 Y48.423 E2.01212
G1 X50.016 Y48.491 E2.01385
G1 X50.168 Y48.584 E2.01559
G1 X50.299 Y48.696 E2.01727
G1 X60.578 Y58.975 E2.15872
G1 X61.025 Y59.441 E2.16500
G1 X61.118 Y59.593 E2.16674
G1 X61.186 Y59.757 E2.16847
G1 X61.228 Y59.930 E2.17020
G1 X61.242 Y60.108 E2.17193
G1 X61.228 Y60.285 E2.17366
G1 X61.186 Y60.458 E2.17539
G1 X61.118 Y60.623 E2.17713
G1 X61.025 Y60.774 E2.17886
G1 X60.910 Y60.910 E2.18059
G1 X60.774 Y61.025 E2.18232
G1 X60.623 Y61.118 E2.18405
G1 X60.458 Y61.186 E2.18579
G1 X60.285 Y61.228 E2.18752
G1 X60.108 Y61.242 E2.18925
G1 X59.930 Y61.228 E2.19098
G1 X59.757 Y61.186 E2.19271
G1 X59.593 Y61.118 E2.19444
G1 X59.441 Y61.025 E2.19618
G1 X59.310 Y60.913 E2.19786
G1 X48.696 Y50.299 E2.34392
G1 X48.584 Y50.168 E2.34560
G1 X48.491 Y50.016 E2.34733
G1 X48.423 Y49.852 E2.34906
G1 X48.381 Y49.679 E2.35079
G1 X48.367 Y49.501 E2.35253
G1 X48.381 Y49.324 E2.35426
G1 X48.423 Y49.151 E2.35599
G1 X48.491 Y48.986 E2.35772
G1 X48.668 Y48.735 E2.36071
G1 X48.699 Y48.699 E2.36117
G1 X48.617 Y48.393 F7200.000
G1 F1800.000 E0.36117
G92 E0
G1 X62.841 Y62.841 F7200.000
G1 F1800.000 E2.00000
G1 X62.977 Y62.726 F1800.000 E2.00173
G1 X63.128 Y62.633 E2.00346
G1 X63.293 Y62.565 E2.00520
G1 X63.466 Y62.523 E2.00693
G1 X63.643 Y62.509 E2.00866
G1 X63.821 Y62.523 E2.01039
G1 X63.994 Y62.565 E2.01212
G1 X64.158 Y62.633 E2.01385
G1 X64.310 Y62.726 E2.01559
G1 X64.441 Y62.838 E2.01727
G1 X74.720 Y73.117 E2.15872
G1 X75.167 Y73.583 E2.16500
G1 X75.260 Y73.735 E2.16674
G1 X75.329 Y73.899 E2.16847
G1 X75.370 Y74.073 E2.17020
G1 X75.384 Y74.250 E2.17193
G1 X75.370 Y74.427 E2.17366
G1 X75.329 Y74.600 E2.17539
G1 X75.261 Y74.765 E2.17713
G1 X75.168 Y74.917 E2.17886
G1 X75.052 Y75.052 E2.18059
G1 X74.917 Y75.168 E2.18232
G1 X74.765 Y75.261 E2.18405
G1 X74.600 Y75.329 E2.18579
G1 X74.427 Y75.370 E2.18752
G1 X74.250 Y75.384 E2.18925
G1 X74.073 Y75.370 E2.19098
G1 X73.899 Y75.329 E2.19271
G1 X73.735 Y75.260 E2.19444
G1 X73.583 Y75.167 E2.19618
G1 X73.452 Y75.055 E2.19786
G1 X62.838 Y64.441 E2.34392
G1 X62.726 Y64.310 E2.34560
G1 X62.633 Y64.158 E2.34733
G1 X62.565 Y63.994 E2.34906
G1 X62.523 Y63.821 E2.35079
G1 X62.509 Y63.643 E2.35253
G1 X62.523 Y63.466 E2.35426
G1 X62.565 Y63.293 E2.35599
G1 X62.633 Y63.128 E2.35772
G1 X62.810 Y62.878 E2.36071
G1 X62.841 Y62.841 E2.36117
G1 X62.759 Y62.535 F7200.000
G1 F1800.000 E0.36117
G92 E0
G1 X76.984 Y76.984 F7200.000
G1 F1800.000 E2.00000
G1 X77.119 Y76.868 F1800.000 E2.00173
G1 X77.271 Y76.775 E2.00346
G1 X77.435 Y76.707 E2.00520
G1 X77.608 Y76.665 E2.00693
G1 X77.785 Y76.651 E2.00866
G1 X77.963 Y76.665 E2.01039
G1 X78.136 Y76.707 E2.01212
G1 X78.300 Y76.775 E2.01385
G1 X78.452 Y76.868 E2.01559
G1 X78.583 Y76.980 E2.01727
G1 X88.862 Y87.259 E2.15872
G1 X89.310 Y87.725 E2.16500
G1 X89.403 Y87.877 E2.16674
G1 X89.471 Y88.042 E2.16847
G1 X89.512 Y88.215 E2.17020
G1 X89.526 Y88.392 E2.17193
G1 X89.512 Y88.570 E2.17366
G1 X89.471 Y88.743 E2.17539
G1 X89.403 Y88.907 E2.17713
G1 X89.310 Y89.059 E2.17886
G1 X89.194 Y89.194 E2.18059
G1 X89.059 Y89.310 E2.18232
G1 X88.907 Y89.403 E2.18405
G1 X88.743 Y89.471 E2.18579
G1 X88.570 Y89.512 E2.18752
G1 X88.392 Y89.526 E2.18925
G1 X88.215 Y89.512 E2.19098
G1 X88.042 Y89.471 E2.19271
G1 X87.877 Y89.403 E2.19444
G1 X87.725 Y89.310 E2.19618
G1 X87.594 Y89.197 E2.19786
G1 X76.980 Y78.583 E2.34392
G1 X76.868 Y78.452 E2.34560
G1 X76.775 Y78.300 E2.34733
G1 X76.707 Y78.136 E2.34906
G1 X76.665 Y77.963 E2.35079
G1 X76.651 Y77.785 E2.35253
G1 X76.665 Y77.608 E2.35426
G1 X76.707 Y77.435 E2.35599
G1 X76.775 Y77.271 E2.35772
G1 X76.953 Y77.020 E2.36071
G1 X76.984 Y76.984 E2.36117
G1 X76.901 Y76.677 F7200.000
G1 F1800.000 E0.36117
G92 E0
G1 X101.105 Y101.105 F7200.000
G1 F1800.000 E2.00000
G1 X101.346 Y100.899 F1800.000 E2.00308
G1 X101.617 Y100.733 E2.00617
G1 X101.910 Y100.612 E2.00926
G1 X102.219 Y100.538 E2.01235
G1 X102.533 Y100.513 E2.01542
G1 X102.851 Y100.538 E2.01852
G1 X103.160 Y100.613 E2.02161
G1 X103.451 Y100.734 E2.02468
G1 X103.722 Y100.899 E2.02777
G1 X103.963 Y101.105 E2.03086
G1 X104.170 Y101.347 E2.03395
G1 X104.335 Y101.617 E2.03703
G1 X104.456 Y101.909 E2.04011
G1 X104.530 Y102.218 E2.04320
G1 X104.555 Y102.535 E2.04630
G1 X104.530 Y102.850 E2.04937
G1 X104.457 Y103.158 E2.05245
G1 X104.335 Y103.452 E2.05554
G1 X104.169 Y103.723 E2.05864
G1 X103.963 Y103.963 E2.06172
G1 X103.723 Y104.169 E2.06480
G1 X103.452 Y104.335 E2.06789
G1 X103.158 Y104.457 E2.07098
G1 X102.850 Y104.530 E2.07406
G1 X102.535 Y104.555 E2.07714
G1 X102.218 Y104.530 E2.08024
G1 X101.909 Y104.456 E2.08333
G1 X101.617 Y104.335 E2.08640
G1 X101.347 Y104.170 E2.08948
G1 X101.105 Y103.963 E2.09258
G1 X100.899 Y103.722 E2.09567
G1 X100.734 Y103.451 E2.09875
G1 X100.613 Y103.160 E2.10182
G1 X100.538 Y102.851 E2.10491
G1 X100.513 Y102.533 E2.10801
G1 X100.538 Y102.219 E2.11109
G1 X100.612 Y101.910 E2.11417
G1 X100.733 Y101.617 E2.11726
G1 X100.899 Y101.346 E2.12035
G1 X101.074 Y101.141 E2.12297
G1 X101.105 Y101.105 E2.12343
G1 X101.330 Y101.330 F7200.000
G1 X101.533 Y101.157 F1800.000 E2.12603
G1 X101.761 Y101.017 E2.12863
G1 X102.008 Y100.915 E2.13124
G1 X102.268 Y100.853 E2.13384
G1 X102.534 Y100.832 E2.13643
G1 X102.801 Y100.852 E2.13903
G1 X103.061 Y100.916 E2.14164
G1 X103.307 Y101.017 E2.14423
G1 X103.535 Y101.156 E2.14682
G1 X103.738 Y101.330 E2.14943
G1 X103.912 Y101.534 E2.15204
G1 X104.051 Y101.761 E2.15463
G1 X104.153 Y102.007 E2.15722
G1 X104.216 Y102.268 E2.15983
G1 X104.237 Y102.535 E2.16243
G1 X104.216 Y102.800 E2.16503
G1 X104.154 Y103.060 E2.16762
G1 X104.051 Y103.307 E2.17023
