; generated by Slic3r 0.9.8 on 2013-09-08 at 18:03:52

; layer_height = 0.25
; perimeters = 3
; top_solid_layers = 3
; bottom_solid_layers = 3
; fill_density = 0.3
; perimeter_speed = 60
; infill_speed = 70
; travel_speed = 120
; scale = 1
; nozzle_diameter = 0.5
; filament_diameter = 2.9
; extrusion_multiplier = 0.81
; perimeters extrusion width = 0.40mm
; infill extrusion width = 0.25mm
; first layer extrusion width = 0.25mm

M107
M190 S70 ; wait for bed temperature to be reached
M104 S225 ; set temperature
G28 ; home all axes
M109 S225 ; wait for temperature to be reached
G90 ; use absolute coordinates
G21 ; set units to millimeters
G92 E0
M82 ; use absolute distances for extrusion
G1 F1800.000 E-1.00000
G92 E0
G1 Z0.250 F7200.000
G1 X56.465 Y101.460
G1 F1800.000 E1.00000
G1 X55.885 Y101.530 F1800.000 E1.00544
G1 X52.925 Y101.760 E1.03308
G1 X51.835 Y101.760 E1.04322
G1 X48.725 Y101.510 E1.07227
G1 X47.685 Y101.340 E1.08208
G1 X44.645 Y100.620 E1.11116
G1 X43.575 Y100.280 E1.12161
G1 X40.695 Y99.080 E1.15066
G1 X39.745 Y98.590 E1.16061
G1 X37.085 Y96.960 E1.18965
G1 X36.215 Y96.330 E1.19965
G1 X33.845 Y94.310 E1.22864
G1 X33.065 Y93.530 E1.23891
G1 X31.045 Y91.160 E1.26790
G1 X30.415 Y90.290 E1.27790
G1 X28.785 Y87.630 E1.30694
G1 X28.295 Y86.680 E1.31689
G1 X27.095 Y83.800 E1.34594
G1 X26.755 Y82.730 E1.35639
G1 X26.035 Y79.690 E1.38547
G1 X25.895 Y78.960 E1.39239
G1 X25.825 Y77.940 E1.40191
G1 X25.825 Y72.050 E1.45674
G1 X25.875 Y71.190 E1.46476
G1 X26.035 Y70.300 E1.47318
G1 X26.755 Y67.260 E1.50226
G1 X27.095 Y66.190 E1.51271
G1 X28.295 Y63.310 E1.54176
G1 X28.785 Y62.360 E1.55171
G1 X30.415 Y59.700 E1.58075
G1 X31.045 Y58.830 E1.59075
G1 X33.065 Y56.460 E1.61974
G1 X33.845 Y55.680 E1.63001
G1 X36.215 Y53.660 E1.65900
G1 X37.085 Y53.030 E1.66899
G1 X39.745 Y51.400 E1.69804
G1 X40.695 Y50.910 E1.70799
G1 X43.575 Y49.710 E1.73703
G1 X44.645 Y49.370 E1.74748
G1 X47.685 Y48.650 E1.77657
G1 X48.715 Y48.480 E1.78628
G1 X51.925 Y48.220 E1.81627
G1 X52.945 Y48.230 E1.82576
G1 X56.045 Y48.480 E1.85471
G1 X116.555 Y56.290 E2.42269
G1 X117.355 Y56.440 E2.43026
G1 X117.635 Y56.510 E2.43295
G1 X118.485 Y56.780 E2.44125
G1 X119.255 Y57.100 E2.44902
G1 X119.735 Y57.360 E2.45410
G1 X120.215 Y57.660 E2.45937
G1 X121.005 Y58.250 E2.46855
G1 X121.225 Y58.440 E2.47125
G1 X121.935 Y59.150 E2.48060
G1 X122.125 Y59.370 E2.48331
G1 X122.715 Y60.160 E2.49248
G1 X123.015 Y60.640 E2.49775
G1 X123.275 Y61.120 E2.50284
G1 X123.595 Y61.890 E2.51060
G1 X123.865 Y62.740 E2.51890
G1 X123.995 Y63.260 E2.52389
G1 X124.085 Y63.750 E2.52853
G1 X124.155 Y64.540 E2.53591
G1 X124.165 Y65.000 E2.54019
G1 X124.165 Y84.990 E2.72629
G1 X124.155 Y85.450 E2.73057
G1 X124.085 Y86.240 E2.73795
G1 X123.995 Y86.730 E2.74259
G1 X123.865 Y87.250 E2.74758
G1 X123.595 Y88.100 E2.75588
G1 X123.275 Y88.870 E2.76364
G1 X123.015 Y89.350 E2.76873
G1 X122.715 Y89.830 E2.77400
G1 X122.125 Y90.620 E2.78317
G1 X121.935 Y90.840 E2.78588
G1 X121.225 Y91.550 E2.79523
G1 X121.005 Y91.740 E2.79793
G1 X120.215 Y92.330 E2.80711
G1 X119.735 Y92.630 E2.81238
G1 X119.255 Y92.890 E2.81746
G1 X118.485 Y93.210 E2.82523
G1 X117.635 Y93.480 E2.83353
G1 X117.355 Y93.550 E2.83622
G1 X116.555 Y93.700 E2.84379
G1 X56.510 Y101.454 E3.40740
G1 X56.465 Y101.460 E3.40783
G1 X56.415 Y101.160 F7200.000
G1 X55.855 Y101.230 F1800.000 E3.41308
G1 X52.895 Y101.460 E3.44072
G1 X51.855 Y101.460 E3.45040
G1 X48.745 Y101.210 E3.47945
G1 X47.755 Y101.050 E3.48878
G1 X44.715 Y100.330 E3.51787
G1 X43.695 Y100.000 E3.52785
G1 X40.815 Y98.800 E3.55689
G1 X39.905 Y98.330 E3.56643
G1 X37.245 Y96.700 E3.59547
G1 X36.405 Y96.100 E3.60508
G1 X34.035 Y94.080 E3.63407
G1 X33.295 Y93.340 E3.64381
G1 X31.275 Y90.970 E3.67280
G1 X30.675 Y90.130 E3.68241
G1 X29.045 Y87.470 E3.71145
G1 X28.575 Y86.560 E3.72098
G1 X27.375 Y83.680 E3.75003
G1 X27.045 Y82.660 E3.76001
G1 X26.325 Y79.620 E3.78909
G1 X26.195 Y78.920 E3.79572
G1 X26.125 Y77.940 E3.80487
G1 X26.125 Y72.050 E3.85970
G1 X26.175 Y71.230 E3.86734
G1 X26.325 Y70.370 E3.87547
G1 X27.045 Y67.330 E3.90455
G1 X27.375 Y66.310 E3.91453
G1 X28.575 Y63.430 E3.94358
G1 X29.045 Y62.520 E3.95311
G1 X30.675 Y59.860 E3.98216
G1 X31.275 Y59.020 E3.99177
G1 X33.295 Y56.650 E4.02075
G1 X34.035 Y55.910 E4.03050
G1 X36.405 Y53.890 E4.05949
G1 X37.245 Y53.290 E4.06910
G1 X39.905 Y51.660 E4.09814
G1 X40.815 Y51.190 E4.10767
G1 X43.695 Y49.990 E4.13672
G1 X44.715 Y49.660 E4.14670
G1 X47.755 Y48.940 E4.17578
G1 X48.745 Y48.780 E4.18512
G1 X51.945 Y48.530 E4.21500
G1 X52.915 Y48.530 E4.22403
G1 X56.015 Y48.780 E4.25298
G1 X116.525 Y56.590 E4.82095
G1 X117.275 Y56.730 E4.82805
G1 X117.555 Y56.800 E4.83074
G1 X118.375 Y57.060 E4.83875
G1 X118.655 Y57.170 E4.84155
G1 X119.355 Y57.490 E4.84871
G1 X119.795 Y57.750 E4.85347
G1 X120.045 Y57.910 E4.85624
G1 X120.805 Y58.480 E4.86508
G1 X121.025 Y58.670 E4.86779
G1 X121.705 Y59.350 E4.87674
G1 X121.895 Y59.570 E4.87944
G1 X122.465 Y60.330 E4.88829
G1 X122.885 Y61.020 E4.89581
G1 X123.105 Y61.490 E4.90064
G1 X123.315 Y62.000 E4.90577
G1 X123.575 Y62.820 E4.91378
G1 X123.745 Y63.560 E4.92085
G1 X123.825 Y64.260 E4.92741
G1 X123.865 Y65.000 E4.93431
G1 X123.865 Y84.990 E5.12040
G1 X123.825 Y85.730 E5.12730
G1 X123.745 Y86.430 E5.13386
G1 X123.575 Y87.170 E5.14092
G1 X123.315 Y87.990 E5.14893
G1 X123.205 Y88.270 E5.15173
G1 X122.885 Y88.970 E5.15890
G1 X122.465 Y89.660 E5.16642
G1 X121.895 Y90.420 E5.17526
G1 X121.705 Y90.640 E5.17797
G1 X121.025 Y91.320 E5.18692
G1 X120.805 Y91.510 E5.18963
G1 X120.045 Y92.080 E5.19847
G1 X119.355 Y92.500 E5.20599
G1 X118.885 Y92.720 E5.21082
G1 X118.375 Y92.930 E5.21595
G1 X117.555 Y93.190 E5.22396
G1 X117.275 Y93.260 E5.22665
G1 X116.525 Y93.400 E5.23375
G1 X56.460 Y101.154 E5.79755
G1 X56.415 Y101.160 E5.79797
G1 X56.375 Y100.860 F7200.000
G1 X55.835 Y100.920 F1800.000 E5.80303
G1 X52.875 Y101.150 E5.83067
G1 X51.875 Y101.150 E5.83998
G1 X48.765 Y100.900 E5.86902
G1 X47.825 Y100.750 E5.87788
G1 X44.785 Y100.030 E5.90697
G1 X43.815 Y99.720 E5.91645
G1 X40.935 Y98.520 E5.94549
G1 X40.065 Y98.070 E5.95461
G1 X37.405 Y96.440 E5.98365
G1 X36.605 Y95.870 E5.99280
G1 X34.235 Y93.850 E6.02179
G1 X33.525 Y93.140 E6.03113
G1 X31.505 Y90.770 E6.06012
G1 X30.935 Y89.970 E6.06927
G1 X29.305 Y87.310 E6.09831
G1 X28.855 Y86.440 E6.10743
G1 X27.655 Y83.560 E6.13647
G1 X27.345 Y82.590 E6.14595
G1 X26.625 Y79.550 E6.17504
G1 X26.505 Y78.880 E6.18137
G1 X26.435 Y77.940 E6.19015
G1 X26.435 Y72.050 E6.24498
G1 X26.485 Y71.270 E6.25225
G1 X26.625 Y70.440 E6.26009
G1 X27.345 Y67.400 E6.28917
G1 X27.655 Y66.430 E6.29865
G1 X28.855 Y63.550 E6.32770
G1 X29.305 Y62.680 E6.33682
G1 X30.935 Y60.020 E6.36586
G1 X31.505 Y59.220 E6.37500
G1 X33.525 Y56.850 E6.40399
G1 X34.235 Y56.140 E6.41334
G1 X36.605 Y54.120 E6.44233
G1 X37.405 Y53.550 E6.45147
G1 X40.065 Y51.920 E6.48051
G1 X40.935 Y51.470 E6.48963
G1 X43.815 Y50.270 E6.51868
G1 X44.785 Y49.960 E6.52816
G1 X47.825 Y49.240 E6.55724
G1 X48.765 Y49.090 E6.56610
G1 X51.965 Y48.830 E6.59599
G1 X52.895 Y48.840 E6.60465
G1 X56.295 Y49.120 E6.63641
G1 X116.485 Y56.890 E7.20138
G1 X117.205 Y57.020 E7.20819
G1 X117.485 Y57.090 E7.21087
G1 X118.255 Y57.340 E7.21841
G1 X118.995 Y57.650 E7.22588
G1 X119.425 Y57.880 E7.23042
G1 X119.885 Y58.170 E7.23548
G1 X120.605 Y58.710 E7.24386
G1 X120.825 Y58.900 E7.24657
G1 X121.475 Y59.550 E7.25512
G1 X121.665 Y59.770 E7.25783
G1 X122.205 Y60.490 E7.26621
G1 X122.495 Y60.950 E7.27127
G1 X122.725 Y61.380 E7.27581
G1 X123.035 Y62.120 E7.28328
G1 X123.285 Y62.890 E7.29081
G1 X123.445 Y63.610 E7.29768
G1 X123.525 Y64.280 E7.30396
G1 X123.555 Y65.000 E7.31067
G1 X123.555 Y84.990 E7.49676
G1 X123.525 Y85.710 E7.50347
G1 X123.445 Y86.380 E7.50975
G1 X123.285 Y87.100 E7.51662
G1 X123.035 Y87.870 E7.52415
G1 X122.925 Y88.150 E7.52696
G1 X122.615 Y88.820 E7.53383
G1 X122.205 Y89.500 E7.54122
G1 X121.665 Y90.220 E7.54960
G1 X121.475 Y90.440 E7.55230
G1 X120.825 Y91.090 E7.56086
G1 X120.605 Y91.280 E7.56357
G1 X119.885 Y91.820 E7.57195
G1 X119.425 Y92.110 E7.57701
G1 X118.995 Y92.340 E7.58155
G1 X118.255 Y92.650 E7.58902
G1 X117.485 Y92.900 E7.59655
G1 X117.205 Y92.970 E7.59924
G1 X116.485 Y93.100 E7.60605
G1 X56.420 Y100.854 E8.16985
G1 X56.375 Y100.860 E8.17027
M204 S1000
G1 F1800.000 E7.17027
G92 E0
G1 X80.957 Y81.929 F7200.000
G1 F1800.000 E1.00000
G1 X80.957 Y76.979 F1800.000 E1.04608
G1 X77.868 Y76.979 E1.07483
G1 X77.576 Y76.956 E1.07756
G1 X77.273 Y76.883 E1.08046
G1 X76.986 Y76.764 E1.08335
G1 X76.721 Y76.602 E1.08624
G1 X76.485 Y76.400 E1.08913
G1 X76.283 Y76.164 E1.09203
G1 X76.121 Y75.899 E1.09492
G1 X76.002 Y75.612 E1.09781
G1 X75.930 Y75.310 E1.10070
G1 X75.905 Y75.000 E1.10360
G1 X75.930 Y74.690 E1.10649
G1 X76.002 Y74.388 E1.10938
G1 X76.121 Y74.101 E1.11227
G1 X76.283 Y73.836 E1.11516
G1 X76.485 Y73.600 E1.11806
G1 X76.721 Y73.398 E1.12095
G1 X76.986 Y73.236 E1.12384
G1 X77.273 Y73.117 E1.12673
G1 X77.576 Y73.044 E1.12963
G1 X77.869 Y73.021 E1.13236
G1 X80.957 Y73.021 E1.16111
G1 X80.957 Y68.071 E1.20719
G1 X111.314 Y68.071 E1.48979
G1 X111.314 Y73.021 E1.53587
G1 X114.402 Y73.021 E1.56462
G1 X114.695 Y73.044 E1.56736
G1 X114.997 Y73.117 E1.57025
G1 X115.284 Y73.236 E1.57314
G1 X115.549 Y73.398 E1.57603
G1 X115.785 Y73.600 E1.57893
G1 X115.987 Y73.836 E1.58182
G1 X116.150 Y74.101 E1.58471
G1 X116.268 Y74.388 E1.58760
G1 X116.341 Y74.690 E1.59049
G1 X116.365 Y75.000 E1.59339
G1 X116.341 Y75.310 E1.59628
G1 X116.268 Y75.612 E1.59917
G1 X116.150 Y75.899 E1.60206
G1 X115.987 Y76.164 E1.60496
G1 X115.785 Y76.400 E1.60785
G1 X115.549 Y76.602 E1.61074
G1 X115.284 Y76.764 E1.61364
G1 X114.997 Y76.883 E1.61653
G1 X114.695 Y76.956 E1.61942
G1 X114.402 Y76.979 E1.62215
G1 X111.314 Y76.979 E1.65090
G1 X111.314 Y81.929 E1.69698
G1 X81.002 Y81.929 E1.97916
G1 X80.957 Y81.929 E1.97959
G1 X81.260 Y81.625 F7200.000
G1 X81.260 Y76.675 F1800.000 E2.02567
G1 X77.880 Y76.675 E2.05713
G1 X77.623 Y76.655 E2.05953
G1 X77.368 Y76.593 E2.06198
G1 X77.125 Y76.493 E2.06443
G1 X76.900 Y76.355 E2.06688
G1 X76.701 Y76.185 E2.06932
G1 X76.530 Y75.985 E2.07177
G1 X76.392 Y75.761 E2.07422
G1 X76.292 Y75.518 E2.07666
G1 X76.231 Y75.262 E2.07911
G1 X76.210 Y75.000 E2.08156
G1 X76.231 Y74.738 E2.08401
G1 X76.292 Y74.482 E2.08645
G1 X76.392 Y74.239 E2.08890
G1 X76.530 Y74.015 E2.09135
G1 X76.701 Y73.815 E2.09380
G1 X76.900 Y73.645 E2.09624
G1 X77.125 Y73.507 E2.09869
G1 X77.368 Y73.407 E2.10114
G1 X77.623 Y73.345 E2.10359
G1 X77.880 Y73.325 E2.10599
G1 X81.260 Y73.325 E2.13745
G1 X81.260 Y68.375 E2.18353
G1 X111.010 Y68.375 E2.46048
G1 X111.010 Y73.325 E2.50656
G1 X114.390 Y73.325 E2.53803
G1 X114.647 Y73.345 E2.54043
G1 X114.903 Y73.407 E2.54288
G1 X115.146 Y73.507 E2.54532
G1 X115.370 Y73.645 E2.54777
G1 X115.570 Y73.815 E2.55022
G1 X115.741 Y74.015 E2.55266
G1 X115.878 Y74.239 E2.55511
G1 X115.979 Y74.482 E2.55756
G1 X116.040 Y74.738 E2.56001
G1 X116.061 Y75.000 E2.56245
G1 X116.040 Y75.262 E2.56490
G1 X115.979 Y75.518 E2.56735
G1 X115.878 Y75.761 E2.56980
G1 X115.741 Y75.985 E2.57224
G1 X115.570 Y76.185 E2.57469
G1 X115.370 Y76.355 E2.57714
G1 X115.146 Y76.493 E2.57959
G1 X114.903 Y76.593 E2.58203
G1 X114.647 Y76.655 E2.58448
G1 X114.390 Y76.675 E2.58688
G1 X111.010 Y76.675 E2.61835
G1 X111.010 Y81.625 E2.66443
G1 X81.306 Y81.625 E2.94095
G1 X81.260 Y81.625 E2.94138
G1 X80.957 Y81.625 F7200.000
G1 F1800.000 E1.94138
G92 E0
G1 X69.720 Y81.000 F7200.000
G1 F1800.000 E1.00000
G1 X69.691 Y81.365 F1800.000 E1.00341
G1 X69.606 Y81.721 E1.00682
G1 X69.465 Y82.060 E1.01023
G1 X69.274 Y82.372 E1.01364
G1 X69.036 Y82.651 E1.01705
G1 X68.758 Y82.889 E1.02046
G1 X68.445 Y83.080 E1.02387
G1 X68.107 Y83.220 E1.02728
G1 X67.750 Y83.306 E1.03069
G1 X67.385 Y83.335 E1.03410
G1 X66.952 Y83.289 E1.03816
G1 X66.664 Y83.220 E1.04092
G1 X66.325 Y83.080 E1.04433
G1 X66.013 Y82.889 E1.04774
G1 X65.734 Y82.651 E1.05115
G1 X65.497 Y82.372 E1.05456
G1 X65.305 Y82.060 E1.05797
G1 X65.165 Y81.722 E1.06138
G1 X65.074 Y81.295 E1.06544
G1 X65.051 Y81.000 E1.06819
G1 X65.079 Y80.635 E1.07160
G1 X65.165 Y80.279 E1.07501
G1 X65.305 Y79.940 E1.07842
G1 X65.497 Y79.628 E1.08183
G1 X65.734 Y79.349 E1.08524
G1 X66.013 Y79.111 E1.08865
G1 X66.325 Y78.920 E1.09207
G1 X66.664 Y78.780 E1.09548
G1 X66.952 Y78.711 E1.09823
G1 X67.385 Y78.665 E1.10229
G1 X67.750 Y78.694 E1.10570
G1 X68.107 Y78.780 E1.10911
G1 X68.445 Y78.920 E1.11252
G1 X68.758 Y79.111 E1.11593
G1 X69.036 Y79.349 E1.11934
G1 X69.274 Y79.628 E1.12275
G1 X69.465 Y79.940 E1.12616
G1 X69.606 Y80.279 E1.12957
G1 X69.691 Y80.635 E1.13298
G1 X69.716 Y80.955 E1.13597
G1 X69.720 Y81.000 E1.13639
G1 X69.415 Y81.000 F7200.000
G1 X69.390 Y81.318 F1800.000 E1.13936
G1 X69.316 Y81.627 E1.14232
G1 X69.194 Y81.922 E1.14529
G1 X69.028 Y82.193 E1.14825
G1 X68.821 Y82.435 E1.15122
G1 X68.579 Y82.642 E1.15418
G1 X68.307 Y82.809 E1.15715
G1 X68.013 Y82.931 E1.16012
G1 X67.703 Y83.005 E1.16308
G1 X67.385 Y83.030 E1.16605
G1 X67.023 Y82.994 E1.16944
G1 X66.758 Y82.931 E1.17197
G1 X66.464 Y82.809 E1.17494
G1 X66.192 Y82.642 E1.17790
G1 X65.950 Y82.435 E1.18087
G1 X65.743 Y82.193 E1.18383
G1 X65.577 Y81.922 E1.18680
G1 X65.455 Y81.627 E1.18976
G1 X65.377 Y81.271 E1.19316
G1 X65.355 Y81.000 E1.19569
G1 X65.380 Y80.682 E1.19866
G1 X65.455 Y80.373 E1.20162
G1 X65.577 Y80.078 E1.20459
G1 X65.743 Y79.807 E1.20755
G1 X65.950 Y79.565 E1.21052
G1 X66.192 Y79.358 E1.21348
G1 X66.464 Y79.191 E1.21645
G1 X66.758 Y79.069 E1.21941
G1 X67.023 Y79.006 E1.22195
G1 X67.385 Y78.970 E1.22534
G1 X67.703 Y78.995 E1.22830
G1 X68.013 Y79.069 E1.23127
G1 X68.307 Y79.191 E1.23424
G1 X68.579 Y79.358 E1.23720
G1 X68.821 Y79.565 E1.24017
G1 X69.028 Y79.807 E1.24313
G1 X69.194 Y80.078 E1.24610
G1 X69.316 Y80.373 E1.24906
G1 X69.390 Y80.682 E1.25203
G1 X69.412 Y80.955 E1.25457
G1 X69.415 Y81.000 E1.25499
G1 X69.111 Y81.000 F7200.000
G1 X69.089 Y81.270 F1800.000 E1.25751
G1 X69.026 Y81.533 E1.26003
G1 X68.923 Y81.783 E1.26255
G1 X68.781 Y82.014 E1.26507
G1 X68.605 Y82.220 E1.26759
G1 X68.399 Y82.396 E1.27012
G1 X68.169 Y82.537 E1.27264
G1 X67.918 Y82.641 E1.27516
G1 X67.655 Y82.704 E1.27768
G1 X67.385 Y82.725 E1.28020
G1 X67.094 Y82.699 E1.28292
G1 X66.852 Y82.641 E1.28524
G1 X66.602 Y82.537 E1.28776
G1 X66.371 Y82.396 E1.29028
G1 X66.165 Y82.220 E1.29280
G1 X65.989 Y82.014 E1.29532
G1 X65.848 Y81.783 E1.29784
G1 X65.744 Y81.533 E1.30036
G1 X65.679 Y81.248 E1.30308
G1 X65.660 Y81.000 E1.30540
G1 X65.681 Y80.730 E1.30792
G1 X65.744 Y80.467 E1.31044
G1 X65.848 Y80.217 E1.31296
G1 X65.989 Y79.986 E1.31548
G1 X66.165 Y79.780 E1.31800
G1 X66.371 Y79.604 E1.32052
G1 X66.602 Y79.463 E1.32304
G1 X66.852 Y79.359 E1.32556
G1 X67.115 Y79.296 E1.32808
G1 X67.385 Y79.275 E1.33060
G1 X67.655 Y79.296 E1.33312
G1 X67.918 Y79.359 E1.33564
G1 X68.169 Y79.463 E1.33816
G1 X68.399 Y79.604 E1.34068
G1 X68.605 Y79.780 E1.34320
G1 X68.781 Y79.986 E1.34572
G1 X68.923 Y80.217 E1.34824
G1 X69.026 Y80.467 E1.35076
G1 X69.089 Y80.730 E1.35328
G1 X69.107 Y80.955 E1.35538
G1 X69.111 Y81.000 E1.35580
G1 X69.370 Y81.159 F7200.000
G1 F1800.000 E0.35580
G92 E0
G1 X67.751 Y71.306 F7200.000
G1 F1800.000 E1.00000
G1 X67.385 Y71.335 F1800.000 E1.00341
G1 X66.952 Y71.289 E1.00747
G1 X66.664 Y71.220 E1.01022
G1 X66.325 Y71.080 E1.01363
G1 X66.013 Y70.889 E1.01705
G1 X65.734 Y70.651 E1.02046
G1 X65.497 Y70.372 E1.02387
G1 X65.305 Y70.060 E1.02728
G1 X65.165 Y69.721 E1.03069
G1 X65.079 Y69.365 E1.03410
G1 X65.051 Y69.000 E1.03751
G1 X65.079 Y68.635 E1.04092
G1 X65.165 Y68.279 E1.04433
G1 X65.305 Y67.940 E1.04774
G1 X65.497 Y67.628 E1.05115
G1 X65.734 Y67.349 E1.05456
G1 X66.013 Y67.111 E1.05797
