; generated by Slic3r 0.9.8 on 2013-09-22 at 11:30:56

; layer_height = 0.20
; perimeters = 3
; top_solid_layers = 3
; bottom_solid_layers = 3
; fill_density = 0.5
; perimeter_speed = 30
; infill_speed = 40
; travel_speed = 100
; scale = 1
; nozzle_diameter = 0.5
; filament_diameter = 2.9
; extrusion_multiplier = 0.81
; perimeters extrusion width = 0.40mm
; infill extrusion width = 0.20mm
; first layer extrusion width = 0.20mm

M107
M190 S70 ; wait for bed temperature to be reached
M104 S225 ; set temperature
G28 ; home all axes
M109 S225 ; wait for temperature to be reached
G90 ; use absolute coordinates
G21 ; set units to millimeters
G92 E0
M82 ; use absolute distances for extrusion
G1 F1800.000 E-1.00000
G92 E0
G1 Z0.200 F6000.000
G1 X89.350 Y90.880
G1 F1800.000 E1.00000
G1 X89.020 Y91.700 F1800.000 E1.00580
G1 X88.590 Y92.480 E1.01164
G1 X88.070 Y93.200 E1.01747
G1 X87.470 Y93.850 E1.02327
G1 X77.250 Y102.890 E1.11280
G1 X76.790 Y103.260 E1.11667
G1 X76.050 Y103.750 E1.12250
G1 X75.530 Y104.020 E1.12634
G1 X74.990 Y104.250 E1.13019
G1 X74.430 Y104.440 E1.13407
G1 X73.860 Y104.580 E1.13792
G1 X73.270 Y104.670 E1.14184
G1 X72.690 Y104.720 E1.14566
G1 X67.600 Y104.730 E1.17906
G1 X67.040 Y104.710 E1.18273
G1 X66.200 Y104.590 E1.18830
G1 X65.660 Y104.470 E1.19193
G1 X65.120 Y104.300 E1.19564
G1 X64.340 Y103.970 E1.20120
G1 X63.850 Y103.700 E1.20487
G1 X63.150 Y103.230 E1.21040
G1 X62.720 Y102.870 E1.21408
G1 X62.310 Y102.480 E1.21780
G1 X61.760 Y101.840 E1.22333
G1 X61.440 Y101.380 E1.22701
G1 X61.150 Y100.900 E1.23069
G1 X60.900 Y100.390 E1.23442
G1 X60.690 Y99.870 E1.23810
G1 X60.520 Y99.330 E1.24181
G1 X60.350 Y98.510 E1.24730
G1 X60.280 Y97.950 E1.25101
G1 X60.260 Y97.390 E1.25468
G1 X60.260 Y52.600 E1.54856
G1 X60.280 Y52.040 E1.55224
G1 X60.350 Y51.480 E1.55594
G1 X60.520 Y50.660 E1.56144
G1 X60.600 Y50.390 E1.56329
G1 X60.900 Y49.600 E1.56883
G1 X61.020 Y49.340 E1.57071
G1 X61.290 Y48.850 E1.57438
G1 X61.760 Y48.150 E1.57991
G1 X62.310 Y47.510 E1.58545
G1 X62.930 Y46.940 E1.59098
G1 X63.150 Y46.760 E1.59284
G1 X63.610 Y46.440 E1.59652
G1 X64.340 Y46.020 E1.60204
G1 X65.120 Y45.690 E1.60760
G1 X65.660 Y45.520 E1.61131
G1 X66.480 Y45.350 E1.61681
G1 X67.040 Y45.280 E1.62051
G1 X67.600 Y45.260 E1.62419
G1 X72.390 Y45.260 E1.65562
G1 X73.270 Y45.320 E1.66140
G1 X74.140 Y45.470 E1.66720
G1 X74.990 Y45.740 E1.67305
G1 X75.800 Y46.100 E1.67886
G1 X76.310 Y46.400 E1.68275
G1 X77.020 Y46.910 E1.68848
G1 X87.250 Y55.940 E1.77801
G1 X87.470 Y56.140 E1.77996
G1 X87.880 Y56.570 E1.78386
G1 X88.070 Y56.790 E1.78577
G1 X88.430 Y57.270 E1.78971
G1 X88.590 Y57.510 E1.79160
G1 X88.890 Y58.030 E1.79554
G1 X89.140 Y58.560 E1.79938
G1 X89.350 Y59.110 E1.80325
G1 X89.510 Y59.680 E1.80713
G1 X89.630 Y60.260 E1.81102
G1 X89.700 Y60.850 E1.81491
G1 X89.730 Y61.440 E1.81879
G1 X89.730 Y88.550 E1.99667
G1 X89.700 Y89.140 E2.00054
G1 X89.630 Y89.730 E2.00444
G1 X89.580 Y90.020 E2.00637
G1 X89.362 Y90.842 E2.01195
G1 X89.350 Y90.880 E2.01221
G1 X89.100 Y90.790 F6000.000
G4 P197
G1 X88.780 Y91.580 F1800.000 E2.01781
G1 X88.510 Y92.090 E2.02159
G1 X88.210 Y92.570 E2.02531
G1 X87.680 Y93.240 E2.03091
G1 X87.070 Y93.850 E2.03657
G1 X76.860 Y102.870 E2.12596
G1 X76.400 Y103.210 E2.12971
G1 X75.920 Y103.520 E2.13346
G1 X75.160 Y103.900 E2.13904
G1 X74.630 Y104.100 E2.14276
G1 X74.080 Y104.260 E2.14651
G1 X73.520 Y104.370 E2.15026
G1 X72.960 Y104.440 E2.15396
G1 X72.390 Y104.460 E2.15770
G1 X67.600 Y104.460 E2.18913
G1 X67.050 Y104.440 E2.19274
G1 X66.490 Y104.370 E2.19645
G1 X65.680 Y104.190 E2.20189
G1 X65.150 Y104.020 E2.20554
G1 X64.390 Y103.690 E2.21098
G1 X63.910 Y103.420 E2.21459
G1 X63.440 Y103.110 E2.21829
G1 X62.800 Y102.580 E2.22374
G1 X62.220 Y101.980 E2.22921
G1 X61.880 Y101.550 E2.23281
G1 X61.570 Y101.080 E2.23650
G1 X61.300 Y100.600 E2.24012
G1 X61.070 Y100.100 E2.24373
G1 X60.880 Y99.570 E2.24742
G1 X60.730 Y99.040 E2.25104
G1 X60.620 Y98.500 E2.25465
G1 X60.550 Y97.940 E2.25836
G1 X60.530 Y97.390 E2.26197
G1 X60.530 Y52.600 E2.55585
G1 X60.550 Y52.050 E2.55946
G1 X60.580 Y51.770 E2.56131
G1 X60.670 Y51.220 E2.56496
G1 X60.800 Y50.680 E2.56861
G1 X61.070 Y49.890 E2.57408
G1 X61.430 Y49.150 E2.57948
G1 X61.880 Y48.440 E2.58500
G1 X62.410 Y47.800 E2.59045
G1 X63.010 Y47.220 E2.59593
G1 X63.670 Y46.720 E2.60136
G1 X64.390 Y46.300 E2.60683
G1 X65.150 Y45.970 E2.61227
G1 X65.680 Y45.800 E2.61592
G1 X66.490 Y45.620 E2.62136
G1 X67.050 Y45.550 E2.62506
G1 X67.600 Y45.530 E2.62868
G1 X72.390 Y45.530 E2.66010
G1 X72.960 Y45.550 E2.66385
G1 X73.240 Y45.580 E2.66569
G1 X74.080 Y45.730 E2.67129
G1 X74.630 Y45.890 E2.67505
G1 X75.160 Y46.090 E2.67877
G1 X75.420 Y46.210 E2.68065
G1 X75.920 Y46.470 E2.68434
G1 X76.160 Y46.620 E2.68620
G1 X76.630 Y46.940 E2.68993
G1 X76.860 Y47.120 E2.69185
G1 X87.070 Y56.140 E2.78124
G1 X87.680 Y56.750 E2.78690
G1 X88.210 Y57.420 E2.79250
G1 X88.650 Y58.150 E2.79810
G1 X88.780 Y58.410 E2.80000
G1 X89.100 Y59.200 E2.80560
G1 X89.320 Y60.020 E2.81117
G1 X89.370 Y60.300 E2.81303
G1 X89.440 Y60.870 E2.81680
G1 X89.460 Y61.440 E2.82054
G1 X89.460 Y88.550 E2.99842
G1 X89.440 Y89.120 E3.00216
G1 X89.370 Y89.690 E3.00593
G1 X89.320 Y89.970 E3.00779
G1 X89.111 Y90.752 E3.01310
G1 X89.100 Y90.790 E3.01337
G1 X88.840 Y90.710 F6000.000
G4 P197
G1 X88.650 Y91.220 F1800.000 E3.01694
G1 X88.410 Y91.720 E3.02058
G1 X87.990 Y92.420 E3.02593
G1 X87.480 Y93.070 E3.03135
G1 X86.900 Y93.650 E3.03673
G1 X76.900 Y102.490 E3.12431
G1 X76.450 Y102.850 E3.12809
G1 X75.970 Y103.180 E3.13191
G1 X75.460 Y103.460 E3.13573
G1 X74.930 Y103.700 E3.13955
G1 X74.390 Y103.890 E3.14330
G1 X73.830 Y104.040 E3.14711
G1 X73.260 Y104.140 E3.15090
G1 X72.680 Y104.190 E3.15472
G1 X67.330 Y104.190 E3.18983
G1 X66.780 Y104.140 E3.19345
G1 X66.240 Y104.060 E3.19703
G1 X65.450 Y103.840 E3.20241
G1 X64.930 Y103.650 E3.20604
G1 X64.680 Y103.540 E3.20784
G1 X63.960 Y103.140 E3.21324
G1 X63.510 Y102.830 E3.21683
G1 X62.890 Y102.300 E3.22218
G1 X62.330 Y101.690 E3.22761
G1 X62.000 Y101.250 E3.23122
G1 X61.850 Y101.030 E3.23297
G1 X61.450 Y100.310 E3.23837
G1 X61.150 Y99.540 E3.24379
G1 X60.930 Y98.750 E3.24917
G1 X60.850 Y98.210 E3.25276
G1 X60.800 Y97.660 E3.25638
G1 X60.800 Y52.330 E3.55380
G1 X60.850 Y51.780 E3.55743
G1 X60.930 Y51.240 E3.56101
G1 X61.070 Y50.710 E3.56460
G1 X61.340 Y49.930 E3.57002
G1 X61.450 Y49.680 E3.57181
G1 X61.710 Y49.200 E3.57539
G1 X61.850 Y48.960 E3.57722
G1 X62.160 Y48.510 E3.58080
G1 X62.690 Y47.890 E3.58615
G1 X63.300 Y47.330 E3.59159
G1 X63.510 Y47.160 E3.59336
G1 X63.960 Y46.850 E3.59695
G1 X64.680 Y46.450 E3.60235
G1 X65.190 Y46.240 E3.60597
G1 X65.710 Y46.070 E3.60956
G1 X66.240 Y45.930 E3.61315
G1 X66.780 Y45.850 E3.61674
G1 X67.330 Y45.800 E3.62036
G1 X72.680 Y45.800 E3.65546
G1 X73.260 Y45.850 E3.65928
G1 X73.830 Y45.950 E3.66308
G1 X74.110 Y46.020 E3.66497
G1 X74.930 Y46.290 E3.67064
G1 X75.460 Y46.530 E3.67446
G1 X75.970 Y46.810 E3.67827
G1 X76.210 Y46.970 E3.68017
G1 X76.900 Y47.500 E3.68587
G1 X86.900 Y56.340 E3.77345
G1 X87.480 Y56.920 E3.77883
G1 X87.990 Y57.570 E3.78425
G1 X88.410 Y58.270 E3.78961
G1 X88.650 Y58.770 E3.79325
G1 X88.840 Y59.280 E3.79682
G1 X89.050 Y60.080 E3.80224
G1 X89.140 Y60.620 E3.80584
G1 X89.190 Y61.170 E3.80946
G1 X89.190 Y88.820 E3.99088
G1 X89.100 Y89.640 E3.99629
G1 X88.990 Y90.180 E3.99991
G1 X88.851 Y90.672 E4.00326
G1 X88.840 Y90.710 E4.00352
G1 X88.640 Y90.460 F6000.000
G4 P196
G1 X88.350 Y91.240 F1800.000 E4.00898
G1 X87.960 Y91.970 E4.01441
G1 X87.480 Y92.650 E4.01987
G1 X87.120 Y93.060 E4.02345
G1 X86.720 Y93.450 E4.02712
G1 X76.510 Y102.470 E4.11651
G1 X75.830 Y102.950 E4.12197
G1 X75.340 Y103.220 E4.12564
G1 X74.830 Y103.450 E4.12931
G1 X74.310 Y103.640 E4.13294
G1 X73.770 Y103.780 E4.13660
G1 X73.220 Y103.870 E4.14026
G1 X72.670 Y103.920 E4.14388
G1 X67.600 Y103.930 E4.17715
G1 X66.810 Y103.880 E4.18234
G1 X66.550 Y103.840 E4.18407
G1 X66.040 Y103.740 E4.18748
G1 X65.530 Y103.590 E4.19097
G1 X65.040 Y103.400 E4.19442
G1 X64.560 Y103.180 E4.19788
G1 X64.330 Y103.050 E4.19961
G1 X63.670 Y102.610 E4.20482
G1 X63.070 Y102.100 E4.20998
G1 X62.710 Y101.720 E4.21342
G1 X62.220 Y101.100 E4.21860
G1 X61.810 Y100.430 E4.22376
G1 X61.490 Y99.710 E4.22893
G1 X61.320 Y99.210 E4.23239
G1 X61.250 Y98.950 E4.23416
G1 X61.110 Y98.180 E4.23929
G1 X61.060 Y97.390 E4.24449
G1 X61.060 Y52.600 E4.53837
G1 X61.110 Y51.810 E4.54356
G1 X61.250 Y51.040 E4.54870
G1 X61.320 Y50.780 E4.55046
G1 X61.590 Y50.040 E4.55563
G1 X61.810 Y49.560 E4.55910
G1 X61.940 Y49.330 E4.56083
G1 X62.380 Y48.670 E4.56603
G1 X62.890 Y48.070 E4.57120
G1 X63.270 Y47.710 E4.57464
G1 X63.670 Y47.380 E4.57804
G1 X64.330 Y46.940 E4.58324
G1 X64.560 Y46.810 E4.58498
G1 X65.040 Y46.590 E4.58844
G1 X65.530 Y46.400 E4.59189
G1 X66.040 Y46.250 E4.59538
G1 X66.550 Y46.150 E4.59879
G1 X66.810 Y46.110 E4.60051
G1 X67.600 Y46.060 E4.60571
G1 X72.670 Y46.070 E4.63897
G1 X73.500 Y46.160 E4.64445
G1 X73.770 Y46.210 E4.64625
G1 X74.310 Y46.350 E4.64991
G1 X75.090 Y46.650 E4.65540
G1 X75.590 Y46.900 E4.65906
G1 X76.060 Y47.190 E4.66269
G1 X76.510 Y47.520 E4.66635
G1 X86.720 Y56.540 E4.75574
G1 X87.300 Y57.130 E4.76117
G1 X87.480 Y57.340 E4.76298
G1 X87.810 Y57.790 E4.76664
G1 X88.100 Y58.260 E4.77027
G1 X88.350 Y58.750 E4.77387
G1 X88.640 Y59.530 E4.77933
G1 X88.720 Y59.800 E4.78118
G1 X88.830 Y60.340 E4.78480
G1 X88.900 Y60.890 E4.78844
G1 X88.930 Y61.440 E4.79205
G1 X88.930 Y88.550 E4.96993
G1 X88.900 Y89.100 E4.97354
G1 X88.830 Y89.650 E4.97718
G1 X88.720 Y90.190 E4.98079
G1 X88.651 Y90.422 E4.98238
G1 X88.640 Y90.460 E4.98264
G1 X88.460 Y90.130 F6000.000
G4 P196
G1 X88.210 Y90.880 F1800.000 E4.98783
G1 X87.870 Y91.600 E4.99305
G1 X87.440 Y92.270 E4.99828
G1 X87.100 Y92.680 E5.00177
G1 X86.740 Y93.070 E5.00525
G1 X76.540 Y102.090 E5.09459
G1 X75.910 Y102.580 E5.09983
G1 X75.460 Y102.860 E5.10331
G1 X74.980 Y103.100 E5.10683
G1 X74.480 Y103.300 E5.11036
G1 X73.710 Y103.520 E5.11562
G1 X73.190 Y103.610 E5.11908
G1 X72.660 Y103.650 E5.12257
G1 X67.600 Y103.660 E5.15577
G1 X67.080 Y103.640 E5.15918
G1 X66.570 Y103.570 E5.16256
G1 X66.060 Y103.470 E5.16597
G1 X65.320 Y103.230 E5.17107
G1 X64.850 Y103.020 E5.17445
G1 X64.170 Y102.640 E5.17956
G1 X63.750 Y102.340 E5.18295
G1 X63.170 Y101.820 E5.18806
G1 X62.650 Y101.240 E5.19317
G1 X62.350 Y100.820 E5.19656
G1 X62.090 Y100.370 E5.19997
G1 X61.860 Y99.910 E5.20334
G1 X61.590 Y99.180 E5.20845
G1 X61.520 Y98.930 E5.21015
G1 X61.380 Y98.170 E5.21522
G1 X61.350 Y97.910 E5.21694
G1 X61.330 Y97.390 E5.22035
G1 X61.330 Y52.600 E5.51423
G1 X61.350 Y52.080 E5.51765
G1 X61.380 Y51.820 E5.51937
G1 X61.520 Y51.060 E5.52444
G1 X61.670 Y50.560 E5.52786
G1 X61.970 Y49.850 E5.53292
G1 X62.350 Y49.170 E5.53803
G1 X62.650 Y48.750 E5.54142
G1 X62.820 Y48.550 E5.54314
G1 X63.170 Y48.170 E5.54653
G1 X63.750 Y47.650 E5.55164
G1 X64.170 Y47.350 E5.55503
G1 X64.390 Y47.220 E5.55670
G1 X64.850 Y46.970 E5.56014
G1 X65.320 Y46.760 E5.56352
G1 X66.060 Y46.520 E5.56862
G1 X66.570 Y46.420 E5.57203
G1 X67.080 Y46.350 E5.57541
G1 X67.600 Y46.330 E5.57882
G1 X72.390 Y46.330 E5.61025
G1 X73.190 Y46.380 E5.61551
G1 X73.710 Y46.470 E5.61897
G1 X74.480 Y46.690 E5.62423
G1 X74.980 Y46.890 E5.62776
G1 X75.460 Y47.130 E5.63128
G1 X75.690 Y47.270 E5.63305
G1 X75.910 Y47.410 E5.63476
G1 X76.340 Y47.730 E5.63828
G1 X86.540 Y56.740 E5.72757
G1 X86.920 Y57.110 E5.73105
G1 X87.440 Y57.720 E5.73631
G1 X87.870 Y58.390 E5.74153
G1 X88.100 Y58.860 E5.74497
G1 X88.300 Y59.360 E5.74850
G1 X88.460 Y59.860 E5.75195
G1 X88.570 Y60.380 E5.75543
G1 X88.640 Y60.910 E5.75894
G1 X88.660 Y61.440 E5.76242
G1 X88.660 Y88.550 E5.94030
G1 X88.640 Y89.080 E5.94378
G1 X88.610 Y89.340 E5.94549
G1 X88.469 Y90.091 E5.95051
G1 X88.460 Y90.130 E5.95077
M204 S1000
G1 F1800.000 E4.95077
G92 E0
G1 X81.863 Y88.023 F6000.000
G1 F1800.000 E1.00000
G1 X71.863 Y88.023 F1800.000 E1.06561
G1 X71.863 Y96.863 E1.12361
G1 X68.137 Y96.863 E1.14806
G1 X68.137 Y86.903 E1.21341
G1 X80.637 Y86.903 E1.29542
G1 X80.637 Y63.097 E1.45162
G1 X68.137 Y63.097 E1.53364
G1 X68.137 Y53.137 E1.59899
G1 X71.863 Y53.137 E1.62344
G1 X71.863 Y61.977 E1.68144
G1 X81.863 Y61.977 E1.74705
G1 X81.863 Y87.983 E1.91768
G1 X81.863 Y88.023 E1.91795
G1 X82.130 Y88.291 F6000.000
G1 X72.130 Y88.291 F1800.000 E1.98356
G1 X72.130 Y97.130 E2.04156
G1 X67.870 Y97.130 E2.06952
G1 X67.870 Y86.636 E2.13838
G1 X80.370 Y86.636 E2.22039
G1 X80.370 Y63.364 E2.37308
G1 X67.870 Y63.364 E2.45510
G1 X67.870 Y52.870 E2.52396
G1 X72.130 Y52.870 E2.55192
G1 X72.130 Y61.709 E2.60992
G1 X82.130 Y61.709 E2.67553
G1 X82.130 Y88.251 E2.84967
G1 X82.130 Y88.291 E2.84994
G1 X82.398 Y88.558 F6000.000
G1 X72.398 Y88.558 F1800.000 E2.91555
G1 X72.398 Y97.398 E2.97355
G1 X67.602 Y97.398 E3.00502
G1 X67.602 Y86.368 E3.07739
G1 X80.102 Y86.368 E3.15940
G1 X80.102 Y63.632 E3.30858
G1 X67.602 Y63.632 E3.39060
G1 X67.602 Y52.602 E3.46297
G1 X72.398 Y52.602 E3.49444
G1 X72.398 Y61.442 E3.55244
G1 X82.398 Y61.442 E3.61805
G1 X82.398 Y88.518 E3.79571
G1 X82.398 Y88.558 E3.79597
G1 X82.166 Y88.425 F6000.000
M204 S500
M204 S3000
G1 F1800.000 E2.79597
G92 E0
G1 X71.821 Y87.841 F6000.000
G1 F1800.000 E1.00000
G1 X71.065 Y87.085 F1800.000 E1.00705
G4 P58
G1 X71.446 Y87.085 E1.00956
G4 P45
G1 X72.201 Y87.841 E1.01660
G4 P164
G1 X72.582 Y87.841 E1.01911
G4 P139
G1 X71.826 Y87.085 E1.02616
G4 P164
G1 X72.206 Y87.085 E1.02867
G4 P139
G1 X72.962 Y87.841 E1.03571
G1 X73.342 Y87.841 E1.03822
G4 P151
G1 X72.587 Y87.085 E1.04527
G4 P164
G1 X72.967 Y87.085 E1.04778
G1 X73.723 Y87.841 E1.05483
G4 P151
G1 X74.103 Y87.841 E1.05734
G4 P139
G1 X73.347 Y87.085 E1.06438
G4 P164
G1 X73.728 Y87.086 E1.06689
G1 X74.483 Y87.841 E1.07394
G4 P151
G1 X74.864 Y87.841 E1.07645
G4 P139
G1 X74.108 Y87.085 E1.08349
G4 P164
G1 X74.488 Y87.085 E1.08600
G4 P139
G1 X75.244 Y87.841 E1.09305
G4 P164
G1 X75.624 Y87.841 E1.09556
G4 P139
G1 X74.869 Y87.085 E1.10261
G4 P164
G1 X75.249 Y87.085 E1.10511
G4 P139
G1 X76.005 Y87.841 E1.11216
G1 X76.385 Y87.841 E1.11467
G4 P151
G1 X75.629 Y87.085 E1.12172
G4 P164
G1 X76.010 Y87.085 E1.12423
G1 X76.765 Y87.841 E1.13127
G1 X77.146 Y87.841 E1.13378
G4 P139
G1 X76.390 Y87.085 E1.14083
G4 P164
G1 X76.770 Y87.085 E1.14334
G1 X77.526 Y87.841 E1.15039
G4 P151
G1 X77.906 Y87.841 E1.15289
G4 P139
G1 X77.151 Y87.085 E1.15994
G4 P164
G1 X77.531 Y87.085 E1.16245
G4 P139
G1 X78.287 Y87.841 E1.16950
G4 P164
G1 X78.667 Y87.841 E1.17201
G4 P139
G1 X77.911 Y87.085 E1.17905
G4 P164
G1 X78.292 Y87.085 E1.18156
G4 P139
G1 X79.047 Y87.841 E1.18861
G1 X79.428 Y87.841 E1.19112
G4 P151
G1 X78.672 Y87.085 E1.19817
G4 P164
G1 X79.052 Y87.085 E1.20067
G4 P151
G1 X79.808 Y87.841 E1.20772
G1 X80.188 Y87.841 E1.21023
G4 P151
G1 X79.433 Y87.085 E1.21728
G4 P164
G1 X79.813 Y87.085 E1.21979
G1 X80.569 Y87.841 E1.22683
G4 P151
G1 X80.949 Y87.841 E1.22934
G4 P139
G1 X80.193 Y87.085 E1.23639
G4 P164
G1 X80.574 Y87.085 E1.23890
G4 P139
G1 X81.329 Y87.841 E1.24594
G4 P164
G1 X81.681 Y87.812 E1.24827
G4 P139
G1 X80.819 Y86.951 E1.25631
G1 X80.819 Y86.570 E1.25881
G4 P146
G1 X81.681 Y87.432 E1.26685
G4 P159
G1 X81.681 Y87.051 E1.26936
G4 P146
G1 X80.819 Y86.190 E1.27739
G4 P159
G1 X80.819 Y85.810 E1.27990
G4 P134
G1 X81.681 Y86.671 E1.28794
G4 P159
G1 X81.681 Y86.291 E1.29044
G4 P134
G1 X80.819 Y85.429 E1.29848
G4 P159
G1 X80.819 Y85.049 E1.30099
G4 P134
G1 X81.681 Y85.910 E1.30902
G4 P159
G1 X81.681 Y85.530 E1.31153
G4 P134
G1 X80.819 Y84.669 E1.31957
G1 X80.819 Y84.288 E1.32207
G4 P146
G1 X81.681 Y85.150 E1.33011
G4 P159
G1 X81.681 Y84.769 E1.33262
G4 P146
