; generated by Slic3r 0.9.7 on 2014-01-05 at 17:05:55

; layer_height = 0.25
; perimeters = 3
; top_solid_layers = 3
; bottom_solid_layers = 3
; fill_density = 0.3
; perimeter_speed = 30
; infill_speed = 30
; travel_speed = 150
; scale = 1
; nozzle_diameter = 0.5
; filament_diameter = 2.9
; extrusion_multiplier = 0.81
; perimeters extrusion width = 0.40mm
; infill extrusion width = 0.40mm
; first layer extrusion width = 0.27mm

M107
M190 S70 ; wait for bed temperature to be reached
M104 S215 ; set temperature
G28 ; home all axes
M109 S215 ; wait for temperature to be reached
G90 ; use absolute coordinates
G21 ; set units to millimeters
G92 E0
M82 ; use absolute distances for extrusion
G1 F1500.000 E-1.50000
G92 E0
G1 Z0.250 F9000.000
G1 X57.960 Y56.933
G1 F1500.000 E1.50000
G1 X58.380 Y56.553 F1800.000 E1.50558
G1 X58.830 Y56.193 E1.51126
G1 X59.310 Y55.873 E1.51694
G1 X59.800 Y55.593 E1.52250
G1 X60.060 Y55.463 E1.52536
G1 X60.860 Y55.143 E1.53385
G1 X61.130 Y55.053 E1.53665
G1 X61.960 Y54.853 E1.54506
G1 X84.900 Y51.613 E1.77329
G1 X85.960 Y51.533 E1.78376
G1 X97.690 Y51.533 E1.89931
G1 X98.640 Y51.593 E1.90869
G1 X99.270 Y51.703 E1.91499
G1 X99.890 Y51.863 E1.92130
G1 X100.490 Y52.073 E1.92756
G1 X106.700 Y54.533 E1.99336
G1 X107.650 Y54.983 E2.00371
G1 X108.180 Y55.283 E2.00971
G1 X108.790 Y55.673 E2.01685
G1 X109.290 Y56.023 E2.02286
G1 X110.180 Y56.753 E2.03420
G1 X110.620 Y57.173 E2.04019
G1 X111.230 Y57.833 E2.04904
G1 X111.610 Y58.293 E2.05492
G1 X112.120 Y58.973 E2.06329
G1 X112.460 Y59.493 E2.06941
G1 X112.970 Y60.403 E2.07969
G1 X113.230 Y60.953 E2.08568
G1 X113.580 Y61.833 E2.09501
G1 X113.770 Y62.413 E2.10103
G1 X114.020 Y63.413 E2.11118
G1 X114.130 Y64.013 E2.11719
G1 X114.240 Y64.873 E2.12573
G1 X114.300 Y65.973 E2.13658
G1 X114.300 Y104.013 E2.51131
G1 X114.240 Y105.113 E2.52216
G1 X114.130 Y105.973 E2.53071
G1 X114.020 Y106.573 E2.53671
G1 X113.770 Y107.573 E2.54687
G1 X113.580 Y108.153 E2.55288
G1 X113.230 Y109.033 E2.56221
G1 X112.970 Y109.583 E2.56820
G1 X112.490 Y110.443 E2.57791
G1 X112.150 Y110.973 E2.58411
G1 X111.610 Y111.703 E2.59305
G1 X111.230 Y112.163 E2.59893
G1 X110.620 Y112.823 E2.60778
G1 X110.180 Y113.243 E2.61378
G1 X109.370 Y113.913 E2.62413
G1 X108.870 Y114.273 E2.63020
G1 X108.080 Y114.773 E2.63941
G1 X107.550 Y115.063 E2.64536
G1 X106.710 Y115.463 E2.65453
G1 X100.500 Y117.933 E2.72036
G1 X99.590 Y118.233 E2.72980
G1 X98.650 Y118.413 E2.73923
G1 X97.690 Y118.473 E2.74871
G1 X85.960 Y118.473 E2.86426
G1 X84.700 Y118.363 E2.87672
G1 X61.770 Y114.513 E3.10576
G1 X60.930 Y114.293 E3.11432
G1 X60.130 Y113.973 E3.12280
G1 X59.610 Y113.713 E3.12853
G1 X59.120 Y113.413 E3.13419
G1 X58.650 Y113.073 E3.13991
G1 X58.420 Y112.893 E3.14278
G1 X57.790 Y112.303 E3.15129
G1 X57.230 Y111.643 E3.15981
G1 X56.900 Y111.163 E3.16555
G1 X56.480 Y110.413 E3.17402
G1 X56.240 Y109.883 E3.17975
G1 X55.970 Y109.063 E3.18825
G1 X55.840 Y108.503 E3.19392
G1 X55.750 Y107.923 E3.19970
G1 X55.710 Y107.353 E3.20533
G1 X55.700 Y62.343 E3.64872
G1 X55.720 Y61.773 E3.65434
G1 X55.840 Y60.923 E3.66280
G1 X56.050 Y60.083 E3.67133
G1 X56.240 Y59.543 E3.67696
G1 X56.600 Y58.763 E3.68543
G1 X56.880 Y58.273 E3.69099
G1 X57.380 Y57.573 E3.69946
G1 X57.927 Y56.968 E3.70749
G1 X57.960 Y56.933 E3.70797
G1 X58.100 Y57.253 F9000.000
G1 X58.500 Y56.863 F1800.000 E3.71347
G1 X58.940 Y56.513 E3.71901
G1 X59.170 Y56.343 E3.72183
G1 X59.890 Y55.913 E3.73009
G1 X60.660 Y55.553 E3.73846
G1 X61.460 Y55.293 E3.74675
G1 X62.010 Y55.173 E3.75230
G1 X84.940 Y51.933 E3.98042
G1 X85.960 Y51.853 E3.99050
G1 X97.690 Y51.853 E4.10605
G1 X98.600 Y51.913 E4.11504
G1 X99.210 Y52.013 E4.12113
G1 X100.090 Y52.263 E4.13014
G1 X106.580 Y54.833 E4.19890
G1 X107.490 Y55.263 E4.20882
G1 X108.020 Y55.563 E4.21482
G1 X108.610 Y55.933 E4.22168
G1 X109.110 Y56.283 E4.22769
G1 X109.960 Y56.983 E4.23854
G1 X110.400 Y57.403 E4.24453
G1 X110.990 Y58.033 E4.25303
G1 X111.370 Y58.493 E4.25891
G1 X111.850 Y59.143 E4.26687
G1 X112.190 Y59.663 E4.27299
G1 X112.680 Y60.543 E4.28291
G1 X112.940 Y61.093 E4.28890
G1 X113.270 Y61.933 E4.29779
G1 X113.460 Y62.513 E4.30381
G1 X113.710 Y63.473 E4.31358
G1 X113.820 Y64.073 E4.31959
G1 X113.920 Y64.893 E4.32772
G1 X113.980 Y65.973 E4.33838
G1 X113.980 Y104.013 E4.71311
G1 X113.920 Y105.093 E4.72377
G1 X113.820 Y105.913 E4.73190
G1 X113.710 Y106.513 E4.73791
G1 X113.460 Y107.473 E4.74769
G1 X113.270 Y108.053 E4.75370
G1 X112.940 Y108.893 E4.76259
G1 X112.680 Y109.443 E4.76858
G1 X112.220 Y110.263 E4.77784
G1 X111.880 Y110.793 E4.78405
G1 X111.370 Y111.503 E4.79266
G1 X110.990 Y111.963 E4.79854
G1 X110.400 Y112.593 E4.80704
G1 X109.960 Y113.013 E4.81303
G1 X109.190 Y113.653 E4.82289
G1 X108.690 Y114.013 E4.82896
G1 X107.930 Y114.493 E4.83782
G1 X107.400 Y114.783 E4.84377
G1 X106.590 Y115.163 E4.85258
G1 X100.100 Y117.743 E4.92138
G1 X99.210 Y117.983 E4.93046
G1 X98.610 Y118.093 E4.93647
G1 X97.690 Y118.153 E4.94555
G1 X85.960 Y118.153 E5.06111
G1 X84.750 Y118.043 E5.07308
G1 X61.830 Y114.193 E5.30202
G1 X61.550 Y114.133 E5.30484
G1 X61.000 Y113.973 E5.31049
G1 X60.470 Y113.773 E5.31607
G1 X59.960 Y113.533 E5.32162
G1 X59.460 Y113.253 E5.32727
G1 X58.990 Y112.933 E5.33287
G1 X58.550 Y112.573 E5.33847
G1 X58.130 Y112.193 E5.34405
G1 X57.570 Y111.553 E5.35242
G1 X57.080 Y110.843 E5.36092
G1 X56.810 Y110.353 E5.36643
G1 X56.570 Y109.833 E5.37207
G1 X56.290 Y109.033 E5.38042
G1 X56.160 Y108.473 E5.38609
G1 X56.070 Y107.913 E5.39167
G1 X56.020 Y107.063 E5.40006
G1 X56.030 Y62.063 E5.84336
G1 X56.070 Y61.503 E5.84889
G1 X56.220 Y60.673 E5.85720
G1 X56.370 Y60.123 E5.86281
G1 X56.670 Y59.333 E5.87114
G1 X56.930 Y58.833 E5.87669
G1 X57.370 Y58.123 E5.88492
G1 X57.720 Y57.673 E5.89053
G1 X58.067 Y57.288 E5.89564
G1 X58.100 Y57.253 E5.89611
G1 X58.430 Y57.373 F9000.000
G1 X58.840 Y57.003 F1800.000 E5.90155
G1 X59.280 Y56.663 E5.90703
G1 X59.980 Y56.223 E5.91518
G1 X60.230 Y56.093 E5.91795
G1 X60.990 Y55.773 E5.92607
G1 X61.790 Y55.543 E5.93427
G1 X62.340 Y55.443 E5.93978
G1 X84.990 Y52.243 E6.16512
G1 X85.960 Y52.183 E6.17470
G1 X98.020 Y52.183 E6.29350
G1 X99.000 Y52.303 E6.30322
G1 X99.630 Y52.453 E6.30960
G1 X99.950 Y52.553 E6.31291
G1 X106.460 Y55.133 E6.38189
G1 X107.330 Y55.543 E6.39136
G1 X107.860 Y55.843 E6.39736
G1 X108.420 Y56.193 E6.40387
G1 X108.920 Y56.543 E6.40988
G1 X109.740 Y57.213 E6.42031
G1 X110.180 Y57.633 E6.42630
G1 X110.740 Y58.233 E6.43439
G1 X111.120 Y58.693 E6.44027
G1 X111.580 Y59.323 E6.44795
G1 X111.920 Y59.843 E6.45407
G1 X112.390 Y60.673 E6.46347
G1 X112.650 Y61.223 E6.46946
G1 X112.970 Y62.033 E6.47804
G1 X113.160 Y62.613 E6.48405
G1 X113.390 Y63.523 E6.49330
G1 X113.500 Y64.123 E6.49931
G1 X113.600 Y64.913 E6.50715
G1 X113.650 Y65.973 E6.51761
G1 X113.650 Y104.013 E6.89234
G1 X113.600 Y105.073 E6.90279
G1 X113.500 Y105.863 E6.91064
G1 X113.390 Y106.463 E6.91664
G1 X113.160 Y107.373 E6.92589
G1 X112.970 Y107.953 E6.93190
G1 X112.650 Y108.763 E6.94048
G1 X112.390 Y109.313 E6.94648
G1 X111.950 Y110.093 E6.95530
G1 X111.610 Y110.623 E6.96150
G1 X111.120 Y111.303 E6.96976
G1 X110.740 Y111.763 E6.97563
G1 X110.180 Y112.363 E6.98372
G1 X109.740 Y112.783 E6.98971
G1 X109.000 Y113.393 E6.99916
G1 X108.500 Y113.753 E7.00523
G1 X107.770 Y114.213 E7.01373
G1 X107.240 Y114.503 E7.01968
G1 X106.470 Y114.863 E7.02805
G1 X100.260 Y117.333 E7.09389
G1 X99.640 Y117.553 E7.10037
G1 X99.320 Y117.633 E7.10362
G1 X98.680 Y117.753 E7.11003
G1 X98.020 Y117.823 E7.11657
G1 X85.960 Y117.823 E7.23537
G1 X84.810 Y117.733 E7.24674
G1 X61.890 Y113.883 E7.47569
G1 X61.100 Y113.673 E7.48374
G1 X60.350 Y113.363 E7.49173
G1 X59.870 Y113.113 E7.49706
G1 X59.400 Y112.833 E7.50245
G1 X59.180 Y112.673 E7.50513
G1 X58.560 Y112.153 E7.51310
G1 X58.170 Y111.763 E7.51854
G1 X57.820 Y111.353 E7.52385
G1 X57.500 Y110.913 E7.52921
G1 X57.220 Y110.443 E7.53460
G1 X56.870 Y109.713 E7.54257
G1 X56.600 Y108.943 E7.55061
G1 X56.480 Y108.413 E7.55596
G1 X56.390 Y107.873 E7.56136
G1 X56.350 Y107.333 E7.56669
G1 X56.350 Y62.063 E8.01264
G1 X56.430 Y61.243 E8.02076
G1 X56.540 Y60.703 E8.02619
G1 X56.690 Y60.163 E8.03171
G1 X57.000 Y59.393 E8.03989
G1 X57.250 Y58.903 E8.04531
G1 X57.710 Y58.203 E8.05356
G1 X58.050 Y57.773 E8.05896
G1 X58.397 Y57.408 E8.06392
G1 X58.430 Y57.373 E8.06439
G1 X58.570 Y57.683 F9000.000
G1 X59.180 Y57.143 F1800.000 E8.07242
G1 X59.840 Y56.673 E8.08040
G1 X60.560 Y56.293 E8.08842
G1 X61.320 Y56.003 E8.09643
G1 X61.850 Y55.863 E8.10183
G1 X62.380 Y55.763 E8.10715
G1 X85.030 Y52.563 E8.33249
G1 X85.960 Y52.503 E8.34167
G1 X98.000 Y52.503 E8.46027
G1 X98.630 Y52.563 E8.46651
G1 X99.240 Y52.683 E8.47263
G1 X99.540 Y52.763 E8.47569
G1 X100.140 Y52.963 E8.48192
G1 X106.350 Y55.423 E8.54772
G1 X107.170 Y55.823 E8.55671
G1 X107.700 Y56.123 E8.56271
G1 X108.240 Y56.463 E8.56899
G1 X108.740 Y56.813 E8.57500
G1 X109.520 Y57.453 E8.58494
G1 X109.960 Y57.873 E8.59094
G1 X110.490 Y58.443 E8.59860
G1 X110.870 Y58.903 E8.60448
G1 X111.310 Y59.493 E8.61173
G1 X111.650 Y60.013 E8.61785
G1 X112.100 Y60.813 E8.62689
G1 X112.360 Y61.363 E8.63289
G1 X112.660 Y62.133 E8.64103
G1 X112.850 Y62.713 E8.64704
G1 X113.070 Y63.583 E8.65588
G1 X113.180 Y64.183 E8.66189
G1 X113.280 Y64.933 E8.66934
G1 X113.330 Y65.973 E8.67960
G1 X113.320 Y104.463 E9.05876
G1 X113.280 Y105.053 E9.06459
G1 X113.180 Y105.803 E9.07204
G1 X113.070 Y106.403 E9.07805
G1 X112.850 Y107.273 E9.08689
G1 X112.660 Y107.853 E9.09290
G1 X112.360 Y108.623 E9.10104
G1 X112.100 Y109.173 E9.10704
G1 X111.680 Y109.923 E9.11551
G1 X111.340 Y110.453 E9.12171
G1 X110.870 Y111.093 E9.12953
G1 X110.490 Y111.553 E9.13541
G1 X109.960 Y112.123 E9.14308
G1 X109.520 Y112.543 E9.14907
G1 X108.810 Y113.133 E9.15816
G1 X108.310 Y113.493 E9.16423
G1 X107.620 Y113.933 E9.17229
G1 X107.090 Y114.223 E9.17824
G1 X106.360 Y114.563 E9.18618
G1 X99.850 Y117.143 E9.25516
G1 X99.250 Y117.323 E9.26133
G1 X98.630 Y117.443 E9.26755
G1 X98.000 Y117.503 E9.27379
G1 X85.960 Y117.503 E9.39239
G1 X84.860 Y117.413 E9.40326
G1 X61.950 Y113.563 E9.63211
G1 X61.180 Y113.353 E9.63998
G1 X60.680 Y113.163 E9.64525
G1 X60.200 Y112.933 E9.65049
G1 X59.740 Y112.663 E9.65574
G1 X59.300 Y112.363 E9.66099
G1 X58.690 Y111.843 E9.66889
G1 X58.150 Y111.253 E9.67676
G1 X57.830 Y110.823 E9.68204
G1 X57.550 Y110.373 E9.68727
G1 X57.300 Y109.903 E9.69251
G1 X57.010 Y109.163 E9.70034
G1 X56.860 Y108.643 E9.70567
G1 X56.750 Y108.123 E9.71091
G1 X56.670 Y107.333 E9.71873
G1 X56.670 Y62.073 E10.16458
G1 X56.720 Y61.533 E10.16993
G1 X56.810 Y60.993 E10.17532
G1 X57.020 Y60.213 E10.18328
G1 X57.210 Y59.703 E10.18864
G1 X57.450 Y59.213 E10.19401
G1 X57.730 Y58.743 E10.19940
G1 X58.040 Y58.303 E10.20470
G1 X58.538 Y57.719 E10.21226
G1 X58.570 Y57.683 E10.21274
G1 X58.900 Y57.813 F9000.000
G1 X59.300 Y57.453 F1800.000 E10.21804
G1 X59.720 Y57.133 E10.22324
G1 X60.410 Y56.723 E10.23115
G1 X61.140 Y56.403 E10.23900
G1 X61.640 Y56.243 E10.24417
G1 X62.160 Y56.123 E10.24943
G1 X85.080 Y52.883 E10.47746
G1 X85.960 Y52.823 E10.48615
G1 X97.690 Y52.823 E10.60170
G1 X98.580 Y52.883 E10.61049
G1 X99.170 Y52.993 E10.61640
G1 X99.740 Y53.163 E10.62226
G1 X106.230 Y55.723 E10.69099
G1 X107.010 Y56.103 E10.69953
G1 X107.540 Y56.403 E10.70553
G1 X108.060 Y56.723 E10.71155
G1 X108.560 Y57.073 E10.71756
G1 X109.290 Y57.683 E10.72693
G1 X109.730 Y58.103 E10.73292
G1 X110.240 Y58.643 E10.74024
G1 X110.620 Y59.103 E10.74612
G1 X111.040 Y59.673 E10.75309
G1 X111.380 Y60.193 E10.75921
G1 X111.800 Y60.953 E10.76777
G1 X112.060 Y61.503 E10.77376
G1 X112.360 Y62.233 E10.78153
G1 X112.550 Y62.813 E10.78755
G1 X112.760 Y63.643 E10.79598
G1 X112.870 Y64.243 E10.80199
G1 X112.960 Y64.953 E10.80904
G1 X113.000 Y65.543 E10.81486
G1 X113.010 Y104.013 E11.19383
G1 X112.960 Y105.033 E11.20389
G1 X112.870 Y105.743 E11.21094
G1 X112.760 Y106.343 E11.21695
G1 X112.550 Y107.173 E11.22539
G1 X112.360 Y107.753 E11.23140
G1 X112.060 Y108.483 E11.23917
G1 X111.800 Y109.033 E11.24517
G1 X111.410 Y109.743 E11.25315
G1 X111.070 Y110.273 E11.25935
G1 X110.620 Y110.893 E11.26689
G1 X110.240 Y111.353 E11.27277
G1 X109.730 Y111.893 E11.28009
G1 X109.290 Y112.313 E11.28608
G1 X108.620 Y112.873 E11.29468
G1 X108.120 Y113.233 E11.30075
G1 X107.460 Y113.653 E11.30846
G1 X106.930 Y113.943 E11.31441
G1 X106.240 Y114.263 E11.32190
G1 X100.030 Y116.733 E11.38774
G1 X99.750 Y116.843 E11.39070
G1 X99.170 Y117.013 E11.39666
G1 X98.580 Y117.123 E11.40257
G1 X97.690 Y117.183 E11.41136
G1 X85.960 Y117.183 E11.52691
G1 X84.910 Y117.093 E11.53729
G1 X62.010 Y113.253 E11.76603
G1 X61.500 Y113.123 E11.77121
G1 X61.010 Y112.953 E11.77632
G1 X60.530 Y112.743 E11.78148
G1 X60.070 Y112.493 E11.78664
G1 X59.420 Y112.053 E11.79437
G1 X59.030 Y111.713 E11.79947
G1 X58.660 Y111.343 E11.80462
G1 X58.320 Y110.943 E11.80979
G1 X58.020 Y110.523 E11.81488
G1 X57.750 Y110.073 E11.82005
G1 X57.420 Y109.363 E11.82776
G1 X57.250 Y108.863 E11.83296
G1 X57.120 Y108.363 E11.83805
G1 X57.070 Y108.103 E11.84066
G1 X56.990 Y107.323 E11.84839
G1 X56.990 Y62.073 E12.29414
G1 X57.040 Y61.543 E12.29939
G1 X57.190 Y60.763 E12.30721
G1 X57.340 Y60.253 E12.31245
G1 X57.540 Y59.763 E12.31766
G1 X57.780 Y59.283 E12.32295
G1 X58.050 Y58.833 E12.32812
G1 X58.540 Y58.193 E12.33606
G1 X58.867 Y57.848 E12.34074
G1 X58.900 Y57.813 E12.34121
G1 F1500.000 E10.84121
G92 E0
G1 X99.948 Y64.630 F9000.000
G1 F1500.000 E1.50000
G1 X100.135 Y64.405 F1800.000 E1.50288
G1 X100.348 Y64.204 E1.50576
G1 X100.585 Y64.032 E1.50865
G1 X100.841 Y63.891 E1.51153
G1 X101.113 Y63.784 E1.51441
G1 X101.397 Y63.711 E1.51730
G1 X101.631 Y63.681 E1.51962
G1 X101.980 Y63.674 E1.52306
G1 X102.270 Y63.711 E1.52594
G1 X102.553 Y63.784 E1.52882
G1 X102.826 Y63.891 E1.53171
G1 X103.082 Y64.032 E1.53459
G1 X103.319 Y64.204 E1.53747
G1 X103.532 Y64.405 E1.54036
G1 X103.682 Y64.586 E1.54268
G1 X103.876 Y64.877 E1.54612
G1 X104.000 Y65.142 E1.54900
G1 X104.091 Y65.421 E1.55188
G1 X104.145 Y65.708 E1.55476
G1 X104.164 Y66.000 E1.55765
G1 X104.145 Y66.292 E1.56053
G1 X104.091 Y66.579 E1.56341
G1 X104.000 Y66.858 E1.56630
G1 X103.876 Y67.123 E1.56918
G1 X103.719 Y67.370 E1.57206
G1 X103.532 Y67.595 E1.57494
G1 X103.319 Y67.796 E1.57783
G1 X103.082 Y67.968 E1.58071
G1 X102.825 Y68.109 E1.58360
G1 X102.554 Y68.216 E1.58648
G1 X102.270 Y68.289 E1.58936
G1 X101.980 Y68.326 E1.59224
G1 X101.687 Y68.326 E1.59513
G1 X101.397 Y68.289 E1.59801
G1 X101.113 Y68.216 E1.60089
G1 X100.841 Y68.109 E1.60378
G1 X100.585 Y67.968 E1.60666
G1 X100.348 Y67.796 E1.60954
G1 X100.135 Y67.595 E1.61242
G1 X99.948 Y67.370 E1.61531
G1 X99.791 Y67.123 E1.61819
G1 X99.667 Y66.858 E1.62107
G1 X99.576 Y66.579 E1.62396
G1 X99.521 Y66.292 E1.62684
G1 X99.503 Y66.000 E1.62972
G1 X99.521 Y65.708 E1.63261
G1 X99.576 Y65.421 E1.63549
G1 X99.667 Y65.142 E1.63837
G1 X99.791 Y64.877 E1.64126
G1 X99.922 Y64.671 E1.64367
G1 X99.948 Y64.630 E1.64414
G1 X100.209 Y64.819 F9000.000
G1 X100.369 Y64.625 F1800.000 E1.64662
G1 X100.553 Y64.453 E1.64911
G1 X100.757 Y64.304 E1.65159
G1 X100.978 Y64.183 E1.65408
G1 X101.213 Y64.090 E1.65656
G1 X101.457 Y64.027 E1.65905
G1 X101.671 Y64.000 E1.66117
G1 X101.959 Y63.996 E1.66401
G1 X102.210 Y64.027 E1.66650
G1 X102.454 Y64.090 E1.66898
G1 X102.688 Y64.183 E1.67147
G1 X102.910 Y64.304 E1.67395
G1 X103.114 Y64.452 E1.67644
G1 X103.298 Y64.625 E1.67892
G1 X103.435 Y64.791 E1.68104
G1 X103.593 Y65.032 E1.68389
G1 X103.701 Y65.261 E1.68637
G1 X103.779 Y65.501 E1.68886
G1 X103.826 Y65.748 E1.69134
G1 X103.842 Y66.000 E1.69383
G1 X103.826 Y66.252 E1.69631
G1 X103.779 Y66.499 E1.69880
G1 X103.701 Y66.739 E1.70128
G1 X103.593 Y66.968 E1.70377
