; generated by Slic3r 0.9.8 on 2013-09-29 at 11:43:35

; layer_height = 0.25
; perimeters = 3
; top_solid_layers = 3
; bottom_solid_layers = 3
; fill_density = 1
; perimeter_speed = 20
; infill_speed = 20
; travel_speed = 100
; scale = 1
; nozzle_diameter = 0.5
; filament_diameter = 2.9
; extrusion_multiplier = 0.81
; perimeters extrusion width = 0.35mm
; infill extrusion width = 0.25mm
; first layer extrusion width = 0.27mm

M107
M190 S70 ; wait for bed temperature to be reached
M104 S225 ; set temperature
G28 ; home all axes
M109 S225 ; wait for temperature to be reached
G90 ; use absolute coordinates
G21 ; set units to millimeters
G92 E0
M82 ; use absolute distances for extrusion
G1 F1800.000 E-2.00000
G92 E0
G1 Z0.250 F6000.000
G1 X84.640 Y84.545
G1 F1800.000 E2.00000
G1 X84.040 Y85.115 F1200.000 E2.00805
G1 X83.300 Y85.735 E2.01745
G1 X82.700 Y86.175 E2.02469
G1 X81.840 Y86.715 E2.03457
G1 X81.180 Y87.075 E2.04188
G1 X80.370 Y87.455 E2.05059
G1 X79.670 Y87.735 E2.05793
G1 X78.760 Y88.035 E2.06725
G1 X78.030 Y88.225 E2.07459
G1 X77.020 Y88.415 E2.08459
G1 X76.270 Y88.505 E2.09194
G1 X75.370 Y88.565 E2.10072
G1 X74.620 Y88.565 E2.10801
G1 X73.720 Y88.505 E2.11679
G1 X72.970 Y88.415 E2.12414
G1 X71.960 Y88.225 E2.13414
G1 X71.230 Y88.035 E2.14148
G1 X70.320 Y87.735 E2.15081
G1 X69.620 Y87.455 E2.15814
G1 X68.810 Y87.075 E2.16685
G1 X68.150 Y86.715 E2.17416
G1 X67.290 Y86.175 E2.18404
G1 X66.690 Y85.735 E2.19128
G1 X65.970 Y85.125 E2.20047
G1 X65.420 Y84.605 E2.20783
G1 X64.790 Y83.935 E2.21678
G1 X64.310 Y83.355 E2.22411
G1 X63.740 Y82.585 E2.23343
G1 X63.340 Y81.955 E2.24069
G1 X62.920 Y81.195 E2.24914
G1 X62.590 Y80.515 E2.25649
G1 X62.190 Y79.515 E2.26697
G1 X61.960 Y78.795 E2.27433
G1 X61.740 Y77.935 E2.28297
G1 X61.610 Y77.265 E2.28961
G1 X61.490 Y76.365 E2.29844
G1 X61.430 Y75.545 E2.30644
G1 X61.430 Y74.495 E2.31666
G1 X61.480 Y73.745 E2.32398
G1 X61.600 Y72.835 E2.33291
G1 X61.740 Y72.095 E2.34024
G1 X61.960 Y71.195 E2.34925
G1 X62.190 Y70.475 E2.35661
G1 X62.590 Y69.475 E2.36709
G1 X62.920 Y68.795 E2.37444
G1 X63.340 Y68.035 E2.38289
G1 X63.740 Y67.405 E2.39015
G1 X64.310 Y66.635 E2.39947
G1 X64.790 Y66.055 E2.40680
G1 X65.420 Y65.385 E2.41575
G1 X65.970 Y64.865 E2.42311
G1 X66.720 Y64.235 E2.43264
G1 X67.270 Y63.835 E2.43926
G1 X68.010 Y63.365 E2.44779
G1 X68.720 Y62.965 E2.45572
G1 X69.620 Y62.535 E2.46543
G1 X70.320 Y62.255 E2.47276
G1 X71.320 Y61.925 E2.48301
G1 X72.050 Y61.745 E2.49033
G1 X72.870 Y61.595 E2.49844
G1 X73.620 Y61.495 E2.50580
G1 X74.620 Y61.425 E2.51555
G1 X75.370 Y61.425 E2.52285
G1 X76.370 Y61.495 E2.53261
G1 X77.120 Y61.595 E2.53997
G1 X77.940 Y61.745 E2.54808
G1 X78.670 Y61.925 E2.55540
G1 X79.670 Y62.255 E2.56564
G1 X80.370 Y62.535 E2.57298
G1 X81.180 Y62.915 E2.58169
G1 X81.840 Y63.275 E2.58900
G1 X82.700 Y63.815 E2.59888
G1 X83.300 Y64.255 E2.60612
G1 X84.020 Y64.865 E2.61530
G1 X84.570 Y65.385 E2.62267
G1 X85.150 Y65.995 E2.63086
G1 X85.590 Y66.515 E2.63749
G1 X86.200 Y67.335 E2.64743
G1 X86.640 Y68.025 E2.65540
G1 X87.070 Y68.795 E2.66398
G1 X87.400 Y69.475 E2.67133
G1 X87.800 Y70.475 E2.68181
G1 X88.030 Y71.195 E2.68917
G1 X88.250 Y72.095 E2.69818
G1 X88.390 Y72.835 E2.70551
G1 X88.510 Y73.745 E2.71444
G1 X88.560 Y74.495 E2.72176
G1 X88.560 Y75.495 E2.73149
G1 X88.510 Y76.245 E2.73880
G1 X88.390 Y77.155 E2.74773
G1 X88.250 Y77.895 E2.75506
G1 X88.030 Y78.795 E2.76408
G1 X87.800 Y79.515 E2.77143
G1 X87.400 Y80.515 E2.78191
G1 X87.070 Y81.195 E2.78927
G1 X86.650 Y81.955 E2.79772
G1 X86.250 Y82.585 E2.80498
G1 X85.730 Y83.295 E2.81354
G1 X85.300 Y83.825 E2.82018
G1 X84.672 Y84.510 E2.82922
G1 X84.640 Y84.545 E2.82969
G1 X84.420 Y84.315 F6000.000
G4 P21
G1 X83.820 Y84.885 F1200.000 E2.83774
G1 X83.110 Y85.475 E2.84672
G1 X82.510 Y85.915 E2.85396
G1 X81.690 Y86.435 E2.86341
G1 X81.030 Y86.795 E2.87073
G1 X80.250 Y87.165 E2.87913
G1 X79.550 Y87.445 E2.88646
G1 X78.680 Y87.735 E2.89539
G1 X77.950 Y87.925 E2.90273
G1 X76.990 Y88.105 E2.91223
G1 X76.240 Y88.195 E2.91958
G1 X75.370 Y88.245 E2.92806
G1 X74.620 Y88.245 E2.93536
G1 X73.750 Y88.195 E2.94384
G1 X73.000 Y88.105 E2.95119
G1 X72.040 Y87.925 E2.96069
G1 X71.310 Y87.735 E2.96803
G1 X70.440 Y87.445 E2.97696
G1 X69.740 Y87.165 E2.98429
G1 X68.960 Y86.795 E2.99269
G1 X68.300 Y86.435 E3.00001
G1 X67.480 Y85.915 E3.00946
G1 X66.880 Y85.475 E3.01670
G1 X66.190 Y84.895 E3.02547
G1 X65.640 Y84.375 E3.03283
G1 X65.030 Y83.725 E3.04151
G1 X64.550 Y83.145 E3.04883
G1 X64.010 Y82.415 E3.05767
G1 X63.610 Y81.785 E3.06493
G1 X63.210 Y81.055 E3.07303
G1 X62.880 Y80.375 E3.08038
G1 X62.500 Y79.415 E3.09043
G1 X62.270 Y78.695 E3.09778
G1 X62.050 Y77.865 E3.10614
G1 X61.920 Y77.195 E3.11278
G1 X61.810 Y76.345 E3.12112
G1 X61.750 Y75.525 E3.12912
G1 X61.750 Y74.515 E3.13895
G1 X61.800 Y73.765 E3.14626
G1 X61.910 Y72.895 E3.15480
G1 X62.050 Y72.155 E3.16212
G1 X62.270 Y71.295 E3.17076
G1 X62.500 Y70.575 E3.17812
G1 X62.880 Y69.615 E3.18816
G1 X63.210 Y68.935 E3.19552
G1 X63.610 Y68.205 E3.20362
G1 X64.010 Y67.575 E3.21088
G1 X64.550 Y66.845 E3.21972
G1 X65.030 Y66.265 E3.22704
G1 X65.640 Y65.615 E3.23572
G1 X66.190 Y65.095 E3.24308
G1 X66.900 Y64.495 E3.25213
G1 X67.450 Y64.095 E3.25874
G1 X68.160 Y63.645 E3.26692
G1 X68.870 Y63.245 E3.27485
G1 X69.740 Y62.825 E3.28425
G1 X70.440 Y62.545 E3.29159
G1 X71.400 Y62.235 E3.30141
G1 X72.130 Y62.055 E3.30872
G1 X72.910 Y61.905 E3.31645
G1 X73.660 Y61.805 E3.32381
G1 X74.620 Y61.745 E3.33317
G1 X75.370 Y61.745 E3.34047
G1 X76.330 Y61.805 E3.34983
G1 X77.080 Y61.905 E3.35719
G1 X77.860 Y62.055 E3.36492
G1 X78.590 Y62.235 E3.37224
G1 X79.550 Y62.545 E3.38205
G1 X80.250 Y62.825 E3.38939
G1 X81.030 Y63.195 E3.39779
G1 X81.690 Y63.555 E3.40511
G1 X82.510 Y64.075 E3.41455
G1 X83.110 Y64.515 E3.42179
G1 X83.800 Y65.095 E3.43057
G1 X84.350 Y65.615 E3.43793
G1 X84.910 Y66.195 E3.44578
G1 X85.350 Y66.715 E3.45240
G1 X85.930 Y67.505 E3.46194
G1 X86.370 Y68.195 E3.46990
G1 X86.780 Y68.935 E3.47814
G1 X87.110 Y69.615 E3.48549
G1 X87.490 Y70.575 E3.49554
G1 X87.720 Y71.295 E3.50289
G1 X87.940 Y72.155 E3.51153
G1 X88.080 Y72.895 E3.51886
G1 X88.190 Y73.765 E3.52739
G1 X88.240 Y74.515 E3.53470
G1 X88.240 Y75.475 E3.54405
G1 X88.190 Y76.225 E3.55136
G1 X88.080 Y77.095 E3.55989
G1 X87.940 Y77.835 E3.56722
G1 X87.720 Y78.695 E3.57586
G1 X87.490 Y79.415 E3.58321
G1 X87.110 Y80.375 E3.59326
G1 X86.780 Y81.055 E3.60062
G1 X86.380 Y81.785 E3.60872
G1 X85.980 Y82.415 E3.61598
G1 X85.490 Y83.095 E3.62413
G1 X85.060 Y83.625 E3.63077
G1 X84.452 Y84.280 E3.63947
G1 X84.420 Y84.315 E3.63993
G1 X84.200 Y84.085 F6000.000
G4 P21
G1 X83.600 Y84.655 F1200.000 E3.64798
G1 X82.920 Y85.225 E3.65662
G1 X82.320 Y85.665 E3.66386
G1 X81.540 Y86.155 E3.67282
G1 X80.880 Y86.515 E3.68014
G1 X80.130 Y86.865 E3.68819
G1 X79.430 Y87.145 E3.69553
G1 X78.600 Y87.425 E3.70405
G1 X77.870 Y87.615 E3.71139
G1 X76.950 Y87.785 E3.72049
G1 X76.200 Y87.875 E3.72784
G1 X75.370 Y87.925 E3.73593
G1 X74.620 Y87.925 E3.74323
G1 X73.790 Y87.875 E3.75132
G1 X73.040 Y87.785 E3.75867
G1 X72.120 Y87.615 E3.76778
G1 X71.390 Y87.425 E3.77512
G1 X70.560 Y87.145 E3.78364
G1 X69.860 Y86.865 E3.79098
G1 X69.110 Y86.515 E3.79903
G1 X68.450 Y86.155 E3.80635
G1 X67.670 Y85.665 E3.81531
G1 X67.070 Y85.225 E3.82255
G1 X66.400 Y84.665 E3.83105
G1 X65.850 Y84.145 E3.83841
G1 X65.270 Y83.525 E3.84667
G1 X64.790 Y82.945 E3.85400
G1 X64.280 Y82.245 E3.86243
G1 X63.880 Y81.615 E3.86969
G1 X63.500 Y80.925 E3.87735
G1 X63.170 Y80.245 E3.88471
G1 X62.800 Y79.325 E3.89436
G1 X62.570 Y78.605 E3.90171
G1 X62.370 Y77.805 E3.90974
G1 X62.240 Y77.135 E3.91638
G1 X62.130 Y76.325 E3.92433
G1 X62.070 Y75.505 E3.93233
G1 X62.060 Y74.535 E3.94177
G1 X62.110 Y73.785 E3.94908
G1 X62.220 Y72.955 E3.95723
G1 X62.360 Y72.215 E3.96456
G1 X62.570 Y71.385 E3.97289
G1 X62.800 Y70.665 E3.98025
G1 X63.170 Y69.745 E3.98989
G1 X63.500 Y69.065 E3.99725
G1 X63.880 Y68.375 E4.00491
G1 X64.280 Y67.745 E4.01218
G1 X64.790 Y67.045 E4.02060
G1 X65.270 Y66.465 E4.02793
G1 X65.850 Y65.845 E4.03619
G1 X66.400 Y65.325 E4.04356
G1 X67.090 Y64.755 E4.05226
G1 X67.640 Y64.355 E4.05888
G1 X68.320 Y63.915 E4.06676
G1 X69.030 Y63.515 E4.07469
G1 X69.860 Y63.125 E4.08362
G1 X70.560 Y62.845 E4.09095
G1 X71.480 Y62.545 E4.10037
G1 X72.210 Y62.365 E4.10768
G1 X72.950 Y62.225 E4.11501
G1 X73.700 Y62.125 E4.12237
G1 X74.620 Y62.065 E4.13135
G1 X75.370 Y62.065 E4.13864
G1 X76.290 Y62.125 E4.14762
G1 X77.040 Y62.225 E4.15498
G1 X77.780 Y62.365 E4.16231
G1 X78.510 Y62.545 E4.16962
G1 X79.430 Y62.845 E4.17904
G1 X80.130 Y63.125 E4.18637
G1 X80.880 Y63.475 E4.19443
G1 X81.540 Y63.835 E4.20174
G1 X82.320 Y64.325 E4.21071
G1 X82.920 Y64.765 E4.21795
G1 X83.590 Y65.325 E4.22644
G1 X84.140 Y65.845 E4.23381
G1 X84.670 Y66.405 E4.24131
G1 X85.110 Y66.925 E4.24794
G1 X85.660 Y67.675 E4.25699
G1 X86.100 Y68.365 E4.26495
G1 X86.490 Y69.065 E4.27275
G1 X86.820 Y69.745 E4.28010
G1 X87.190 Y70.665 E4.28975
G1 X87.420 Y71.385 E4.29711
G1 X87.630 Y72.215 E4.30544
G1 X87.770 Y72.955 E4.31277
G1 X87.880 Y73.785 E4.32091
G1 X87.930 Y74.535 E4.32823
G1 X87.930 Y75.455 E4.33718
G1 X87.880 Y76.205 E4.34449
G1 X87.770 Y77.035 E4.35264
G1 X87.630 Y77.775 E4.35997
G1 X87.420 Y78.605 E4.36830
G1 X87.190 Y79.325 E4.37566
G1 X86.820 Y80.245 E4.38531
G1 X86.490 Y80.925 E4.39266
G1 X86.110 Y81.615 E4.40032
G1 X85.710 Y82.245 E4.40759
G1 X85.240 Y82.895 E4.41539
G1 X84.810 Y83.425 E4.42203
G1 X84.232 Y84.050 E4.43031
G1 X84.200 Y84.085 E4.43078
G1 X83.980 Y83.855 F6000.000
G4 P21
G1 X83.380 Y84.425 F1200.000 E4.43883
G1 X82.730 Y84.965 E4.44705
G1 X82.130 Y85.405 E4.45429
G1 X81.390 Y85.875 E4.46282
G1 X80.730 Y86.235 E4.47014
G1 X80.010 Y86.575 E4.47789
G1 X79.310 Y86.855 E4.48522
G1 X78.520 Y87.115 E4.49332
G1 X77.790 Y87.305 E4.50066
G1 X76.910 Y87.475 E4.50938
G1 X76.160 Y87.565 E4.51673
G1 X75.370 Y87.605 E4.52442
G1 X74.620 Y87.605 E4.53172
G1 X73.830 Y87.565 E4.53942
G1 X73.080 Y87.475 E4.54677
G1 X72.200 Y87.305 E4.55549
G1 X71.470 Y87.115 E4.56283
G1 X70.680 Y86.855 E4.57092
G1 X69.980 Y86.575 E4.57826
G1 X69.260 Y86.235 E4.58601
G1 X68.600 Y85.875 E4.59332
G1 X67.860 Y85.405 E4.60185
G1 X67.260 Y84.965 E4.60909
G1 X66.620 Y84.435 E4.61718
G1 X66.070 Y83.915 E4.62454
G1 X65.520 Y83.325 E4.63239
G1 X65.040 Y82.745 E4.63972
G1 X64.550 Y82.075 E4.64780
G1 X64.150 Y81.445 E4.65506
G1 X63.780 Y80.785 E4.66242
G1 X63.450 Y80.105 E4.66977
G1 X63.100 Y79.225 E4.67899
G1 X62.870 Y78.505 E4.68634
G1 X62.680 Y77.745 E4.69397
G1 X62.550 Y77.075 E4.70061
G1 X62.440 Y76.295 E4.70827
G1 X62.380 Y75.475 E4.71627
G1 X62.380 Y74.555 E4.72523
G1 X62.430 Y73.805 E4.73254
G1 X62.530 Y73.015 E4.74029
G1 X62.670 Y72.275 E4.74762
G1 X62.870 Y71.485 E4.75555
G1 X63.100 Y70.765 E4.76290
G1 X63.450 Y69.885 E4.77212
G1 X63.780 Y69.205 E4.77947
G1 X64.150 Y68.545 E4.78683
G1 X64.550 Y67.915 E4.79410
G1 X65.040 Y67.245 E4.80217
G1 X65.520 Y66.665 E4.80950
G1 X66.070 Y66.075 E4.81735
G1 X66.620 Y65.555 E4.82471
G1 X67.280 Y65.005 E4.83307
G1 X67.830 Y64.605 E4.83969
G1 X68.470 Y64.195 E4.84709
G1 X69.180 Y63.795 E4.85502
G1 X69.980 Y63.415 E4.86363
G1 X70.680 Y63.135 E4.87097
G1 X71.550 Y62.855 E4.87986
G1 X72.280 Y62.675 E4.88718
G1 X72.990 Y62.535 E4.89422
G1 X73.740 Y62.435 E4.90158
G1 X74.620 Y62.385 E4.91016
G1 X75.370 Y62.385 E4.91746
G1 X76.250 Y62.435 E4.92603
G1 X77.000 Y62.535 E4.93340
G1 X77.710 Y62.675 E4.94044
G1 X78.440 Y62.855 E4.94775
G1 X79.310 Y63.135 E4.95665
G1 X80.010 Y63.415 E4.96398
G1 X80.730 Y63.755 E4.97173
G1 X81.390 Y64.115 E4.97905
G1 X82.130 Y64.585 E4.98758
G1 X82.730 Y65.025 E4.99482
G1 X83.370 Y65.555 E5.00290
G1 X83.920 Y66.075 E5.01027
G1 X84.420 Y66.605 E5.01736
G1 X84.860 Y67.125 E5.02399
G1 X85.390 Y67.845 E5.03269
G1 X85.830 Y68.535 E5.04065
G1 X86.210 Y69.205 E5.04814
G1 X86.540 Y69.885 E5.05550
G1 X86.890 Y70.765 E5.06471
G1 X87.120 Y71.485 E5.07207
G1 X87.320 Y72.275 E5.08000
G1 X87.460 Y73.015 E5.08733
G1 X87.560 Y73.805 E5.09508
G1 X87.610 Y74.555 E5.10239
G1 X87.610 Y75.435 E5.11095
G1 X87.560 Y76.185 E5.11827
G1 X87.460 Y76.975 E5.12602
G1 X87.320 Y77.715 E5.13334
G1 X87.120 Y78.505 E5.14127
G1 X86.890 Y79.225 E5.14863
G1 X86.540 Y80.105 E5.15784
G1 X86.210 Y80.785 E5.16520
G1 X85.840 Y81.445 E5.17256
G1 X85.440 Y82.075 E5.17982
G1 X84.990 Y82.695 E5.18728
G1 X84.560 Y83.225 E5.19392
G1 X84.012 Y83.820 E5.20179
G1 X83.980 Y83.855 E5.20225
G1 X83.760 Y83.625 F6000.000
G4 P21
G1 X83.160 Y84.195 F1200.000 E5.21030
G1 X82.550 Y84.705 E5.21804
G1 X81.950 Y85.145 E5.22528
G1 X81.240 Y85.605 E5.23351
G1 X80.580 Y85.965 E5.24083
G1 X79.900 Y86.285 E5.24814
G1 X79.200 Y86.565 E5.25548
G1 X78.440 Y86.805 E5.26323
G1 X77.710 Y86.995 E5.27057
G1 X76.870 Y87.155 E5.27889
G1 X76.120 Y87.245 E5.28624
G1 X75.370 Y87.295 E5.29356
G1 X74.620 Y87.295 E5.30086
G1 X73.870 Y87.245 E5.30817
G1 X73.120 Y87.155 E5.31552
G1 X72.280 Y86.995 E5.32384
G1 X71.550 Y86.805 E5.33118
G1 X70.790 Y86.565 E5.33894
G1 X70.090 Y86.285 E5.34627
G1 X69.410 Y85.965 E5.35358
G1 X68.750 Y85.605 E5.36090
G1 X68.040 Y85.145 E5.36913
G1 X67.440 Y84.705 E5.37637
G1 X66.840 Y84.205 E5.38397
G1 X66.290 Y83.685 E5.39134
G1 X65.760 Y83.125 E5.39884
G1 X65.280 Y82.545 E5.40617
G1 X64.820 Y81.905 E5.41383
G1 X64.420 Y81.275 E5.42110
G1 X64.070 Y80.645 E5.42811
G1 X63.740 Y79.965 E5.43546
G1 X63.400 Y79.125 E5.44428
G1 X63.170 Y78.405 E5.45164
G1 X62.990 Y77.685 E5.45886
G1 X62.860 Y77.015 E5.46550
G1 X62.760 Y76.275 E5.47276
G1 X62.700 Y75.455 E5.48077
G1 X62.700 Y74.575 E5.48933
G1 X62.750 Y73.825 E5.49664
G1 X62.840 Y73.075 E5.50399
G1 X62.980 Y72.335 E5.51132
G1 X63.170 Y71.585 E5.51885
G1 X63.400 Y70.865 E5.52620
G1 X63.740 Y70.025 E5.53502
G1 X64.070 Y69.345 E5.54238
G1 X64.420 Y68.715 E5.54939
G1 X64.820 Y68.085 E5.55665
G1 X65.280 Y67.445 E5.56432
G1 X65.760 Y66.865 E5.57165
G1 X66.290 Y66.305 E5.57915
G1 X66.840 Y65.785 E5.58651
G1 X67.460 Y65.265 E5.59439
G1 X68.010 Y64.865 E5.60101
G1 X68.630 Y64.475 E5.60813
G1 X69.340 Y64.075 E5.61606
G1 X70.090 Y63.705 E5.62420
G1 X70.790 Y63.425 E5.63154
G1 X71.630 Y63.165 E5.64009
G1 X72.360 Y62.985 E5.64741
G1 X73.040 Y62.855 E5.65415
G1 X73.790 Y62.755 E5.66151
G1 X74.620 Y62.695 E5.66961
G1 X75.370 Y62.695 E5.67690
G1 X76.200 Y62.755 E5.68500
G1 X76.950 Y62.855 E5.69236
G1 X77.630 Y62.985 E5.69910
G1 X78.360 Y63.165 E5.70642
G1 X79.200 Y63.425 E5.71497
G1 X79.900 Y63.705 E5.72231
G1 X80.580 Y64.025 E5.72962
G1 X81.240 Y64.385 E5.73694
G1 X81.950 Y64.845 E5.74517
G1 X82.550 Y65.285 E5.75241
G1 X83.150 Y65.785 E5.76001
G1 X83.700 Y66.305 E5.76737
G1 X84.180 Y66.815 E5.77419
G1 X84.620 Y67.335 E5.78082
G1 X85.130 Y68.015 E5.78909
G1 X85.570 Y68.705 E5.79705
G1 X85.920 Y69.345 E5.80415
G1 X86.250 Y70.025 E5.81150
G1 X86.590 Y70.865 E5.82032
G1 X86.820 Y71.585 E5.82768
G1 X87.010 Y72.335 E5.83520
G1 X87.150 Y73.075 E5.84253
G1 X87.240 Y73.825 E5.84988
G1 X87.290 Y74.575 E5.85720
G1 X87.290 Y75.415 E5.86537
G1 X87.240 Y76.165 E5.87269
G1 X87.150 Y76.915 E5.88004
G1 X87.010 Y77.655 E5.88736
G1 X86.820 Y78.405 E5.89489
G1 X86.590 Y79.125 E5.90225
G1 X86.250 Y79.965 E5.91107
G1 X85.920 Y80.645 E5.91842
G1 X85.570 Y81.275 E5.92543
G1 X85.170 Y81.905 E5.93269
G1 X84.750 Y82.495 E5.93974
G1 X84.320 Y83.025 E5.94638
G1 X83.792 Y83.590 E5.95391
G1 X83.760 Y83.625 E5.95437
M204 S1000
G1 F1800.000 E3.95437
G92 E0
G1 X74.534 Y71.754 F6000.000
G1 F1800.000 E2.00000
G1 X73.991 Y71.894 F1200.000 E2.00546
G1 X73.609 Y72.045 E2.00945
G1 X73.250 Y72.242 E2.01344
G1 X72.918 Y72.484 E2.01743
G1 X72.619 Y72.764 E2.02142
G1 X72.358 Y73.080 E2.02541
G1 X72.138 Y73.427 E2.02940
G1 X71.963 Y73.798 E2.03339
