; generated by Slic3r 0.9.8 on 2013-09-08 at 22:40:08

; layer_height = 0.25
; perimeters = 3
; top_solid_layers = 3
; bottom_solid_layers = 3
; fill_density = 0.3
; perimeter_speed = 60
; infill_speed = 60
; travel_speed = 120
; scale = 1
; nozzle_diameter = 0.5
; filament_diameter = 2.9
; extrusion_multiplier = 0.81
; perimeters extrusion width = 0.40mm
; infill extrusion width = 0.25mm
; first layer extrusion width = 0.25mm

M107
M190 S70 ; wait for bed temperature to be reached
M104 S225 ; set temperature
G28 ; home all axes
M109 S225 ; wait for temperature to be reached
G90 ; use absolute coordinates
G21 ; set units to millimeters
G92 E0
M82 ; use absolute distances for extrusion
G1 F1800.000 E-1.00000
G92 E0
G1 Z0.250 F7200.000
G1 X99.157 Y98.855
G1 F1800.000 E1.00000
G1 X98.898 Y99.345 F1800.000 E1.00516
G1 X98.597 Y99.815 E1.01035
G1 X98.438 Y100.045 E1.01296
G1 X98.088 Y100.475 E1.01812
G1 X97.698 Y100.875 E1.02332
G1 X97.287 Y101.245 E1.02847
G1 X96.608 Y101.735 E1.03627
G1 X94.428 Y103.005 E1.05976
G1 X94.157 Y103.155 E1.06263
G1 X93.608 Y103.405 E1.06825
G1 X93.037 Y103.614 E1.07391
G1 X92.458 Y103.775 E1.07951
G1 X91.858 Y103.875 E1.08517
G1 X91.257 Y103.924 E1.09078
G1 X58.728 Y103.924 E1.39361
G1 X58.118 Y103.875 E1.39930
G1 X57.518 Y103.765 E1.40498
G1 X56.938 Y103.614 E1.41056
G1 X56.368 Y103.405 E1.41622
G1 X55.818 Y103.144 E1.42188
G1 X55.548 Y102.995 E1.42475
G1 X53.368 Y101.725 E1.44824
G1 X52.698 Y101.235 E1.45597
G1 X52.088 Y100.665 E1.46374
G1 X51.728 Y100.255 E1.46882
G1 X51.388 Y99.805 E1.47407
G1 X51.238 Y99.575 E1.47663
G1 X50.958 Y99.095 E1.48180
G1 X50.838 Y98.845 E1.48438
G1 X50.618 Y98.335 E1.48955
G1 X50.528 Y98.075 E1.49211
G1 X50.318 Y97.275 E1.49981
G1 X50.198 Y96.445 E1.50762
G1 X50.178 Y96.174 E1.51014
G1 X50.178 Y70.695 E1.74734
G1 X50.238 Y69.794 E1.75573
G1 X50.338 Y69.195 E1.76140
G1 X50.498 Y68.615 E1.76700
G1 X50.708 Y68.055 E1.77257
G1 X51.098 Y67.234 E1.78102
G1 X61.028 Y50.035 E1.96591
G1 X61.488 Y49.345 E1.97363
G1 X62.128 Y48.555 E1.98309
G1 X62.648 Y48.055 E1.98981
G1 X62.928 Y47.825 E1.99318
G1 X63.508 Y47.395 E1.99990
G1 X63.938 Y47.115 E2.00468
G1 X64.218 Y46.955 E2.00768
G1 X64.818 Y46.675 E2.01384
G1 X65.627 Y46.375 E2.02188
G1 X65.907 Y46.295 E2.02460
G1 X66.478 Y46.165 E2.03004
G1 X67.058 Y46.075 E2.03550
G1 X67.998 Y46.015 E2.04427
G1 X81.988 Y46.015 E2.17451
G1 X82.847 Y46.055 E2.18252
G1 X83.438 Y46.145 E2.18808
G1 X84.017 Y46.275 E2.19361
G1 X84.938 Y46.575 E2.20262
G1 X85.517 Y46.825 E2.20850
G1 X86.078 Y47.125 E2.21441
G1 X86.488 Y47.395 E2.21898
G1 X87.428 Y48.145 E2.23018
G1 X87.847 Y48.555 E2.23564
G1 X88.258 Y49.015 E2.24138
G1 X88.618 Y49.515 E2.24711
G1 X88.948 Y50.035 E2.25285
G1 X98.888 Y67.234 E2.43778
G1 X99.037 Y67.505 E2.44066
G1 X99.287 Y68.044 E2.44619
G1 X99.588 Y68.904 E2.45467
G1 X99.718 Y69.495 E2.46030
G1 X99.757 Y69.794 E2.46312
G1 X99.817 Y70.695 E2.47151
G1 X99.817 Y96.174 E2.70871
G1 X99.727 Y97.005 E2.71648
G1 X99.618 Y97.544 E2.72161
G1 X99.468 Y98.085 E2.72683
G1 X99.175 Y98.813 E2.73413
G1 X99.157 Y98.855 E2.73456
G1 X98.828 Y98.825 F7200.000
G1 X98.418 Y99.544 F1800.000 E2.74227
G1 X97.918 Y100.205 E2.74998
G1 X97.537 Y100.614 E2.75518
G1 X97.127 Y100.985 E2.76032
G1 X96.458 Y101.465 E2.76800
G1 X94.268 Y102.745 E2.79161
G1 X94.018 Y102.885 E2.79428
G1 X93.498 Y103.125 E2.79961
G1 X92.948 Y103.325 E2.80506
G1 X92.388 Y103.475 E2.81045
G1 X91.828 Y103.575 E2.81575
G1 X91.248 Y103.625 E2.82117
G1 X58.738 Y103.625 E3.12381
G1 X58.158 Y103.575 E3.12923
G1 X57.588 Y103.475 E3.13462
G1 X57.028 Y103.325 E3.14002
G1 X56.478 Y103.125 E3.14546
G1 X55.698 Y102.735 E3.15358
G1 X53.528 Y101.465 E3.17699
G1 X52.858 Y100.975 E3.18472
G1 X52.648 Y100.795 E3.18729
G1 X52.258 Y100.405 E3.19243
G1 X51.898 Y99.984 E3.19757
G1 X51.738 Y99.764 E3.20011
G1 X51.288 Y99.065 E3.20785
G1 X50.938 Y98.315 E3.21556
G1 X50.758 Y97.794 E3.22068
G1 X50.568 Y96.995 E3.22834
G1 X50.528 Y96.725 E3.23088
G1 X50.488 Y96.174 E3.23601
G1 X50.478 Y70.695 E3.47321
G1 X50.538 Y69.835 E3.48123
G1 X50.638 Y69.264 E3.48662
G1 X50.878 Y68.435 E3.49467
G1 X51.098 Y67.904 E3.50001
G1 X51.368 Y67.395 E3.50538
G1 X61.298 Y50.195 E3.69027
G1 X61.728 Y49.535 E3.69760
G1 X61.908 Y49.295 E3.70039
G1 X62.128 Y49.015 E3.70371
G1 X62.598 Y48.515 E3.71010
G1 X62.848 Y48.275 E3.71332
G1 X63.258 Y47.945 E3.71822
G1 X63.668 Y47.645 E3.72295
G1 X64.088 Y47.375 E3.72760
G1 X64.648 Y47.075 E3.73351
G1 X65.228 Y46.835 E3.73936
G1 X65.988 Y46.585 E3.74680
G1 X66.258 Y46.515 E3.74940
G1 X67.097 Y46.375 E3.75733
G1 X67.998 Y46.315 E3.76572
G1 X81.988 Y46.315 E3.89596
G1 X82.817 Y46.355 E3.90370
G1 X83.657 Y46.495 E3.91162
G1 X84.118 Y46.615 E3.91605
G1 X84.828 Y46.855 E3.92303
G1 X85.388 Y47.095 E3.92870
G1 X86.178 Y47.545 E3.93716
G1 X86.328 Y47.645 E3.93884
G1 X87.218 Y48.365 E3.94950
G1 X87.627 Y48.765 E3.95483
G1 X88.198 Y49.435 E3.96302
G1 X88.468 Y49.825 E3.96743
G1 X88.688 Y50.185 E3.97136
G1 X98.627 Y67.385 E4.15630
G1 X98.898 Y67.904 E4.16175
G1 X99.118 Y68.435 E4.16709
G1 X99.358 Y69.264 E4.17513
G1 X99.458 Y69.835 E4.18052
G1 X99.518 Y70.695 E4.18855
G1 X99.518 Y95.894 E4.42314
G1 X99.468 Y96.725 E4.43088
G1 X99.428 Y96.995 E4.43342
G1 X99.308 Y97.535 E4.43857
G1 X99.148 Y98.065 E4.44372
G1 X98.847 Y98.783 E4.45098
G1 X98.828 Y98.825 E4.45140
G1 X98.558 Y98.695 F7200.000
G1 X98.438 Y98.924 F1800.000 E4.45382
G1 X98.157 Y99.375 E4.45875
G1 X97.688 Y100.005 E4.46607
G1 X97.328 Y100.394 E4.47101
G1 X97.127 Y100.575 E4.47351
G1 X96.727 Y100.915 E4.47840
G1 X96.297 Y101.215 E4.48328
G1 X93.877 Y102.614 E4.50931
G1 X93.377 Y102.845 E4.51443
G1 X92.597 Y103.114 E4.52212
G1 X92.058 Y103.235 E4.52727
G1 X91.238 Y103.325 E4.53494
G1 X58.748 Y103.325 E4.83740
G1 X57.928 Y103.235 E4.84508
G1 X57.388 Y103.114 E4.85023
G1 X56.598 Y102.845 E4.85800
G1 X55.858 Y102.475 E4.86570
G1 X53.688 Y101.205 E4.88911
G1 X53.258 Y100.905 E4.89399
G1 X52.858 Y100.565 E4.89888
G1 X52.478 Y100.195 E4.90382
G1 X51.978 Y99.585 E4.91116
G1 X51.828 Y99.375 E4.91356
G1 X51.558 Y98.924 E4.91845
G1 X51.328 Y98.454 E4.92332
G1 X51.128 Y97.965 E4.92824
G1 X51.048 Y97.715 E4.93069
G1 X50.868 Y96.945 E4.93805
G1 X50.788 Y96.155 E4.94544
G1 X50.788 Y70.424 E5.18497
G1 X50.878 Y69.605 E5.19265
G1 X50.998 Y69.065 E5.19780
G1 X51.168 Y68.535 E5.20298
G1 X51.378 Y68.035 E5.20803
G1 X51.628 Y67.544 E5.21315
G1 X61.558 Y50.345 E5.39803
G1 X61.978 Y49.715 E5.40508
G1 X62.358 Y49.215 E5.41093
G1 X62.578 Y48.965 E5.41403
G1 X63.048 Y48.505 E5.42015
G1 X63.308 Y48.295 E5.42326
G1 X63.838 Y47.905 E5.42939
G1 X64.248 Y47.635 E5.43396
G1 X64.508 Y47.485 E5.43675
G1 X65.047 Y47.235 E5.44229
G1 X66.058 Y46.875 E5.45227
G1 X66.588 Y46.765 E5.45731
G1 X67.138 Y46.685 E5.46249
G1 X67.998 Y46.625 E5.47051
G1 X81.988 Y46.625 E5.60075
G1 X82.517 Y46.645 E5.60569
G1 X83.058 Y46.695 E5.61073
G1 X83.328 Y46.735 E5.61327
G1 X84.037 Y46.915 E5.62009
G1 X84.558 Y47.085 E5.62519
G1 X84.988 Y47.255 E5.62949
G1 X85.508 Y47.505 E5.63486
G1 X86.008 Y47.805 E5.64029
G1 X86.157 Y47.905 E5.64197
G1 X87.008 Y48.585 E5.65210
G1 X87.418 Y48.975 E5.65737
G1 X87.948 Y49.615 E5.66510
G1 X88.428 Y50.345 E5.67324
G1 X98.368 Y67.544 E5.85817
G1 X98.618 Y68.025 E5.86321
G1 X98.727 Y68.285 E5.86584
G1 X98.828 Y68.535 E5.86834
G1 X98.998 Y69.065 E5.87353
G1 X99.118 Y69.595 E5.87858
G1 X99.208 Y70.415 E5.88626
G1 X99.208 Y96.155 E6.12588
G1 X99.127 Y96.945 E6.13328
G1 X99.018 Y97.465 E6.13822
G1 X98.948 Y97.715 E6.14064
G1 X98.768 Y98.215 E6.14559
G1 X98.576 Y98.653 E6.15004
G1 X98.558 Y98.695 E6.15046
M204 S1000
G1 F1800.000 E5.15046
G92 E0
G1 X91.186 Y71.000 F7200.000
G1 F1800.000 E1.00000
G1 X81.701 Y54.572 F1800.000 E1.17658
G1 X68.299 Y54.572 E1.30135
G1 X58.814 Y71.000 E1.47793
G1 X57.918 Y70.482 E1.48757
G1 X67.537 Y53.821 E1.66667
G1 X67.636 Y53.690 E1.66819
G1 X67.766 Y53.595 E1.66969
G1 X67.867 Y53.557 E1.67070
G1 X68.029 Y53.537 E1.67222
G1 X81.971 Y53.537 E1.80201
G1 X82.159 Y53.564 E1.80378
G1 X82.303 Y53.638 E1.80528
G1 X82.401 Y53.730 E1.80653
G1 X82.463 Y53.821 E1.80755
G1 X92.082 Y70.482 E1.98665
G1 X91.225 Y70.977 E1.99587
G1 X91.186 Y71.000 E1.99629
G1 X91.074 Y71.414 F7200.000
G1 X81.526 Y54.876 F1800.000 E2.17407
G1 X68.474 Y54.876 E2.29557
G1 X58.926 Y71.414 E2.47335
G1 X57.503 Y70.593 E2.48864
G1 X67.280 Y53.658 E2.67068
G1 X67.420 Y53.475 E2.67283
G1 X67.628 Y53.324 E2.67522
G1 X67.788 Y53.262 E2.67681
G1 X68.017 Y53.233 E2.67896
G1 X81.983 Y53.233 E2.80898
G1 X82.253 Y53.275 E2.81153
G1 X82.482 Y53.391 E2.81391
G1 X82.637 Y53.538 E2.81591
G1 X82.720 Y53.658 E2.81726
G1 X92.497 Y70.593 E2.99930
G1 X91.114 Y71.392 E3.01417
G1 X91.074 Y71.414 E3.01459
G1 X90.840 Y71.616 F7200.000
G1 X81.350 Y55.180 F1800.000 E3.19127
G1 X68.650 Y55.180 E3.30951
G1 X59.037 Y71.829 E3.48848
G1 X57.088 Y70.704 E3.50942
G1 X67.023 Y53.496 E3.69440
G1 X67.126 Y53.347 E3.69609
G1 X67.339 Y53.145 E3.69882
G1 X67.489 Y53.052 E3.70046
G1 X67.652 Y52.985 E3.70211
G1 X67.824 Y52.944 E3.70375
G1 X68.005 Y52.929 E3.70544
G1 X81.995 Y52.929 E3.83568
G1 X82.291 Y52.968 E3.83845
G1 X82.511 Y53.052 E3.84064
G1 X82.661 Y53.145 E3.84229
G1 X82.795 Y53.259 E3.84393
G1 X82.977 Y53.496 E3.84671
G1 X92.912 Y70.704 E4.03168
G1 X90.963 Y71.829 E4.05263
G1 X90.863 Y71.655 E4.05450
G1 X90.840 Y71.616 E4.05492
G1 X90.992 Y71.353 F7200.000
M204 S500
M204 S3000
G1 X90.974 Y70.096
G1 X91.498 Y70.621 F1800.000 E4.06189
G1 X91.745 Y70.435 E4.06479
G1 X90.382 Y69.071 E4.08290
G1 X90.562 Y68.385 F7200.000
G1 X89.199 Y67.022 F1800.000 E4.10100
G1 X89.379 Y66.336 F7200.000
G1 X88.015 Y64.973 F1800.000 E4.11910
G1 X88.196 Y64.286 F7200.000
G1 X86.832 Y62.923 F1800.000 E4.13720
G1 X87.012 Y62.237 F7200.000
G1 X85.649 Y60.874 F1800.000 E4.15530
G1 X85.829 Y60.188 F7200.000
G1 X84.466 Y58.824 F1800.000 E4.17341
G1 X84.646 Y58.138 F7200.000
G1 X83.282 Y56.775 F1800.000 E4.19151
G1 X83.462 Y56.089 F7200.000
G1 X82.099 Y54.725 F1800.000 E4.20961
G1 X81.739 Y54.365 F7200.000
G1 X81.118 Y53.744 F1800.000 E4.21787
G1 X80.685 Y53.744 E4.22193
G1 X81.306 Y54.365 E4.23018
G1 X80.873 Y54.365 E4.23425
G1 X80.251 Y53.744 E4.24250
G1 X79.818 Y53.744 E4.24657
G1 X80.440 Y54.365 E4.25482
G1 X80.007 Y54.365 E4.25889
G1 X79.385 Y53.744 E4.26714
G1 X78.952 Y53.744 E4.27121
G1 X79.574 Y54.365 E4.27946
G1 X79.141 Y54.365 E4.28353
G1 X78.519 Y53.744 E4.29178
G1 X78.086 Y53.744 E4.29585
G1 X78.707 Y54.365 E4.30410
G1 X78.274 Y54.365 E4.30817
G1 X77.653 Y53.744 E4.31642
G1 X77.220 Y53.744 E4.32049
G1 X77.841 Y54.365 E4.32874
G1 X77.408 Y54.365 E4.33280
G1 X76.787 Y53.744 E4.34106
G1 X76.354 Y53.744 E4.34512
G1 X76.975 Y54.365 E4.35338
G1 X76.542 Y54.365 E4.35744
G1 X75.920 Y53.744 E4.36570
G1 X75.487 Y53.744 E4.36976
G1 X76.109 Y54.365 E4.37801
G1 X75.676 Y54.365 E4.38208
G1 X75.054 Y53.744 E4.39033
G1 X74.621 Y53.744 E4.39440
G1 X75.243 Y54.365 E4.40265
G1 X74.810 Y54.365 E4.40672
G1 X74.188 Y53.744 E4.41497
G1 X73.755 Y53.744 E4.41904
G1 X74.376 Y54.365 E4.42729
G1 X73.943 Y54.365 E4.43136
G1 X73.322 Y53.744 E4.43961
G1 X72.889 Y53.744 E4.44368
G1 X73.510 Y54.365 E4.45193
G1 X73.077 Y54.365 E4.45599
G1 X72.456 Y53.744 E4.46425
G1 X72.022 Y53.744 E4.46831
G1 X72.644 Y54.365 E4.47657
G1 X72.211 Y54.365 E4.48063
G1 X71.589 Y53.744 E4.48889
G1 X71.156 Y53.744 E4.49295
G1 X71.778 Y54.365 E4.50121
G1 X71.345 Y54.365 E4.50527
G1 X70.723 Y53.744 E4.51352
G1 X70.290 Y53.744 E4.51759
G1 X70.912 Y54.365 E4.52584
G1 X70.479 Y54.365 E4.52991
G1 X69.857 Y53.744 E4.53816
G1 X69.424 Y53.744 E4.54223
G1 X70.045 Y54.365 E4.55048
G1 X69.612 Y54.365 E4.55455
G1 X68.991 Y53.744 E4.56280
G1 X68.558 Y53.744 E4.56687
G1 X69.179 Y54.365 E4.57512
G1 X68.746 Y54.365 E4.57919
G1 X68.125 Y53.744 E4.58744
G1 X67.764 Y53.816 E4.59089
G1 X68.313 Y54.365 E4.59819
G1 X68.096 Y54.581 F7200.000
G1 X67.589 Y54.074 F1800.000 E4.60492
G1 X67.430 Y54.349 E4.60789
G1 X67.937 Y54.856 E4.61462
G1 X67.779 Y55.130 E4.61760
G1 X67.272 Y54.623 E4.62433
G1 X67.113 Y54.898 E4.62730
G1 X67.620 Y55.405 E4.63403
G1 X67.462 Y55.679 E4.63701
G1 X66.955 Y55.173 E4.64374
G1 X66.796 Y55.447 E4.64672
G1 X67.303 Y55.954 E4.65344
G1 X67.145 Y56.228 E4.65642
G1 X66.638 Y55.722 E4.66315
G1 X66.479 Y55.996 E4.66613
G1 X66.986 Y56.503 E4.67286
G1 X66.827 Y56.778 E4.67583
G1 X66.321 Y56.271 E4.68256
G1 X66.162 Y56.545 E4.68554
G1 X66.669 Y57.052 E4.69227
G1 X66.510 Y57.327 E4.69524
G1 X66.004 Y56.820 E4.70197
G1 X65.845 Y57.095 E4.70495
G1 X66.352 Y57.601 E4.71168
G1 X66.193 Y57.876 E4.71466
G1 X65.687 Y57.369 E4.72139
G1 X65.528 Y57.644 E4.72436
G1 X66.035 Y58.150 E4.73109
G1 X65.876 Y58.425 E4.73407
G1 X65.370 Y57.918 E4.74080
G1 X65.211 Y58.193 E4.74377
G1 X65.718 Y58.700 E4.75050
G1 X65.559 Y58.974 E4.75348
G1 X65.052 Y58.467 E4.76021
G1 X64.894 Y58.742 E4.76318
G1 X65.401 Y59.249 E4.76991
G1 X65.242 Y59.523 E4.77289
G1 X64.735 Y59.017 E4.77962
G1 X64.577 Y59.291 E4.78260
G1 X65.084 Y59.798 E4.78932
G1 X64.925 Y60.073 E4.79230
G1 X64.418 Y59.566 E4.79903
G1 X64.260 Y59.840 E4.80201
G1 X64.767 Y60.347 E4.80874
G1 X64.608 Y60.622 E4.81171
G1 X64.101 Y60.115 E4.81844
G1 X63.943 Y60.389 E4.82142
G1 X64.450 Y60.896 E4.82815
G1 X64.291 Y61.171 E4.83113
G1 X63.784 Y60.664 E4.83785
G1 X63.626 Y60.939 E4.84083
G1 X64.133 Y61.445 E4.84756
G1 X63.974 Y61.720 E4.85054
G1 X63.467 Y61.213 E4.85726
G1 X63.309 Y61.488 E4.86024
G1 X63.816 Y61.995 E4.86697
G1 X63.657 Y62.269 E4.86995
G1 X63.150 Y61.762 E4.87668
G1 X62.992 Y62.037 E4.87965
G1 X63.498 Y62.544 E4.88638
G1 X63.340 Y62.818 E4.88936
G1 X62.833 Y62.311 E4.89609
G1 X62.675 Y62.586 E4.89906
G1 X63.181 Y63.093 E4.90579
G1 X63.023 Y63.367 E4.90877
G1 X62.516 Y62.861 E4.91550
G1 X62.358 Y63.135 E4.91848
G1 X62.864 Y63.642 E4.92520
G1 X62.706 Y63.917 E4.92818
G1 X62.199 Y63.410 E4.93491
G1 X62.041 Y63.684 E4.93789
G1 X62.547 Y64.191 E4.94462
G1 X62.389 Y64.466 E4.94759
G1 X61.882 Y63.959 E4.95432
G1 X61.723 Y64.234 E4.95730
G1 X62.230 Y64.740 E4.96403
G1 X62.072 Y65.015 E4.96700
G1 X61.565 Y64.508 E4.97373
G1 X61.406 Y64.783 E4.97671
G1 X61.913 Y65.289 E4.98344
G1 X61.755 Y65.564 E4.98641
G1 X61.248 Y65.057 E4.99314
G1 X61.089 Y65.332 E4.99612
G1 X61.596 Y65.839 E5.00285
G1 X61.438 Y66.113 E5.00582
G1 X60.931 Y65.606 E5.01255
G1 X60.772 Y65.881 E5.01553
G1 X61.279 Y66.388 E5.02226
G1 X61.121 Y66.662 E5.02524
G1 X60.614 Y66.156 E5.03196
G1 X60.455 Y66.430 E5.03494
G1 X60.962 Y66.937 E5.04167
G1 X60.804 Y67.211 E5.04465
G1 X60.297 Y66.705 E5.05137
G1 X60.138 Y66.979 E5.05435
G1 X60.645 Y67.486 E5.06108
G1 X60.486 Y67.761 E5.06406
G1 X59.980 Y67.254 E5.07079
G1 X59.821 Y67.528 E5.07376
G1 X60.328 Y68.035 E5.08049
G1 X60.169 Y68.310 E5.08347
G1 X59.663 Y67.803 E5.09020
G1 X59.504 Y68.077 E5.09317
G1 X60.011 Y68.584 E5.09990
G1 X59.852 Y68.859 E5.10288
G1 X59.346 Y68.352 E5.10961
G1 X59.187 Y68.627 E5.11258
G1 X59.694 Y69.133 E5.11931
G1 X59.535 Y69.408 E5.12229
G1 X59.029 Y68.901 E5.12902
G1 X58.870 Y69.176 E5.13199
G1 X59.377 Y69.683 E5.13872
G1 X59.218 Y69.957 E5.14170
G1 X58.711 Y69.450 E5.14843
G1 X58.553 Y69.725 E5.15141
G1 X59.060 Y70.232 E5.15813
G1 X58.901 Y70.506 E5.16111
G1 X58.394 Y70.000 E5.16784
G1 X58.236 Y70.274 E5.17082
G1 X58.430 Y70.468 E5.17339
G1 F1800.000 E4.17339
G92 E0
G1 X82.691 Y55.750 F7200.000
G1 F1800.000 E1.00000
G1 X84.054 Y57.113 F1800.000 E1.01810
G1 X83.874 Y57.799 F7200.000
G1 X85.237 Y59.163 F1800.000 E1.03621
G1 X85.057 Y59.849 F7200.000
G1 X86.421 Y61.212 F1800.000 E1.05431
G1 X86.240 Y61.898 F7200.000
G1 X87.604 Y63.262 F1800.000 E1.07241
G1 X87.424 Y63.948 F7200.000
G1 X88.787 Y65.311 F1800.000 E1.09051
G1 X88.607 Y65.997 F7200.000
