; generated by Slic3r 0.9.9 on 2013-11-20 at 14:00:04

; layer_height = 0.25
; perimeters = 3
; top_solid_layers = 3
; bottom_solid_layers = 3
; fill_density = 0.3
; perimeter_speed = 60
; infill_speed = 60
; travel_speed = 250
; nozzle_diameter = 0.5
; filament_diameter = 2.9
; extrusion_multiplier = 0.81
; perimeters extrusion width = 0.40mm
; infill extrusion width = 0.25mm
; solid infill extrusion width = 0.40mm
; top infill extrusion width = 0.35mm
; first layer extrusion width = 0.27mm

G21 ; set units to millimeters
M107
M190 S70 ; wait for bed temperature to be reached
M104 S215 ; set temperature
G28 ; home all axes
M109 S215 ; wait for temperature to be reached
G90 ; use absolute coordinates
G92 E0
M82 ; use absolute distances for extrusion
G1 F1800.000 E-2.00000
G92 E0
G1 Z0.250 F15000.000
G1 X62.910 Y62.535
G1 F1800.000 E2.00000
G1 X63.140 Y62.315 F3000.000 E2.00314
G1 X64.070 Y61.565 E2.01490
G1 X64.330 Y61.385 E2.01802
G1 X65.240 Y60.835 E2.02849
G1 X66.020 Y60.455 E2.03704
G1 X66.310 Y60.335 E2.04013
G1 X67.320 Y59.995 E2.05063
G1 X67.630 Y59.915 E2.05379
G1 X68.800 Y59.715 E2.06548
G1 X69.840 Y59.645 E2.07575
G1 X100.150 Y59.645 E2.37433
G1 X100.880 Y59.685 E2.38153
G1 X101.190 Y59.715 E2.38460
G1 X102.360 Y59.915 E2.39629
G1 X102.670 Y59.995 E2.39945
G1 X103.680 Y60.335 E2.40994
G1 X103.970 Y60.455 E2.41304
G1 X104.750 Y60.835 E2.42158
G1 X105.660 Y61.385 E2.43206
G1 X105.920 Y61.565 E2.43517
G1 X106.850 Y62.315 E2.44694
G1 X107.080 Y62.535 E2.45008
G1 X107.860 Y63.405 E2.46159
G1 X108.460 Y64.225 E2.47160
G1 X108.630 Y64.495 E2.47474
G1 X109.090 Y65.345 E2.48426
G1 X109.220 Y65.625 E2.48730
G1 X109.540 Y66.415 E2.49570
G1 X109.640 Y66.715 E2.49881
G1 X109.890 Y67.675 E2.50859
G1 X109.950 Y67.985 E2.51170
G1 X110.070 Y68.945 E2.52123
G1 X110.110 Y69.745 E2.52912
G1 X110.110 Y100.245 E2.82957
G1 X110.070 Y101.045 E2.83746
G1 X109.950 Y102.005 E2.84699
G1 X109.890 Y102.315 E2.85010
G1 X109.640 Y103.275 E2.85988
G1 X109.540 Y103.575 E2.86299
G1 X109.090 Y104.645 E2.87443
G1 X108.630 Y105.495 E2.88395
G1 X108.460 Y105.765 E2.88709
G1 X107.860 Y106.585 E2.89710
G1 X107.080 Y107.455 E2.90861
G1 X106.850 Y107.675 E2.91175
G1 X105.920 Y108.425 E2.92352
G1 X105.660 Y108.605 E2.92663
G1 X104.750 Y109.155 E2.93710
G1 X103.970 Y109.535 E2.94565
G1 X103.680 Y109.655 E2.94874
G1 X102.670 Y109.995 E2.95924
G1 X102.360 Y110.075 E2.96240
G1 X101.120 Y110.285 E2.97478
G1 X100.150 Y110.355 E2.98436
G1 X69.840 Y110.355 E3.28295
G1 X68.870 Y110.285 E3.29253
G1 X67.630 Y110.075 E3.30492
G1 X67.320 Y109.995 E3.30807
G1 X66.310 Y109.655 E3.31857
G1 X66.020 Y109.535 E3.32166
G1 X65.240 Y109.155 E3.33021
G1 X64.330 Y108.605 E3.34068
G1 X64.070 Y108.425 E3.34380
G1 X63.140 Y107.675 E3.35557
G1 X62.910 Y107.455 E3.35870
G1 X62.130 Y106.585 E3.37021
G1 X61.530 Y105.765 E3.38022
G1 X61.360 Y105.495 E3.38337
G1 X60.900 Y104.645 E3.39289
G1 X60.770 Y104.365 E3.39593
G1 X60.410 Y103.435 E3.40575
G1 X60.120 Y102.385 E3.41648
G1 X60.060 Y102.095 E3.41940
G1 X59.910 Y100.805 E3.43219
G1 X59.890 Y100.245 E3.43771
G1 X59.890 Y69.745 E3.73817
G1 X59.910 Y69.185 E3.74369
G1 X60.040 Y67.985 E3.75558
G1 X60.100 Y67.675 E3.75869
G1 X60.350 Y66.715 E3.76846
G1 X60.450 Y66.415 E3.77158
G1 X60.820 Y65.525 E3.78107
G1 X61.300 Y64.605 E3.79129
G1 X61.470 Y64.325 E3.79452
G1 X62.130 Y63.405 E3.80567
G1 X62.877 Y62.570 E3.81671
G1 X63.130 Y62.775 F15000.000
G1 X63.360 Y62.555 F3000.000 E3.81985
G1 X64.250 Y61.825 E3.83118
G1 X64.510 Y61.645 E3.83430
G1 X65.390 Y61.115 E3.84442
G1 X66.140 Y60.755 E3.85261
G1 X66.430 Y60.635 E3.85571
G1 X67.400 Y60.315 E3.86577
G1 X67.710 Y60.235 E3.86892
G1 X68.830 Y60.035 E3.88013
G1 X69.840 Y59.965 E3.89010
G1 X100.150 Y59.965 E4.18869
G1 X100.850 Y60.005 E4.19559
G1 X101.160 Y60.035 E4.19866
G1 X102.280 Y60.235 E4.20987
G1 X102.590 Y60.315 E4.21302
G1 X103.560 Y60.635 E4.22308
G1 X103.850 Y60.755 E4.22618
G1 X104.600 Y61.115 E4.23437
G1 X105.480 Y61.645 E4.24449
G1 X105.740 Y61.825 E4.24761
G1 X106.630 Y62.555 E4.25895
G1 X106.860 Y62.775 E4.26208
G1 X107.420 Y63.375 E4.27017
G1 X107.620 Y63.615 E4.27324
G1 X108.190 Y64.395 E4.28276
G1 X108.360 Y64.665 E4.28590
G1 X108.800 Y65.475 E4.29498
G1 X108.930 Y65.755 E4.29803
G1 X109.330 Y66.825 E4.30928
G1 X109.570 Y67.745 E4.31864
G1 X109.630 Y68.055 E4.32175
G1 X109.750 Y68.965 E4.33080
G1 X109.790 Y69.745 E4.33849
G1 X109.790 Y100.245 E4.63895
G1 X109.750 Y101.025 E4.64664
G1 X109.630 Y101.935 E4.65568
G1 X109.570 Y102.245 E4.65879
G1 X109.330 Y103.165 E4.66816
G1 X108.930 Y104.235 E4.67941
G1 X108.800 Y104.515 E4.68245
G1 X108.360 Y105.325 E4.69153
G1 X108.190 Y105.595 E4.69468
G1 X107.620 Y106.375 E4.70419
G1 X107.420 Y106.615 E4.70727
G1 X106.860 Y107.215 E4.71536
G1 X106.630 Y107.435 E4.71849
G1 X105.740 Y108.165 E4.72983
G1 X105.480 Y108.345 E4.73295
G1 X104.600 Y108.875 E4.74306
G1 X103.850 Y109.235 E4.75126
G1 X103.560 Y109.355 E4.75435
G1 X102.590 Y109.675 E4.76441
G1 X102.280 Y109.755 E4.76757
G1 X101.390 Y109.935 E4.77651
G1 X101.080 Y109.975 E4.77959
G1 X100.150 Y110.035 E4.78877
G1 X69.840 Y110.035 E5.08736
G1 X68.910 Y109.975 E5.09654
G1 X68.600 Y109.935 E5.09961
G1 X67.710 Y109.755 E5.10856
G1 X67.400 Y109.675 E5.11171
G1 X66.430 Y109.355 E5.12178
G1 X66.140 Y109.235 E5.12487
G1 X65.390 Y108.875 E5.13306
G1 X64.510 Y108.345 E5.14318
G1 X64.250 Y108.165 E5.14630
G1 X63.360 Y107.435 E5.15764
G1 X63.130 Y107.215 E5.16077
G1 X62.570 Y106.615 E5.16886
G1 X62.370 Y106.375 E5.17193
G1 X61.800 Y105.595 E5.18145
G1 X61.630 Y105.325 E5.18459
G1 X61.190 Y104.515 E5.19368
G1 X61.060 Y104.235 E5.19672
G1 X60.720 Y103.335 E5.20619
G1 X60.440 Y102.325 E5.21652
G1 X60.380 Y102.035 E5.21944
G1 X60.230 Y100.785 E5.23184
G1 X60.210 Y100.245 E5.23716
G1 X60.210 Y69.745 E5.53762
G1 X60.230 Y69.205 E5.54294
G1 X60.360 Y68.055 E5.55434
G1 X60.420 Y67.745 E5.55745
G1 X60.660 Y66.825 E5.56682
G1 X60.760 Y66.525 E5.56993
G1 X61.110 Y65.665 E5.57908
G1 X61.570 Y64.775 E5.58895
G1 X61.740 Y64.495 E5.59217
G1 X62.370 Y63.615 E5.60284
G1 X63.097 Y62.810 E5.61352
G1 X63.360 Y63.005 F15000.000
G1 X63.590 Y62.785 F3000.000 E5.61666
G1 X64.440 Y62.085 E5.62750
G1 X64.700 Y61.905 E5.63062
G1 X65.550 Y61.395 E5.64038
G1 X66.270 Y61.055 E5.64823
G1 X66.560 Y60.935 E5.65132
G1 X67.480 Y60.625 E5.66088
G1 X67.790 Y60.545 E5.66404
G1 X68.860 Y60.355 E5.67474
G1 X69.840 Y60.295 E5.68441
G1 X100.150 Y60.295 E5.98300
G1 X100.820 Y60.325 E5.98960
G1 X101.130 Y60.355 E5.99267
G1 X102.200 Y60.545 E6.00338
G1 X102.510 Y60.625 E6.00653
G1 X103.430 Y60.935 E6.01609
G1 X103.720 Y61.055 E6.01919
G1 X104.440 Y61.395 E6.02703
G1 X105.290 Y61.905 E6.03679
G1 X105.550 Y62.085 E6.03991
G1 X106.400 Y62.785 E6.05076
G1 X106.630 Y63.005 E6.05389
G1 X107.170 Y63.575 E6.06163
G1 X107.370 Y63.815 E6.06470
G1 X107.910 Y64.565 E6.07381
G1 X108.080 Y64.835 E6.07695
G1 X108.510 Y65.615 E6.08573
G1 X108.640 Y65.895 E6.08877
G1 X108.930 Y66.625 E6.09650
G1 X109.030 Y66.925 E6.09962
G1 X109.260 Y67.805 E6.10858
G1 X109.320 Y68.115 E6.11169
G1 X109.430 Y68.985 E6.12033
G1 X109.460 Y69.745 E6.12782
G1 X109.460 Y100.245 E6.42828
G1 X109.430 Y101.005 E6.43577
G1 X109.320 Y101.875 E6.44441
G1 X109.260 Y102.185 E6.44752
G1 X109.030 Y103.065 E6.45648
G1 X108.930 Y103.365 E6.45959
G1 X108.640 Y104.095 E6.46733
G1 X108.510 Y104.375 E6.47037
G1 X108.080 Y105.155 E6.47915
G1 X107.910 Y105.425 E6.48229
G1 X107.370 Y106.175 E6.49139
G1 X107.170 Y106.415 E6.49447
G1 X106.630 Y106.985 E6.50221
G1 X106.400 Y107.205 E6.50534
G1 X105.550 Y107.905 E6.51619
G1 X105.290 Y108.085 E6.51930
G1 X104.440 Y108.595 E6.52907
G1 X103.720 Y108.935 E6.53691
G1 X103.430 Y109.055 E6.54000
G1 X102.510 Y109.365 E6.54957
G1 X102.200 Y109.445 E6.55272
G1 X101.350 Y109.615 E6.56126
G1 X101.040 Y109.655 E6.56434
G1 X100.150 Y109.705 E6.57312
G1 X69.840 Y109.705 E6.87170
G1 X68.950 Y109.655 E6.88048
G1 X68.640 Y109.615 E6.88356
G1 X67.790 Y109.445 E6.89210
G1 X67.480 Y109.365 E6.89526
G1 X66.560 Y109.055 E6.90482
G1 X65.550 Y108.595 E6.91575
G1 X64.700 Y108.085 E6.92552
G1 X64.440 Y107.905 E6.92863
G1 X63.590 Y107.205 E6.93948
G1 X63.360 Y106.985 E6.94262
G1 X62.820 Y106.415 E6.95035
G1 X62.620 Y106.175 E6.95343
G1 X62.080 Y105.425 E6.96253
G1 X61.910 Y105.155 E6.96568
G1 X61.480 Y104.375 E6.97445
G1 X61.350 Y104.095 E6.97749
G1 X61.020 Y103.245 E6.98647
G1 X60.750 Y102.255 E6.99658
G1 X60.690 Y101.965 E6.99950
G1 X60.550 Y100.775 E7.01130
G1 X60.540 Y100.465 E7.01436
G1 X60.550 Y69.215 E7.32220
G1 X60.670 Y68.115 E7.33310
G1 X60.730 Y67.805 E7.33621
G1 X60.960 Y66.925 E7.34517
G1 X61.060 Y66.625 E7.34829
G1 X61.400 Y65.805 E7.35703
G1 X61.850 Y64.945 E7.36659
G1 X62.020 Y64.665 E7.36982
G1 X62.620 Y63.815 E7.38007
G1 X62.820 Y63.575 E7.38315
G1 X63.327 Y63.040 E7.39041
G1 X63.580 Y63.235 F15000.000
G1 X63.810 Y63.015 F3000.000 E7.39354
G1 X64.620 Y62.355 E7.40383
G1 X64.880 Y62.175 E7.40695
G1 X65.700 Y61.675 E7.41641
G1 X66.390 Y61.345 E7.42395
G1 X66.680 Y61.225 E7.42704
G1 X67.560 Y60.935 E7.43616
G1 X67.870 Y60.855 E7.43932
G1 X68.890 Y60.675 E7.44952
G1 X69.840 Y60.615 E7.45890
G1 X100.150 Y60.615 E7.75748
G1 X100.790 Y60.645 E7.76379
G1 X101.100 Y60.675 E7.76686
G1 X102.120 Y60.855 E7.77706
G1 X102.430 Y60.935 E7.78022
G1 X103.310 Y61.225 E7.78935
G1 X103.600 Y61.345 E7.79244
G1 X104.290 Y61.675 E7.79997
G1 X105.110 Y62.175 E7.80943
G1 X105.370 Y62.355 E7.81255
G1 X106.180 Y63.015 E7.82284
G1 X106.410 Y63.235 E7.82598
G1 X107.120 Y64.025 E7.83644
G1 X107.640 Y64.735 E7.84511
G1 X107.810 Y65.005 E7.84825
G1 X108.210 Y65.745 E7.85654
G1 X108.340 Y66.025 E7.85958
G1 X108.620 Y66.725 E7.86701
G1 X108.720 Y67.025 E7.87012
G1 X108.940 Y67.865 E7.87868
G1 X109.000 Y68.175 E7.88179
G1 X109.110 Y69.005 E7.89003
G1 X109.140 Y69.745 E7.89733
G1 X109.140 Y100.245 E8.19779
G1 X109.110 Y100.985 E8.20508
G1 X109.000 Y101.815 E8.21333
G1 X108.940 Y102.125 E8.21644
G1 X108.720 Y102.965 E8.22499
G1 X108.620 Y103.265 E8.22811
G1 X108.210 Y104.245 E8.23857
G1 X107.810 Y104.985 E8.24686
G1 X107.640 Y105.255 E8.25000
G1 X107.120 Y105.965 E8.25867
G1 X106.410 Y106.755 E8.26914
G1 X106.180 Y106.975 E8.27227
G1 X105.370 Y107.635 E8.28256
G1 X105.110 Y107.815 E8.28568
G1 X104.290 Y108.315 E8.29514
G1 X103.600 Y108.645 E8.30267
G1 X103.310 Y108.765 E8.30577
G1 X102.430 Y109.055 E8.31489
G1 X102.120 Y109.135 E8.31805
G1 X101.310 Y109.295 E8.32618
G1 X101.000 Y109.335 E8.32926
G1 X100.150 Y109.385 E8.33765
G1 X69.840 Y109.385 E8.63623
G1 X68.990 Y109.335 E8.64462
G1 X68.680 Y109.295 E8.64770
G1 X67.870 Y109.135 E8.65583
G1 X67.560 Y109.055 E8.65899
G1 X66.680 Y108.765 E8.66811
G1 X66.390 Y108.645 E8.67120
G1 X65.700 Y108.315 E8.67874
G1 X64.880 Y107.815 E8.68820
G1 X64.620 Y107.635 E8.69132
G1 X63.810 Y106.975 E8.70161
G1 X63.580 Y106.755 E8.70474
G1 X62.870 Y105.965 E8.71521
G1 X62.350 Y105.255 E8.72388
G1 X62.180 Y104.985 E8.72702
G1 X61.780 Y104.245 E8.73531
G1 X61.650 Y103.965 E8.73835
G1 X61.330 Y103.145 E8.74702
G1 X61.070 Y102.195 E8.75672
G1 X61.010 Y101.905 E8.75964
G1 X60.870 Y100.765 E8.77095
G1 X60.860 Y100.455 E8.77401
G1 X60.870 Y69.225 E9.08165
G1 X60.990 Y68.175 E9.09206
G1 X61.050 Y67.865 E9.09517
G1 X61.270 Y67.025 E9.10373
G1 X61.370 Y66.725 E9.10684
G1 X61.680 Y65.945 E9.11511
G1 X62.120 Y65.105 E9.12445
G1 X62.290 Y64.825 E9.12768
G1 X62.870 Y64.025 E9.13741
G1 X63.547 Y63.270 E9.14740
G1 X63.800 Y63.465 F15000.000
G1 X64.030 Y63.245 F3000.000 E9.15054
G1 X64.800 Y62.615 E9.16034
G1 X65.060 Y62.435 E9.16345
G1 X65.860 Y61.955 E9.17264
G1 X66.510 Y61.645 E9.17974
G1 X66.800 Y61.525 E9.18283
G1 X67.640 Y61.245 E9.19155
G1 X67.950 Y61.165 E9.19471
G1 X68.920 Y60.995 E9.20441
G1 X69.840 Y60.935 E9.21349
G1 X100.150 Y60.935 E9.51207
G1 X100.760 Y60.965 E9.51809
G1 X101.070 Y60.995 E9.52116
G1 X102.040 Y61.165 E9.53086
G1 X102.350 Y61.245 E9.53401
G1 X103.190 Y61.525 E9.54274
G1 X103.480 Y61.645 E9.54583
G1 X104.130 Y61.955 E9.55292
G1 X104.930 Y62.435 E9.56211
G1 X105.190 Y62.615 E9.56523
G1 X105.960 Y63.245 E9.57503
G1 X106.190 Y63.465 E9.57816
G1 X106.680 Y63.985 E9.58520
G1 X106.880 Y64.225 E9.58828
G1 X107.370 Y64.905 E9.59654
G1 X107.540 Y65.175 E9.59968
G1 X107.920 Y65.885 E9.60761
G1 X108.050 Y66.165 E9.61065
G1 X108.320 Y66.825 E9.61768
G1 X108.420 Y67.125 E9.62079
G1 X108.630 Y67.925 E9.62894
G1 X108.690 Y68.235 E9.63205
G1 X108.790 Y69.025 E9.63989
G1 X108.820 Y69.745 E9.64699
G1 X108.820 Y100.245 E9.94745
G1 X108.790 Y100.965 E9.95455
G1 X108.690 Y101.755 E9.96239
G1 X108.630 Y102.065 E9.96550
G1 X108.420 Y102.865 E9.97365
G1 X108.320 Y103.165 E9.97677
G1 X107.920 Y104.105 E9.98683
G1 X107.540 Y104.815 E9.99476
G1 X107.370 Y105.085 E9.99790
G1 X106.880 Y105.765 E10.00616
G1 X106.680 Y106.005 E10.00924
G1 X106.190 Y106.525 E10.01628
G1 X105.960 Y106.745 E10.01941
G1 X105.190 Y107.375 E10.02921
G1 X104.930 Y107.555 E10.03233
G1 X104.130 Y108.035 E10.04152
G1 X103.480 Y108.345 E10.04861
G1 X103.190 Y108.465 E10.05170
G1 X102.350 Y108.745 E10.06043
G1 X102.040 Y108.825 E10.06358
G1 X101.270 Y108.975 E10.07131
G1 X100.960 Y109.015 E10.07439
G1 X100.150 Y109.065 E10.08238
G1 X69.840 Y109.065 E10.38097
G1 X69.030 Y109.015 E10.38896
G1 X68.720 Y108.975 E10.39204
G1 X67.950 Y108.825 E10.39977
G1 X67.640 Y108.745 E10.40292
G1 X66.800 Y108.465 E10.41164
G1 X66.510 Y108.345 E10.41473
G1 X65.860 Y108.035 E10.42183
G1 X65.060 Y107.555 E10.43102
G1 X64.800 Y107.375 E10.43413
G1 X64.030 Y106.745 E10.44394
G1 X63.800 Y106.525 E10.44707
G1 X63.310 Y106.005 E10.45411
G1 X63.110 Y105.765 E10.45719
G1 X62.620 Y105.085 E10.46544
G1 X62.450 Y104.815 E10.46859
G1 X62.070 Y104.105 E10.47652
G1 X61.940 Y103.825 E10.47956
G1 X61.640 Y103.055 E10.48770
G1 X61.380 Y102.125 E10.49721
G1 X61.320 Y101.835 E10.50013
G1 X61.190 Y100.755 E10.51085
G1 X61.180 Y100.445 E10.51390
G1 X61.190 Y69.235 E10.82135
G1 X61.300 Y68.235 E10.83126
G1 X61.360 Y67.925 E10.83437
G1 X61.570 Y67.125 E10.84252
G1 X61.670 Y66.825 E10.84564
G1 X61.970 Y66.085 E10.85350
G1 X62.100 Y65.815 E10.85645
G1 X62.570 Y64.995 E10.86576
G1 X63.110 Y64.225 E10.87503
G1 X63.310 Y63.985 E10.87811
G1 X63.767 Y63.500 E10.88467
G1 F1800.000 E8.88467
G92 E0
G1 X82.294 Y69.312 F15000.000
G1 F1800.000 E2.00000
M204 S350
G1 X82.363 Y69.102 F3000.000 E2.00218
G1 X82.457 Y68.902 E2.00436
G1 X82.575 Y68.715 E2.00654
G1 X82.716 Y68.545 E2.00871
G1 X82.877 Y68.393 E2.01089
G1 X83.056 Y68.263 E2.01307
G1 X83.250 Y68.157 E2.01525
G1 X83.456 Y68.075 E2.01743
G1 X83.670 Y68.020 E2.01961
G1 X83.889 Y67.992 E2.02178
G1 X84.111 Y67.992 E2.02396
G1 X84.330 Y68.020 E2.02614
G1 X84.544 Y68.075 E2.02832
G1 X84.750 Y68.157 E2.03050
G1 X84.944 Y68.263 E2.03268
G1 X85.123 Y68.393 E2.03486
G1 X85.284 Y68.545 E2.03703
G1 X85.425 Y68.715 E2.03921
G1 X85.543 Y68.902 E2.04139
G1 X85.637 Y69.102 E2.04357
G1 X85.699 Y69.290 E2.04552
G1 X85.747 Y69.529 E2.04792
G1 X85.761 Y69.750 E2.05010
G1 X85.747 Y69.971 E2.05228
G1 X85.706 Y70.188 E2.05446
G1 X85.637 Y70.398 E2.05664
G1 X85.543 Y70.598 E2.05882
G1 X85.425 Y70.785 E2.06100
G1 X85.284 Y70.955 E2.06317
G1 X85.123 Y71.107 E2.06535
G1 X84.944 Y71.237 E2.06753
G1 X84.750 Y71.343 E2.06971
G1 X84.544 Y71.425 E2.07189
G1 X84.330 Y71.480 E2.07407
G1 X84.111 Y71.507 E2.07624
G1 X83.889 Y71.507 E2.07842
G1 X83.670 Y71.480 E2.08060
G1 X83.456 Y71.425 E2.08278
G1 X83.250 Y71.343 E2.08496
G1 X83.056 Y71.237 E2.08714
G1 X82.877 Y71.107 E2.08932
G1 X82.716 Y70.955 E2.09150
G1 X82.575 Y70.785 E2.09367
G1 X82.457 Y70.598 E2.09585
G1 X82.363 Y70.398 E2.09803
G1 X82.294 Y70.188 E2.10021
G1 X82.253 Y69.971 E2.10239
G1 X82.239 Y69.750 E2.10457
G1 X82.285 Y69.359 E2.10844
