; generated by Slic3r 0.9.7 on 2014-01-05 at 15:51:20

; layer_height = 0.25
; perimeters = 3
; top_solid_layers = 3
; bottom_solid_layers = 3
; fill_density = 0.3
; perimeter_speed = 30
; infill_speed = 30
; travel_speed = 150
; scale = 1
; nozzle_diameter = 0.5
; filament_diameter = 2.9
; extrusion_multiplier = 0.81
; perimeters extrusion width = 0.40mm
; infill extrusion width = 0.40mm
; first layer extrusion width = 0.27mm

M107
M190 S70 ; wait for bed temperature to be reached
M104 S215 ; set temperature
G28 ; home all axes
M109 S215 ; wait for temperature to be reached
G90 ; use absolute coordinates
G21 ; set units to millimeters
G92 E0
M82 ; use absolute distances for extrusion
G1 F1500.000 E-1.50000
G92 E0
G1 Z0.250 F9000.000
G1 X69.180 Y54.790
G1 F1500.000 E1.50000
G1 X69.750 Y54.150 F1800.000 E1.50844
G1 X70.170 Y53.760 E1.51409
G1 X70.610 Y53.410 E1.51963
G1 X71.080 Y53.090 E1.52523
G1 X71.580 Y52.800 E1.53092
G1 X72.090 Y52.560 E1.53647
G1 X72.620 Y52.350 E1.54209
G1 X73.160 Y52.180 E1.54767
G1 X73.440 Y52.110 E1.55051
G1 X74.280 Y51.970 E1.55890
G1 X74.560 Y51.940 E1.56167
G1 X75.130 Y51.920 E1.56729
G1 X77.860 Y51.920 E1.59419
G1 X78.970 Y52.000 E1.60515
G1 X95.970 Y54.500 E1.77442
G1 X96.530 Y54.610 E1.78004
G1 X97.080 Y54.750 E1.78563
G1 X97.880 Y55.050 E1.79405
G1 X98.650 Y55.430 E1.80250
G1 X99.130 Y55.730 E1.80808
G1 X99.810 Y56.250 E1.81651
G1 X100.230 Y56.640 E1.82216
G1 X100.800 Y57.280 E1.83060
G1 X101.140 Y57.740 E1.83624
G1 X101.580 Y58.470 E1.84463
G1 X101.940 Y59.240 E1.85301
G1 X102.210 Y60.060 E1.86151
G1 X102.330 Y60.610 E1.86706
G1 X102.420 Y61.180 E1.87274
G1 X102.450 Y61.460 E1.87552
G1 X102.470 Y62.030 E1.88113
G1 X102.470 Y107.960 E2.33359
G1 X102.450 Y108.530 E2.33921
G1 X102.380 Y109.100 E2.34487
G1 X102.210 Y109.930 E2.35321
G1 X102.130 Y110.210 E2.35608
G1 X101.940 Y110.750 E2.36172
G1 X101.710 Y111.270 E2.36732
G1 X101.290 Y112.020 E2.37579
G1 X100.970 Y112.490 E2.38139
G1 X100.620 Y112.930 E2.38693
G1 X100.230 Y113.350 E2.39257
G1 X99.810 Y113.740 E2.39822
G1 X99.130 Y114.260 E2.40665
G1 X98.650 Y114.560 E2.41223
G1 X97.880 Y114.940 E2.42069
G1 X97.080 Y115.240 E2.42910
G1 X96.530 Y115.380 E2.43469
G1 X95.970 Y115.490 E2.44032
G1 X78.970 Y117.990 E2.60958
G1 X77.860 Y118.070 E2.62055
G1 X75.130 Y118.070 E2.64744
G1 X74.560 Y118.050 E2.65306
G1 X74.280 Y118.020 E2.65583
G1 X73.440 Y117.880 E2.66422
G1 X73.160 Y117.810 E2.66707
G1 X72.620 Y117.640 E2.67264
G1 X72.090 Y117.430 E2.67826
G1 X71.580 Y117.190 E2.68381
G1 X71.080 Y116.900 E2.68950
G1 X70.610 Y116.580 E2.69511
G1 X69.960 Y116.040 E2.70343
G1 X69.360 Y115.420 E2.71193
G1 X69.010 Y114.980 E2.71747
G1 X68.690 Y114.510 E2.72307
G1 X68.400 Y114.010 E2.72876
G1 X68.050 Y113.240 E2.73710
G1 X67.860 Y112.700 E2.74273
G1 X67.710 Y112.150 E2.74835
G1 X67.570 Y111.310 E2.75674
G1 X67.540 Y111.030 E2.75951
G1 X67.520 Y110.460 E2.76513
G1 X67.520 Y59.530 E3.26684
G1 X67.540 Y58.960 E3.27246
G1 X67.610 Y58.400 E3.27802
G1 X67.710 Y57.840 E3.28362
G1 X67.950 Y57.020 E3.29204
G1 X68.160 Y56.490 E3.29766
G1 X68.400 Y55.980 E3.30321
G1 X68.690 Y55.480 E3.30890
G1 X69.151 Y54.828 E3.31677
G1 X69.180 Y54.790 E3.31724
G1 X69.510 Y54.890 F9000.000
G1 X69.880 Y54.480 F1800.000 E3.32268
G1 X70.280 Y54.090 E3.32818
G1 X70.710 Y53.740 E3.33365
G1 X71.170 Y53.410 E3.33922
G1 X71.650 Y53.130 E3.34470
G1 X72.150 Y52.880 E3.35020
G1 X72.930 Y52.580 E3.35844
G1 X73.470 Y52.440 E3.36393
G1 X74.020 Y52.330 E3.36946
G1 X74.290 Y52.290 E3.37215
G1 X74.850 Y52.250 E3.37768
G1 X77.860 Y52.240 E3.40733
G1 X78.920 Y52.320 E3.41780
G1 X95.920 Y54.820 E3.58707
G1 X96.740 Y54.990 E3.59532
G1 X97.280 Y55.160 E3.60089
G1 X98.060 Y55.480 E3.60920
G1 X98.790 Y55.890 E3.61745
G1 X99.470 Y56.390 E3.62576
G1 X100.090 Y56.960 E3.63406
G1 X100.640 Y57.590 E3.64230
G1 X100.960 Y58.050 E3.64782
G1 X101.250 Y58.530 E3.65334
G1 X101.610 Y59.290 E3.66163
G1 X101.800 Y59.820 E3.66717
G1 X101.950 Y60.360 E3.67269
G1 X102.100 Y61.190 E3.68100
G1 X102.150 Y62.030 E3.68929
G1 X102.150 Y107.960 E4.14175
G1 X102.100 Y108.800 E4.15004
G1 X102.060 Y109.080 E4.15282
G1 X101.950 Y109.630 E4.15835
G1 X101.800 Y110.170 E4.16387
G1 X101.610 Y110.700 E4.16942
G1 X101.250 Y111.460 E4.17770
G1 X100.960 Y111.940 E4.18322
G1 X100.640 Y112.400 E4.18874
G1 X100.280 Y112.830 E4.19427
G1 X99.890 Y113.230 E4.19977
G1 X99.470 Y113.600 E4.20529
G1 X98.790 Y114.100 E4.21360
G1 X98.310 Y114.380 E4.21907
G1 X97.800 Y114.630 E4.22467
G1 X97.280 Y114.830 E4.23016
G1 X96.740 Y115.000 E4.23574
G1 X95.920 Y115.170 E4.24398
G1 X78.920 Y117.670 E4.41325
G1 X77.860 Y117.750 E4.42372
G1 X75.130 Y117.750 E4.45062
G1 X74.290 Y117.700 E4.45891
G1 X73.470 Y117.550 E4.46712
G1 X72.930 Y117.410 E4.47261
G1 X72.410 Y117.220 E4.47807
G1 X71.900 Y116.990 E4.48358
G1 X71.170 Y116.580 E4.49183
G1 X70.710 Y116.250 E4.49740
G1 X70.280 Y115.900 E4.50287
G1 X69.880 Y115.510 E4.50837
G1 X69.510 Y115.100 E4.51381
G1 X69.010 Y114.420 E4.52212
G1 X68.730 Y113.940 E4.52760
G1 X68.480 Y113.440 E4.53310
G1 X68.270 Y112.920 E4.53863
G1 X68.180 Y112.660 E4.54134
G1 X68.040 Y112.120 E4.54684
G1 X67.890 Y111.300 E4.55505
G1 X67.840 Y110.460 E4.56334
G1 X67.840 Y59.530 E5.06505
G1 X67.890 Y58.690 E5.07334
G1 X67.930 Y58.420 E5.07603
G1 X68.040 Y57.870 E5.08155
G1 X68.180 Y57.330 E5.08705
G1 X68.270 Y57.070 E5.08976
G1 X68.480 Y56.550 E5.09528
G1 X68.730 Y56.050 E5.10079
G1 X69.010 Y55.570 E5.10626
G1 X69.481 Y54.928 E5.11410
G1 X69.510 Y54.890 E5.11458
G1 X69.830 Y55.010 F9000.000
G1 X70.020 Y54.800 F1800.000 E5.11737
G1 X70.610 Y54.230 E5.12545
G1 X70.820 Y54.060 E5.12811
G1 X71.490 Y53.590 E5.13617
G1 X71.730 Y53.450 E5.13891
G1 X72.470 Y53.100 E5.14697
G1 X72.980 Y52.910 E5.15233
G1 X73.500 Y52.760 E5.15767
G1 X74.310 Y52.610 E5.16578
G1 X74.860 Y52.570 E5.17121
G1 X77.860 Y52.570 E5.20077
G1 X78.870 Y52.640 E5.21074
G1 X95.870 Y55.140 E5.38001
G1 X96.410 Y55.240 E5.38542
G1 X96.680 Y55.310 E5.38816
G1 X97.210 Y55.470 E5.39362
G1 X97.970 Y55.800 E5.40178
G1 X98.450 Y56.060 E5.40716
G1 X98.910 Y56.370 E5.41262
G1 X99.350 Y56.700 E5.41804
G1 X99.950 Y57.270 E5.42619
G1 X100.310 Y57.690 E5.43164
G1 X100.630 Y58.130 E5.43700
G1 X100.920 Y58.600 E5.44244
G1 X101.290 Y59.350 E5.45068
G1 X101.390 Y59.600 E5.45333
G1 X101.560 Y60.130 E5.45882
G1 X101.740 Y60.930 E5.46689
G1 X101.820 Y61.750 E5.47501
G1 X101.820 Y108.240 E5.93298
G1 X101.740 Y109.060 E5.94110
G1 X101.690 Y109.330 E5.94380
G1 X101.560 Y109.860 E5.94918
G1 X101.390 Y110.390 E5.95466
G1 X101.170 Y110.900 E5.96013
G1 X100.920 Y111.390 E5.96555
G1 X100.630 Y111.860 E5.97099
G1 X100.310 Y112.300 E5.97635
G1 X99.950 Y112.720 E5.98180
G1 X99.350 Y113.290 E5.98995
G1 X98.910 Y113.620 E5.99537
G1 X98.450 Y113.930 E6.00084
G1 X97.970 Y114.190 E6.00621
G1 X97.470 Y114.420 E6.01164
G1 X97.210 Y114.520 E6.01438
G1 X96.410 Y114.750 E6.02258
G1 X95.870 Y114.850 E6.02799
G1 X78.870 Y117.350 E6.19726
G1 X77.860 Y117.420 E6.20723
G1 X74.860 Y117.420 E6.23678
G1 X74.310 Y117.380 E6.24222
G1 X73.500 Y117.230 E6.25033
G1 X72.980 Y117.080 E6.25566
G1 X72.470 Y116.890 E6.26102
G1 X72.210 Y116.780 E6.26380
G1 X71.490 Y116.400 E6.27182
G1 X71.260 Y116.250 E6.27453
G1 X70.610 Y115.760 E6.28255
G1 X70.400 Y115.570 E6.28534
G1 X69.830 Y114.980 E6.29342
G1 X69.340 Y114.330 E6.30144
G1 X69.050 Y113.860 E6.30688
G1 X68.700 Y113.120 E6.31494
G1 X68.430 Y112.350 E6.32298
G1 X68.250 Y111.550 E6.33106
G1 X68.210 Y111.280 E6.33375
G1 X68.170 Y110.730 E6.33918
G1 X68.170 Y59.260 E6.84621
G1 X68.210 Y58.710 E6.85164
G1 X68.300 Y58.170 E6.85704
G1 X68.430 Y57.640 E6.86241
G1 X68.600 Y57.120 E6.86780
G1 X68.810 Y56.610 E6.87323
G1 X69.050 Y56.130 E6.87852
G1 X69.340 Y55.660 E6.88396
G1 X69.800 Y55.047 E6.89150
G1 X69.830 Y55.010 E6.89198
G1 X69.980 Y55.330 F9000.000
G1 X70.340 Y54.930 F1800.000 E6.89728
G1 X70.930 Y54.380 E6.90523
G1 X71.360 Y54.060 E6.91051
G1 X71.580 Y53.920 E6.91308
G1 X72.040 Y53.650 E6.91833
G1 X72.530 Y53.420 E6.92366
G1 X73.030 Y53.230 E6.92893
G1 X73.540 Y53.080 E6.93417
G1 X74.060 Y52.970 E6.93940
G1 X74.860 Y52.890 E6.94732
G1 X77.860 Y52.890 E6.97688
G1 X78.830 Y52.960 E6.98646
G1 X95.830 Y55.460 E7.15573
G1 X96.620 Y55.620 E7.16367
G1 X97.390 Y55.890 E7.17170
G1 X97.880 Y56.110 E7.17699
G1 X98.580 Y56.520 E7.18499
G1 X99.010 Y56.840 E7.19027
G1 X99.420 Y57.200 E7.19564
G1 X99.970 Y57.790 E7.20359
G1 X100.300 Y58.220 E7.20893
G1 X100.730 Y58.910 E7.21694
G1 X101.060 Y59.650 E7.22492
G1 X101.310 Y60.420 E7.23289
G1 X101.370 Y60.690 E7.23562
G1 X101.450 Y61.220 E7.24090
G1 X101.500 Y61.760 E7.24624
G1 X101.500 Y108.230 E7.70401
G1 X101.450 Y108.770 E7.70936
G1 X101.370 Y109.300 E7.71464
G1 X101.310 Y109.570 E7.71736
G1 X101.060 Y110.340 E7.72534
G1 X100.730 Y111.080 E7.73332
G1 X100.450 Y111.540 E7.73862
G1 X100.140 Y111.990 E7.74401
G1 X99.800 Y112.400 E7.74925
G1 X99.420 Y112.790 E7.75462
G1 X99.010 Y113.150 E7.75999
G1 X98.580 Y113.470 E7.76527
G1 X98.120 Y113.750 E7.77058
G1 X97.630 Y114.000 E7.77600
G1 X96.880 Y114.290 E7.78392
G1 X96.360 Y114.430 E7.78922
G1 X95.830 Y114.530 E7.79454
G1 X78.830 Y117.030 E7.96380
G1 X77.860 Y117.100 E7.97338
G1 X74.860 Y117.100 E8.00294
G1 X74.600 Y117.080 E8.00551
G1 X74.060 Y117.020 E8.01086
G1 X73.800 Y116.970 E8.01347
G1 X73.280 Y116.840 E8.01875
G1 X72.770 Y116.670 E8.02404
G1 X72.280 Y116.460 E8.02929
G1 X71.810 Y116.210 E8.03454
G1 X71.360 Y115.930 E8.03976
G1 X70.930 Y115.610 E8.04504
G1 X70.530 Y115.250 E8.05034
G1 X69.980 Y114.660 E8.05829
G1 X69.660 Y114.230 E8.06357
G1 X69.250 Y113.550 E8.07139
G1 X68.920 Y112.820 E8.07928
G1 X68.750 Y112.310 E8.08458
G1 X68.570 Y111.530 E8.09246
G1 X68.490 Y110.730 E8.10038
G1 X68.490 Y59.260 E8.60741
G1 X68.570 Y58.460 E8.61533
G1 X68.620 Y58.200 E8.61794
G1 X68.750 Y57.680 E8.62322
G1 X68.920 Y57.170 E8.62852
G1 X69.130 Y56.680 E8.63377
G1 X69.380 Y56.210 E8.63901
G1 X69.660 Y55.760 E8.64423
G1 X69.951 Y55.368 E8.64904
G1 X69.980 Y55.330 E8.64951
G1 X70.310 Y55.440 F9000.000
G1 X70.660 Y55.060 F1800.000 E8.65460
G1 X71.040 Y54.710 E8.65969
G1 X71.250 Y54.540 E8.66235
G1 X71.890 Y54.100 E8.67000
G1 X72.350 Y53.850 E8.67516
G1 X72.830 Y53.640 E8.68032
G1 X73.580 Y53.400 E8.68808
G1 X74.090 Y53.290 E8.69322
G1 X74.870 Y53.210 E8.70094
G1 X77.860 Y53.210 E8.73040
G1 X78.780 Y53.280 E8.73949
G1 X95.780 Y55.780 E8.90875
G1 X96.300 Y55.870 E8.91395
G1 X97.060 Y56.100 E8.92178
G1 X97.550 Y56.310 E8.92703
G1 X98.020 Y56.550 E8.93223
G1 X98.680 Y56.990 E8.94004
G1 X99.090 Y57.330 E8.94529
G1 X99.470 Y57.700 E8.95051
G1 X99.970 Y58.310 E8.95828
G1 X100.270 Y58.750 E8.96353
G1 X100.400 Y58.980 E8.96613
G1 X100.740 Y59.700 E8.97397
G1 X100.910 Y60.200 E8.97918
G1 X101.090 Y60.980 E8.98706
G1 X101.180 Y61.770 E8.99489
G1 X101.180 Y108.220 E9.45247
G1 X101.130 Y108.750 E9.45772
G1 X101.040 Y109.270 E9.46292
G1 X100.910 Y109.790 E9.46820
G1 X100.740 Y110.290 E9.47340
G1 X100.520 Y110.770 E9.47860
G1 X100.270 Y111.240 E9.48384
G1 X99.810 Y111.890 E9.49169
G1 X99.470 Y112.290 E9.49686
G1 X99.090 Y112.660 E9.50208
G1 X98.680 Y113.000 E9.50733
G1 X98.020 Y113.440 E9.51514
G1 X97.550 Y113.680 E9.52034
G1 X97.060 Y113.890 E9.52560
G1 X96.300 Y114.120 E9.53342
G1 X95.780 Y114.210 E9.53862
G1 X78.780 Y116.710 E9.70788
G1 X77.860 Y116.780 E9.71697
G1 X74.870 Y116.780 E9.74643
G1 X74.610 Y116.760 E9.74900
G1 X74.090 Y116.700 E9.75415
G1 X73.830 Y116.650 E9.75676
G1 X73.330 Y116.520 E9.76185
G1 X72.830 Y116.350 E9.76705
G1 X72.350 Y116.140 E9.77221
G1 X71.890 Y115.890 E9.77737
G1 X71.250 Y115.450 E9.78502
G1 X71.040 Y115.280 E9.78768
G1 X70.660 Y114.930 E9.79277
G1 X70.310 Y114.550 E9.79786
G1 X69.840 Y113.920 E9.80560
G1 X69.570 Y113.470 E9.81077
G1 X69.240 Y112.760 E9.81849
G1 X69.000 Y112.010 E9.82624
G1 X68.890 Y111.500 E9.83138
G1 X68.810 Y110.720 E9.83911
G1 X68.810 Y59.270 E10.34594
G1 X68.890 Y58.490 E10.35367
G1 X68.940 Y58.230 E10.35627
G1 X69.070 Y57.730 E10.36136
G1 X69.240 Y57.230 E10.36657
G1 X69.450 Y56.750 E10.37173
G1 X69.700 Y56.290 E10.37688
G1 X69.840 Y56.070 E10.37945
G1 X70.280 Y55.477 E10.38672
G1 X70.310 Y55.440 E10.38720
G1 F1500.000 E8.88720
G92 E0
G1 X77.221 Y69.321 F9000.000
G1 F1500.000 E1.50000
G1 X92.779 Y69.321 F1800.000 E1.65326
G1 X92.779 Y100.679 E1.96216
G1 X77.221 Y100.679 E2.11542
G1 X77.221 Y69.369 E2.42385
G1 X77.221 Y69.321 E2.42433
G1 X77.542 Y69.642 F9000.000
G1 X92.458 Y69.642 F1800.000 E2.57126
G1 X92.458 Y100.358 E2.87383
G1 X77.542 Y100.358 E3.02076
G1 X77.542 Y69.691 E3.32286
G1 X77.542 Y69.642 E3.32333
G1 X77.864 Y69.964 F9000.000
G1 X92.136 Y69.964 F1800.000 E3.46393
G1 X92.136 Y100.036 E3.76018
G1 X77.864 Y100.036 E3.90077
G1 X77.864 Y70.012 E4.19654
G1 X77.864 Y69.964 E4.19702
G1 X78.024 Y69.685 F9000.000
G1 F1500.000 E2.69702
G92 E0
G1 X94.221 Y107.321 F9000.000
G1 F1500.000 E1.50000
G1 X77.221 Y107.321 F1800.000 E1.66747
G1 X77.221 Y109.821 E1.69209
G1 X75.779 Y109.821 E1.70630
G1 X75.779 Y60.179 E2.19533
G1 X77.221 Y60.179 E2.20953
G1 X77.221 Y62.679 E2.23416
G1 X94.221 Y62.679 E2.40163
G1 X94.221 Y107.273 E2.84092
G1 X94.221 Y107.321 E2.84140
G1 X94.542 Y107.642 F9000.000
G1 X77.542 Y107.642 F1800.000 E3.00886
G1 X77.542 Y110.142 E3.03349
G1 X75.458 Y110.142 E3.05403
G1 X75.458 Y59.858 E3.54938
G1 X77.542 Y59.858 E3.56992
G1 X77.542 Y62.358 E3.59455
G1 X94.542 Y62.358 E3.76202
G1 X94.542 Y107.594 E4.20764
G1 X94.542 Y107.642 E4.20812
G1 X94.864 Y107.964 F9000.000
G1 X77.864 Y107.964 F1800.000 E4.37558
G1 X77.864 Y110.464 E4.40021
G1 X75.136 Y110.464 E4.42708
G1 X75.136 Y59.536 E4.92876
G1 X77.864 Y59.536 E4.95563
G1 X77.864 Y62.036 E4.98026
G1 X94.864 Y62.036 E5.14773
G1 X94.864 Y107.916 E5.59968
G1 X94.864 Y107.964 E5.60016
G1 X94.703 Y108.243 F9000.000
G1 F1500.000 E4.10016
G92 E0
G1 X77.351 Y107.102 F9000.000
G1 F1500.000 E1.50000
G1 X75.998 Y105.749 F1800.000 E1.51891
G1 X75.998 Y105.293 E1.52342
G1 X77.807 Y107.102 E1.54871
G1 X78.263 Y107.102 E1.55322
G1 X75.998 Y104.837 E1.58489
G1 X75.998 Y104.381 E1.58939
G1 X78.719 Y107.102 E1.62743
G1 X79.175 Y107.102 E1.63194
G1 X75.998 Y103.925 E1.67636
G1 X75.998 Y103.469 E1.68087
G1 X79.631 Y107.102 E1.73166
G1 X80.087 Y107.102 E1.73617
G1 X75.998 Y103.013 E1.79333
G1 X75.998 Y102.557 E1.79784
G1 X80.543 Y107.102 E1.86138
G1 X80.999 Y107.102 E1.86589
G1 X75.998 Y102.101 E1.93581
G1 X75.998 Y101.645 E1.94032
G1 X81.455 Y107.102 E2.01661
G1 X81.911 Y107.102 E2.02112
G1 X75.998 Y101.189 E2.10379
G1 X75.998 Y100.733 E2.10830
G1 X82.367 Y107.102 E2.19734
G1 X82.823 Y107.102 E2.20185
G1 X75.998 Y100.277 E2.29727
G1 X75.998 Y99.821 E2.30178
G1 X77.002 Y100.825 E2.31582
G1 X77.075 Y100.898 F9000.000
G1 X83.279 Y107.102 F1800.000 E2.40256
G1 X83.735 Y107.102 E2.40707
G1 X77.531 Y100.898 E2.49381
G1 X77.987 Y100.898 E2.49831
G1 X84.191 Y107.102 E2.58505
G1 X84.647 Y107.102 E2.58956
G1 X78.443 Y100.898 E2.67630
G1 X78.899 Y100.898 E2.68081
G1 X85.103 Y107.102 E2.76755
G1 X85.559 Y107.102 E2.77206
G1 X79.355 Y100.898 E2.85880
G1 X79.811 Y100.898 E2.86331
G1 X86.015 Y107.102 E2.95005
G1 X86.471 Y107.102 E2.95455
G1 X80.267 Y100.898 E3.04129
G1 X80.723 Y100.898 E3.04580
G1 X86.927 Y107.102 E3.13254
G1 X87.383 Y107.102 E3.13705
G1 X81.179 Y100.898 E3.22379
G1 X81.635 Y100.898 E3.22830
G1 X87.839 Y107.102 E3.31504
G1 X88.295 Y107.102 E3.31955
G1 X82.091 Y100.898 E3.40629
G1 X82.547 Y100.898 E3.41079
G1 X88.751 Y107.102 E3.49753
G1 X89.207 Y107.102 E3.50204
G1 X83.003 Y100.898 E3.58878
G1 X83.459 Y100.898 E3.59329
G1 X89.663 Y107.102 E3.68003
G1 X90.119 Y107.102 E3.68454
G1 X83.915 Y100.898 E3.77128
G1 X84.371 Y100.898 E3.77578
G1 X90.575 Y107.102 E3.86252
G1 X91.031 Y107.102 E3.86703
