; generated by Slic3r 0.9.7 on 2014-01-05 at 15:57:17

; layer_height = 0.25
; perimeters = 3
; top_solid_layers = 3
; bottom_solid_layers = 3
; fill_density = 0.3
; perimeter_speed = 30
; infill_speed = 30
; travel_speed = 150
; scale = 1
; nozzle_diameter = 0.5
; filament_diameter = 2.9
; extrusion_multiplier = 0.81
; perimeters extrusion width = 0.40mm
; infill extrusion width = 0.40mm
; first layer extrusion width = 0.27mm

M107
M190 S70 ; wait for bed temperature to be reached
M104 S215 ; set temperature
G28 ; home all axes
M109 S215 ; wait for temperature to be reached
G90 ; use absolute coordinates
G21 ; set units to millimeters
G92 E0
M82 ; use absolute distances for extrusion
G1 F1500.000 E-1.50000
G92 E0
G1 Z0.250 F9000.000
G1 X56.750 Y54.150
G1 F1500.000 E1.50000
G1 X57.390 Y53.580 F1800.000 E1.50844
G1 X58.080 Y53.090 E1.51678
G1 X58.580 Y52.800 E1.52247
G1 X59.090 Y52.560 E1.52803
G1 X59.620 Y52.350 E1.53364
G1 X60.160 Y52.180 E1.53922
G1 X60.440 Y52.110 E1.54206
G1 X61.000 Y52.010 E1.54767
G1 X61.560 Y51.940 E1.55323
G1 X62.130 Y51.920 E1.55884
G1 X90.860 Y51.920 E1.84186
G1 X91.970 Y52.000 E1.85283
G1 X109.250 Y54.550 E2.02489
G1 X110.080 Y54.750 E2.03330
G1 X110.350 Y54.840 E2.03611
G1 X110.880 Y55.050 E2.04172
G1 X111.650 Y55.430 E2.05018
G1 X112.130 Y55.730 E2.05576
G1 X112.590 Y56.070 E2.06139
G1 X113.230 Y56.640 E2.06984
G1 X113.620 Y57.060 E2.07548
G1 X114.140 Y57.740 E2.08391
G1 X114.580 Y58.470 E2.09231
G1 X114.940 Y59.240 E2.10068
G1 X115.210 Y60.060 E2.10919
G1 X115.330 Y60.610 E2.11473
G1 X115.450 Y61.460 E2.12319
G1 X115.470 Y62.030 E2.12881
G1 X115.470 Y107.960 E2.58126
G1 X115.450 Y108.530 E2.58688
G1 X115.380 Y109.100 E2.59254
G1 X115.210 Y109.930 E2.60089
G1 X115.040 Y110.480 E2.60656
G1 X114.830 Y111.010 E2.61217
G1 X114.580 Y111.520 E2.61777
G1 X114.140 Y112.250 E2.62617
G1 X113.800 Y112.710 E2.63180
G1 X113.430 Y113.140 E2.63739
G1 X113.020 Y113.550 E2.64310
G1 X112.590 Y113.920 E2.64869
G1 X112.130 Y114.260 E2.65432
G1 X111.650 Y114.560 E2.65990
G1 X111.140 Y114.820 E2.66554
G1 X110.620 Y115.050 E2.67114
G1 X110.080 Y115.240 E2.67678
G1 X109.530 Y115.380 E2.68237
G1 X108.970 Y115.490 E2.68799
G1 X91.970 Y117.990 E2.85726
G1 X90.860 Y118.070 E2.86822
G1 X62.130 Y118.070 E3.15124
G1 X61.560 Y118.050 E3.15686
G1 X61.000 Y117.980 E3.16242
G1 X60.440 Y117.880 E3.16802
G1 X60.160 Y117.810 E3.17087
G1 X59.620 Y117.640 E3.17644
G1 X59.090 Y117.430 E3.18206
G1 X58.580 Y117.190 E3.18761
G1 X58.080 Y116.900 E3.19331
G1 X57.390 Y116.410 E3.20164
G1 X56.750 Y115.840 E3.21008
G1 X56.180 Y115.200 E3.21853
G1 X55.690 Y114.510 E3.22686
G1 X55.400 Y114.010 E3.23256
G1 X55.050 Y113.240 E3.24089
G1 X54.860 Y112.700 E3.24653
G1 X54.710 Y112.150 E3.25215
G1 X54.570 Y111.310 E3.26053
G1 X54.540 Y111.030 E3.26331
G1 X54.520 Y110.460 E3.26893
G1 X54.520 Y59.530 E3.77064
G1 X54.540 Y58.960 E3.77626
G1 X54.610 Y58.400 E3.78182
G1 X54.710 Y57.840 E3.78742
G1 X54.780 Y57.560 E3.79026
G1 X54.950 Y57.020 E3.79584
G1 X55.160 Y56.490 E3.80146
G1 X55.400 Y55.980 E3.80701
G1 X55.690 Y55.480 E3.81270
G1 X56.180 Y54.790 E3.82104
G1 X56.717 Y54.185 E3.82901
G1 X56.750 Y54.150 E3.82948
G1 X56.880 Y54.480 F9000.000
G1 X57.280 Y54.090 F1800.000 E3.83498
G1 X57.940 Y53.570 E3.84326
G1 X58.170 Y53.410 E3.84602
G1 X58.650 Y53.130 E3.85150
G1 X59.150 Y52.880 E3.85700
G1 X59.930 Y52.580 E3.86524
G1 X60.470 Y52.440 E3.87073
G1 X61.290 Y52.290 E3.87894
G1 X61.850 Y52.250 E3.88447
G1 X90.860 Y52.240 E4.17025
G1 X91.920 Y52.320 E4.18072
G1 X109.200 Y54.870 E4.35279
G1 X109.740 Y54.990 E4.35824
G1 X110.280 Y55.160 E4.36382
G1 X110.800 Y55.360 E4.36930
G1 X111.310 Y55.610 E4.37490
G1 X111.790 Y55.890 E4.38037
G1 X112.250 Y56.220 E4.38595
G1 X112.680 Y56.570 E4.39141
G1 X113.090 Y56.960 E4.39699
G1 X113.280 Y57.160 E4.39970
G1 X113.810 Y57.820 E4.40804
G1 X114.250 Y58.530 E4.41627
G1 X114.610 Y59.290 E4.42456
G1 X114.800 Y59.820 E4.43010
G1 X115.010 Y60.640 E4.43844
G1 X115.100 Y61.190 E4.44393
G1 X115.150 Y62.030 E4.45222
G1 X115.140 Y108.240 E4.90743
G1 X115.100 Y108.800 E4.91296
G1 X114.950 Y109.630 E4.92127
G1 X114.800 Y110.170 E4.92679
G1 X114.610 Y110.700 E4.93234
G1 X114.250 Y111.460 E4.94062
G1 X113.810 Y112.170 E4.94885
G1 X113.640 Y112.400 E4.95167
G1 X113.090 Y113.030 E4.95991
G1 X112.680 Y113.420 E4.96548
G1 X112.250 Y113.770 E4.97095
G1 X111.790 Y114.100 E4.97652
G1 X111.310 Y114.380 E4.98200
G1 X110.800 Y114.630 E4.98759
G1 X110.280 Y114.830 E4.99308
G1 X109.740 Y115.000 E4.99866
G1 X109.200 Y115.120 E5.00411
G1 X91.920 Y117.670 E5.17617
G1 X90.860 Y117.750 E5.18665
G1 X61.850 Y117.740 E5.47242
G1 X61.290 Y117.700 E5.47795
G1 X60.470 Y117.550 E5.48617
G1 X59.930 Y117.410 E5.49166
G1 X59.150 Y117.110 E5.49989
G1 X58.650 Y116.860 E5.50540
G1 X58.170 Y116.580 E5.51087
G1 X57.940 Y116.420 E5.51363
G1 X57.280 Y115.900 E5.52191
G1 X56.880 Y115.510 E5.52741
G1 X56.510 Y115.100 E5.53286
G1 X56.010 Y114.420 E5.54117
G1 X55.600 Y113.690 E5.54942
G1 X55.370 Y113.180 E5.55493
G1 X55.180 Y112.660 E5.56038
G1 X54.980 Y111.850 E5.56860
G1 X54.890 Y111.300 E5.57409
G1 X54.840 Y110.460 E5.58238
G1 X54.850 Y59.250 E6.08685
G1 X54.890 Y58.690 E6.09238
G1 X54.980 Y58.140 E6.09787
G1 X55.180 Y57.330 E6.10609
G1 X55.370 Y56.810 E6.11154
G1 X55.600 Y56.300 E6.11705
G1 X56.010 Y55.570 E6.12530
G1 X56.510 Y54.890 E6.13362
G1 X56.847 Y54.515 E6.13858
G1 X56.880 Y54.480 E6.13906
G1 X57.020 Y54.800 F9000.000
G1 X57.610 Y54.230 F1800.000 E6.14714
G1 X58.260 Y53.740 E6.15516
G1 X58.730 Y53.450 E6.16060
G1 X59.210 Y53.210 E6.16588
G1 X59.720 Y53.000 E6.17132
G1 X60.500 Y52.760 E6.17936
G1 X61.310 Y52.610 E6.18747
G1 X61.860 Y52.570 E6.19290
G1 X90.860 Y52.570 E6.47858
G1 X91.870 Y52.640 E6.48856
G1 X108.870 Y55.140 E6.65782
G1 X109.410 Y55.240 E6.66323
G1 X110.210 Y55.470 E6.67143
G1 X110.470 Y55.570 E6.67418
G1 X110.970 Y55.800 E6.67960
G1 X111.450 Y56.060 E6.68498
G1 X111.910 Y56.370 E6.69044
G1 X112.350 Y56.700 E6.69586
G1 X112.950 Y57.270 E6.70401
G1 X113.310 Y57.690 E6.70946
G1 X113.630 Y58.130 E6.71482
G1 X113.920 Y58.600 E6.72026
G1 X114.290 Y59.350 E6.72850
G1 X114.480 Y59.860 E6.73386
G1 X114.690 Y60.660 E6.74201
G1 X114.740 Y60.930 E6.74471
G1 X114.820 Y61.750 E6.75283
G1 X114.820 Y108.240 E7.21080
G1 X114.740 Y109.060 E7.21892
G1 X114.690 Y109.330 E7.22162
G1 X114.480 Y110.130 E7.22977
G1 X114.290 Y110.640 E7.23513
G1 X113.920 Y111.390 E7.24337
G1 X113.630 Y111.860 E7.24881
G1 X113.310 Y112.300 E7.25417
G1 X112.950 Y112.720 E7.25962
G1 X112.350 Y113.290 E7.26777
G1 X111.910 Y113.620 E7.27319
G1 X111.450 Y113.930 E7.27866
G1 X110.970 Y114.190 E7.28403
G1 X110.470 Y114.420 E7.28945
G1 X110.210 Y114.520 E7.29220
G1 X109.410 Y114.750 E7.30040
G1 X108.870 Y114.850 E7.30581
G1 X91.870 Y117.350 E7.47508
G1 X90.860 Y117.420 E7.48505
G1 X61.860 Y117.420 E7.77073
G1 X61.310 Y117.380 E7.77616
G1 X60.500 Y117.230 E7.78428
G1 X59.720 Y116.990 E7.79231
G1 X59.210 Y116.780 E7.79775
G1 X58.730 Y116.540 E7.80303
G1 X58.260 Y116.250 E7.80848
G1 X57.610 Y115.760 E7.81649
G1 X57.020 Y115.190 E7.82458
G1 X56.660 Y114.770 E7.83002
G1 X56.190 Y114.100 E7.83809
G1 X56.050 Y113.860 E7.84082
G1 X55.700 Y113.120 E7.84889
G1 X55.510 Y112.610 E7.85425
G1 X55.300 Y111.820 E7.86230
G1 X55.210 Y111.280 E7.86769
G1 X55.170 Y110.730 E7.87313
G1 X55.170 Y59.260 E8.38016
G1 X55.210 Y58.710 E8.38559
G1 X55.300 Y58.170 E8.39098
G1 X55.430 Y57.640 E8.39636
G1 X55.700 Y56.870 E8.40440
G1 X55.810 Y56.610 E8.40718
G1 X56.190 Y55.890 E8.41520
G1 X56.660 Y55.220 E8.42326
G1 X56.988 Y54.836 E8.42823
G1 X57.020 Y54.800 E8.42871
G1 X57.340 Y54.930 F9000.000
G1 X57.930 Y54.380 F1800.000 E8.43665
G1 X58.360 Y54.060 E8.44193
G1 X58.810 Y53.780 E8.44716
G1 X59.280 Y53.530 E8.45240
G1 X59.770 Y53.320 E8.45765
G1 X60.540 Y53.080 E8.46560
G1 X61.060 Y52.970 E8.47083
G1 X61.860 Y52.890 E8.47875
G1 X90.860 Y52.890 E8.76443
G1 X91.830 Y52.960 E8.77401
G1 X109.090 Y55.500 E8.94587
G1 X109.620 Y55.620 E8.95122
G1 X109.880 Y55.700 E8.95390
G1 X110.390 Y55.890 E8.95926
G1 X110.880 Y56.110 E8.96456
G1 X111.580 Y56.520 E8.97255
G1 X111.800 Y56.680 E8.97523
G1 X112.220 Y57.020 E8.98055
G1 X112.610 Y57.390 E8.98585
G1 X112.970 Y57.790 E8.99115
G1 X113.300 Y58.220 E8.99649
G1 X113.730 Y58.910 E9.00450
G1 X113.960 Y59.400 E9.00983
G1 X114.150 Y59.900 E9.01510
G1 X114.310 Y60.420 E9.02046
G1 X114.370 Y60.690 E9.02318
G1 X114.450 Y61.220 E9.02846
G1 X114.500 Y61.760 E9.03380
G1 X114.500 Y108.230 E9.49158
G1 X114.450 Y108.770 E9.49692
G1 X114.370 Y109.300 E9.50220
G1 X114.310 Y109.570 E9.50493
G1 X114.150 Y110.090 E9.51029
G1 X113.960 Y110.590 E9.51555
G1 X113.730 Y111.080 E9.52089
G1 X113.450 Y111.540 E9.52619
G1 X113.140 Y111.990 E9.53157
G1 X112.800 Y112.400 E9.53682
G1 X112.420 Y112.790 E9.54219
G1 X112.010 Y113.150 E9.54756
G1 X111.580 Y113.470 E9.55284
G1 X111.120 Y113.750 E9.55815
G1 X110.630 Y114.000 E9.56356
G1 X110.130 Y114.200 E9.56887
G1 X109.620 Y114.370 E9.57417
G1 X109.090 Y114.490 E9.57952
G1 X91.830 Y117.030 E9.75138
G1 X90.860 Y117.100 E9.76096
G1 X61.860 Y117.100 E10.04664
G1 X61.060 Y117.020 E10.05456
G1 X60.540 Y116.910 E10.05979
G1 X59.770 Y116.670 E10.06774
G1 X59.280 Y116.460 E10.07299
G1 X58.810 Y116.210 E10.07823
G1 X58.360 Y115.930 E10.08345
G1 X57.930 Y115.610 E10.08873
G1 X57.340 Y115.060 E10.09668
G1 X56.980 Y114.660 E10.10198
G1 X56.660 Y114.230 E10.10726
G1 X56.250 Y113.550 E10.11508
G1 X56.020 Y113.060 E10.12042
G1 X55.920 Y112.820 E10.12298
G1 X55.750 Y112.310 E10.12827
G1 X55.620 Y111.790 E10.13355
G1 X55.570 Y111.530 E10.13616
G1 X55.490 Y110.730 E10.14408
G1 X55.490 Y59.260 E10.65111
G1 X55.570 Y58.460 E10.65903
G1 X55.620 Y58.200 E10.66164
G1 X55.750 Y57.680 E10.66692
G1 X55.920 Y57.170 E10.67222
G1 X56.020 Y56.930 E10.67478
G1 X56.250 Y56.440 E10.68011
G1 X56.660 Y55.760 E10.68793
G1 X56.980 Y55.330 E10.69321
G1 X57.308 Y54.966 E10.69804
G1 X57.340 Y54.930 E10.69851
G1 X57.660 Y55.060 F9000.000
G1 X58.040 Y54.710 F1800.000 E10.70360
G1 X58.670 Y54.240 E10.71135
G1 X59.120 Y53.970 E10.71651
G1 X59.590 Y53.740 E10.72167
G1 X60.080 Y53.550 E10.72685
G1 X60.830 Y53.340 E10.73452
G1 X61.090 Y53.290 E10.73713
G1 X61.870 Y53.210 E10.74485
G1 X90.860 Y53.210 E11.03043
G1 X91.780 Y53.280 E11.03952
G1 X108.780 Y55.780 E11.20879
G1 X109.300 Y55.870 E11.21399
G1 X110.060 Y56.100 E11.22181
G1 X110.550 Y56.310 E11.22706
G1 X111.020 Y56.550 E11.23226
G1 X111.680 Y56.990 E11.24007
G1 X112.090 Y57.330 E11.24532
G1 X112.470 Y57.700 E11.25054
G1 X112.810 Y58.100 E11.25572
G1 X113.270 Y58.750 E11.26356
G1 X113.520 Y59.220 E11.26880
G1 X113.740 Y59.700 E11.27401
G1 X113.910 Y60.200 E11.27921
G1 X114.040 Y60.720 E11.28449
G1 X114.130 Y61.240 E11.28969
G1 X114.180 Y61.770 E11.29493
G1 X114.180 Y108.220 E11.75251
G1 X114.130 Y108.750 E11.75775
G1 X114.040 Y109.270 E11.76295
G1 X113.910 Y109.790 E11.76823
G1 X113.740 Y110.290 E11.77344
G1 X113.520 Y110.770 E11.77864
G1 X113.270 Y111.240 E11.78388
G1 X112.970 Y111.680 E11.78913
G1 X112.470 Y112.290 E11.79690
G1 X112.090 Y112.660 E11.80212
G1 X111.680 Y113.000 E11.80737
G1 X111.020 Y113.440 E11.81518
G1 X110.550 Y113.680 E11.82038
G1 X110.060 Y113.890 E11.82563
G1 X109.300 Y114.120 E11.83345
G1 X108.780 Y114.210 E11.83865
G1 X91.780 Y116.710 E12.00792
G1 X90.860 Y116.780 E12.01701
G1 X61.870 Y116.780 E12.30259
G1 X61.090 Y116.700 E12.31031
G1 X60.830 Y116.650 E12.31292
G1 X60.080 Y116.440 E12.32060
G1 X59.590 Y116.250 E12.32577
G1 X59.120 Y116.020 E12.33093
G1 X58.670 Y115.750 E12.33610
G1 X58.040 Y115.280 E12.34384
G1 X57.660 Y114.930 E12.34893
G1 X57.310 Y114.550 E12.35402
G1 X56.840 Y113.920 E12.36176
G1 X56.570 Y113.470 E12.36693
G1 X56.340 Y113.000 E12.37209
G1 X56.150 Y112.510 E12.37726
G1 X55.940 Y111.760 E12.38493
G1 X55.890 Y111.500 E12.38754
G1 X55.810 Y110.720 E12.39527
G1 X55.810 Y59.270 E12.90210
G1 X55.890 Y58.490 E12.90982
G1 X55.940 Y58.230 E12.91243
G1 X56.150 Y57.480 E12.92010
G1 X56.340 Y56.990 E12.92528
G1 X56.570 Y56.520 E12.93044
G1 X56.840 Y56.070 E12.93561
G1 X57.140 Y55.650 E12.94069
G1 X57.627 Y55.095 E12.94796
G1 X57.660 Y55.060 E12.94844
G1 F1500.000 E11.44844
G92 E0
G1 X88.779 Y109.821 F9000.000
G1 F1500.000 E1.50000
G1 X88.779 Y100.679 F1800.000 E1.59006
G1 X105.779 Y100.679 E1.75753
G1 X105.779 Y69.321 E2.06643
G1 X88.779 Y69.321 E2.23390
G1 X88.779 Y60.179 E2.32396
G1 X90.221 Y60.179 E2.33817
G1 X90.221 Y62.679 E2.36279
G1 X107.221 Y62.679 E2.53026
G1 X107.221 Y107.321 E2.97003
G1 X90.221 Y107.321 E3.13750
G1 X90.221 Y109.821 E3.16212
G1 X88.827 Y109.821 E3.17586
G1 X88.779 Y109.821 E3.17633
G1 X88.458 Y110.142 F9000.000
G1 X88.458 Y100.358 F1800.000 E3.27272
G1 X105.458 Y100.358 E3.44019
G1 X105.458 Y69.642 E3.74276
G1 X88.458 Y69.642 E3.91023
G1 X88.458 Y59.858 E4.00662
G1 X90.542 Y59.858 E4.02716
G1 X90.542 Y62.358 E4.05178
G1 X107.542 Y62.358 E4.21925
G1 X107.542 Y107.642 E4.66535
G1 X90.542 Y107.642 E4.83282
G1 X90.542 Y110.142 E4.85745
G1 X88.506 Y110.142 E4.87751
G1 X88.458 Y110.142 E4.87798
G1 X88.136 Y110.464 F9000.000
G1 X88.136 Y100.036 F1800.000 E4.98070
G1 X105.136 Y100.036 E5.14817
G1 X105.136 Y69.964 E5.44441
G1 X88.136 Y69.964 E5.61188
G1 X88.136 Y59.536 E5.71460
G1 X90.864 Y59.536 E5.74147
G1 X90.864 Y62.036 E5.76610
G1 X107.864 Y62.036 E5.93356
G1 X107.864 Y107.964 E6.38600
G1 X90.864 Y107.964 E6.55346
G1 X90.864 Y110.464 E6.57809
G1 X88.184 Y110.464 E6.60448
G1 X88.136 Y110.464 E6.60496
G1 X89.203 Y109.602 F9000.000
G1 X88.998 Y109.397 F1800.000 E6.60782
G1 X88.998 Y108.941 E6.61233
G1 X89.659 Y109.602 E6.62157
G1 X90.002 Y109.490 E6.62514
G1 X88.998 Y108.485 E6.63918
G1 X88.998 Y108.029 E6.64369
G1 X90.002 Y109.034 E6.65773
G1 X90.002 Y108.578 E6.66223
G1 X88.998 Y107.573 E6.67628
G1 X88.998 Y107.117 E6.68078
G1 X90.002 Y108.122 E6.69482
G1 X90.002 Y107.666 E6.69933
G1 X88.998 Y106.661 E6.71337
G1 X88.998 Y106.205 E6.71788
G1 X90.002 Y107.210 E6.73192
G1 X90.351 Y107.102 F9000.000
G1 X88.998 Y105.749 F1800.000 E6.75084
G1 X88.998 Y105.293 E6.75534
G1 X90.807 Y107.102 E6.78063
G1 X91.263 Y107.102 E6.78514
G1 X88.998 Y104.837 E6.81681
G1 X88.998 Y104.381 E6.82132
G1 X91.719 Y107.102 E6.85936
G1 X92.175 Y107.102 E6.86387
G1 X88.998 Y103.925 E6.90828
G1 X88.998 Y103.469 E6.91279
G1 X92.631 Y107.102 E6.96358
G1 X93.087 Y107.102 E6.96809
G1 X88.998 Y103.013 E7.02526
G1 X88.998 Y102.557 E7.02976
G1 X93.543 Y107.102 E7.09331
G1 X93.999 Y107.102 E7.09781
G1 X88.998 Y102.101 E7.16773
G1 X88.998 Y101.645 E7.17224
G1 X94.455 Y107.102 E7.24853
G1 X94.911 Y107.102 E7.25304
G1 X88.998 Y101.189 E7.33571
G1 X89.163 Y100.898 E7.33902
G1 X95.367 Y107.102 E7.42576
G1 X95.823 Y107.102 E7.43027
G1 X89.619 Y100.898 E7.51701
G1 X90.075 Y100.898 E7.52151
G1 X96.279 Y107.102 E7.60825
G1 X96.735 Y107.102 E7.61276
G1 X90.531 Y100.898 E7.69950
G1 X90.987 Y100.898 E7.70401
G1 X97.191 Y107.102 E7.79075
G1 X97.647 Y107.102 E7.79526
G1 X91.443 Y100.898 E7.88200
G1 X91.899 Y100.898 E7.88651
G1 X98.103 Y107.102 E7.97325
G1 X98.559 Y107.102 E7.97775
G1 X92.355 Y100.898 E8.06449
G1 X92.811 Y100.898 E8.06900
G1 X99.015 Y107.102 E8.15574
G1 X99.471 Y107.102 E8.16025
G1 X93.267 Y100.898 E8.24699
G1 X93.723 Y100.898 E8.25150
G1 X99.927 Y107.102 E8.33824
G1 X100.383 Y107.102 E8.34275
G1 X94.179 Y100.898 E8.42949
G1 X94.635 Y100.898 E8.43399
G1 X100.839 Y107.102 E8.52073
G1 X101.295 Y107.102 E8.52524
G1 X95.091 Y100.898 E8.61198
G1 X95.547 Y100.898 E8.61649
G1 X101.751 Y107.102 E8.70323
G1 X102.207 Y107.102 E8.70774
G1 X96.003 Y100.898 E8.79448
G1 X96.459 Y100.898 E8.79898
G1 X102.663 Y107.102 E8.88572
G1 X103.119 Y107.102 E8.89023
G1 X96.915 Y100.898 E8.97697
G1 X97.371 Y100.898 E8.98148
