; generated by Slic3r 0.9.7 on 2014-01-03 at 23:09:22

; layer_height = 0.25
; perimeters = 3
; top_solid_layers = 3
; bottom_solid_layers = 3
; fill_density = 1
; perimeter_speed = 20
; infill_speed = 20
; travel_speed = 150
; scale = 1
; nozzle_diameter = 0.5
; filament_diameter = 2.9
; extrusion_multiplier = 0.81
; perimeters extrusion width = 0.40mm
; infill extrusion width = 0.40mm
; first layer extrusion width = 0.27mm

M107
M190 S70 ; wait for bed temperature to be reached
M104 S215 ; set temperature
G28 ; home all axes
M109 S215 ; wait for temperature to be reached
G90 ; use absolute coordinates
G21 ; set units to millimeters
G92 E0
M82 ; use absolute distances for extrusion
G1 F1500.000 E-1.50000
G92 E0
G1 Z0.250 F9000.000
G1 X44.640 Y68.866
G1 F1500.000 E1.50000
G1 X49.030 Y65.876 F1200.000 E1.55168
G1 X49.750 Y65.436 E1.55989
G1 X50.000 Y65.316 E1.56259
G1 X51.020 Y64.866 E1.57344
G1 X51.320 Y64.756 E1.57655
G1 X51.910 Y64.586 E1.58253
G1 X52.730 Y64.406 E1.59069
G1 X53.350 Y64.296 E1.59682
G1 X54.300 Y64.236 E1.60608
G1 X111.880 Y64.246 E2.16637
G1 X112.510 Y64.296 E2.17252
G1 X113.130 Y64.406 E2.17865
G1 X113.650 Y64.516 E2.18382
G1 X114.600 Y64.776 E2.19340
G1 X123.220 Y67.816 E2.28234
G1 X124.370 Y68.296 E2.29447
G1 X125.040 Y68.666 E2.30192
G1 X125.660 Y69.086 E2.30921
G1 X125.990 Y69.336 E2.31323
G1 X126.960 Y70.206 E2.32591
G1 X127.240 Y70.506 E2.32991
G1 X127.710 Y71.076 E2.33709
G1 X127.930 Y71.376 E2.34071
G1 X128.320 Y72.006 E2.34792
G1 X128.650 Y72.606 E2.35459
G1 X128.890 Y73.116 E2.36007
G1 X129.220 Y74.036 E2.36958
G1 X129.400 Y74.696 E2.37624
G1 X129.530 Y75.366 E2.38288
G1 X129.610 Y76.106 E2.39012
G1 X129.650 Y76.846 E2.39733
G1 X129.650 Y93.146 E2.55594
G1 X129.610 Y93.886 E2.56315
G1 X129.530 Y94.646 E2.57059
G1 X129.400 Y95.336 E2.57742
G1 X129.310 Y95.676 E2.58084
G1 X128.970 Y96.676 E2.59112
G1 X128.630 Y97.426 E2.59914
G1 X128.130 Y98.326 E2.60915
G1 X127.710 Y98.926 E2.61628
G1 X127.240 Y99.486 E2.62339
G1 X126.960 Y99.786 E2.62739
G1 X126.300 Y100.406 E2.63620
G1 X125.350 Y101.116 E2.64774
G1 X120.810 Y104.226 E2.70129
G1 X120.110 Y104.616 E2.70908
G1 X119.040 Y105.096 E2.72050
G1 X118.730 Y105.216 E2.72373
G1 X118.100 Y105.406 E2.73013
G1 X117.260 Y105.586 E2.73849
G1 X116.640 Y105.696 E2.74462
G1 X115.690 Y105.756 E2.75388
G1 X58.110 Y105.746 E3.31417
G1 X57.480 Y105.696 E3.32032
G1 X56.860 Y105.586 E3.32645
G1 X56.340 Y105.476 E3.33162
G1 X55.390 Y105.216 E3.34120
G1 X46.770 Y102.176 E3.43014
G1 X46.190 Y101.946 E3.43621
G1 X45.810 Y101.776 E3.44027
G1 X44.970 Y101.336 E3.44949
G1 X44.450 Y100.986 E3.45559
G1 X43.660 Y100.386 E3.46524
G1 X43.440 Y100.196 E3.46807
G1 X42.750 Y99.486 E3.47771
G1 X42.510 Y99.206 E3.48130
G1 X42.060 Y98.616 E3.48852
G1 X41.670 Y97.986 E3.49573
G1 X41.210 Y97.126 E3.50522
G1 X40.900 Y96.346 E3.51338
G1 X40.770 Y95.956 E3.51738
G1 X40.590 Y95.296 E3.52404
G1 X40.460 Y94.626 E3.53068
G1 X40.380 Y93.886 E3.53792
G1 X40.340 Y93.146 E3.54513
G1 X40.340 Y76.846 E3.70374
G1 X40.380 Y76.106 E3.71095
G1 X40.460 Y75.366 E3.71820
G1 X40.670 Y74.366 E3.72814
G1 X40.900 Y73.646 E3.73549
G1 X41.100 Y73.116 E3.74101
G1 X41.340 Y72.606 E3.74649
G1 X41.860 Y71.686 E3.75677
G1 X42.280 Y71.076 E3.76398
G1 X42.750 Y70.506 E3.77117
G1 X43.030 Y70.206 E3.77516
G1 X44.000 Y69.336 E3.78784
G1 X44.601 Y68.893 E3.79511
G1 X44.640 Y68.866 E3.79557
G1 X44.820 Y69.126 F9000.000
G1 X49.430 Y65.986 F1200.000 E3.84984
G1 X50.140 Y65.596 E3.85773
G1 X51.140 Y65.166 E3.86832
G1 X51.700 Y64.966 E3.87410
G1 X53.090 Y64.656 E3.88796
G1 X53.690 Y64.586 E3.89384
G1 X54.300 Y64.556 E3.89978
G1 X111.860 Y64.566 E4.45988
G1 X112.770 Y64.656 E4.46877
G1 X113.580 Y64.826 E4.47683
G1 X114.500 Y65.076 E4.48610
G1 X123.120 Y68.116 E4.57505
G1 X123.900 Y68.436 E4.58325
G1 X124.560 Y68.746 E4.59034
G1 X125.170 Y69.126 E4.59734
G1 X125.800 Y69.596 E4.60499
G1 X126.720 Y70.426 E4.61704
G1 X127.240 Y70.986 E4.62448
G1 X127.460 Y71.266 E4.62794
G1 X127.870 Y71.846 E4.63485
G1 X128.370 Y72.756 E4.64496
G1 X128.700 Y73.496 E4.65284
G1 X128.920 Y74.136 E4.65943
G1 X129.090 Y74.766 E4.66578
G1 X129.220 Y75.406 E4.67213
G1 X129.300 Y76.136 E4.67928
G1 X129.330 Y76.846 E4.68619
G1 X129.330 Y93.146 E4.84480
G1 X129.300 Y93.856 E4.85172
G1 X129.260 Y94.266 E4.85572
G1 X129.160 Y94.926 E4.86222
G1 X129.090 Y95.256 E4.86550
G1 X128.900 Y95.906 E4.87209
G1 X128.670 Y96.566 E4.87889
G1 X128.470 Y97.046 E4.88395
G1 X128.040 Y97.856 E4.89288
G1 X127.660 Y98.446 E4.89971
G1 X127.240 Y99.006 E4.90652
G1 X126.520 Y99.776 E4.91677
G1 X126.310 Y99.976 E4.91960
G1 X125.640 Y100.526 E4.92803
G1 X120.850 Y103.816 E4.98458
G1 X120.200 Y104.216 E4.99200
G1 X118.920 Y104.806 E5.00572
G1 X118.320 Y105.016 E5.01190
G1 X116.900 Y105.336 E5.02607
G1 X116.300 Y105.406 E5.03195
G1 X115.690 Y105.436 E5.03789
G1 X58.130 Y105.426 E5.59798
G1 X57.220 Y105.336 E5.60688
G1 X56.410 Y105.166 E5.61493
G1 X55.490 Y104.916 E5.62421
G1 X46.870 Y101.876 E5.71315
G1 X46.320 Y101.656 E5.71891
G1 X45.670 Y101.356 E5.72588
G1 X45.400 Y101.216 E5.72884
G1 X44.630 Y100.726 E5.73772
G1 X43.870 Y100.146 E5.74702
G1 X43.460 Y99.766 E5.75246
G1 X42.750 Y99.006 E5.76258
G1 X42.530 Y98.726 E5.76605
G1 X42.120 Y98.146 E5.77296
G1 X41.620 Y97.236 E5.78306
G1 X41.290 Y96.496 E5.79095
G1 X41.070 Y95.856 E5.79753
G1 X40.900 Y95.226 E5.80388
G1 X40.770 Y94.586 E5.81024
G1 X40.690 Y93.856 E5.81738
G1 X40.660 Y93.146 E5.82430
G1 X40.660 Y76.846 E5.98291
G1 X40.690 Y76.136 E5.98982
G1 X40.770 Y75.406 E5.99697
G1 X40.980 Y74.446 E6.00653
G1 X41.290 Y73.496 E6.01625
G1 X41.620 Y72.756 E6.02414
G1 X42.120 Y71.846 E6.03424
G1 X42.750 Y70.986 E6.04461
G1 X43.270 Y70.426 E6.05205
G1 X44.190 Y69.596 E6.06411
G1 X44.782 Y69.154 E6.07129
G1 X44.820 Y69.126 E6.07176
G1 X45.000 Y69.386 F9000.000
G1 X49.390 Y66.396 F1200.000 E6.12344
G1 X50.050 Y65.996 E6.13095
G1 X50.510 Y65.776 E6.13591
G1 X51.260 Y65.456 E6.14384
G1 X51.520 Y65.356 E6.14656
G1 X52.070 Y65.196 E6.15213
G1 X53.150 Y64.966 E6.16287
G1 X54.010 Y64.876 E6.17129
G1 X111.850 Y64.876 E6.73411
G1 X112.710 Y64.966 E6.74252
G1 X113.520 Y65.136 E6.75057
G1 X114.390 Y65.376 E6.75935
G1 X123.010 Y68.416 E6.84830
G1 X123.780 Y68.726 E6.85637
G1 X124.400 Y69.026 E6.86307
G1 X125.000 Y69.396 E6.86993
G1 X125.280 Y69.596 E6.87328
G1 X125.610 Y69.846 E6.87731
G1 X126.490 Y70.646 E6.88888
G1 X127.000 Y71.196 E6.89618
G1 X127.210 Y71.456 E6.89943
G1 X127.600 Y72.016 E6.90607
G1 X127.970 Y72.666 E6.91335
G1 X128.200 Y73.126 E6.91836
G1 X128.400 Y73.606 E6.92342
G1 X128.620 Y74.236 E6.92991
G1 X128.790 Y74.836 E6.93598
G1 X128.900 Y75.456 E6.94210
G1 X128.980 Y76.166 E6.94906
G1 X129.010 Y76.846 E6.95568
G1 X129.010 Y93.146 E7.11429
G1 X128.980 Y93.826 E7.12091
G1 X128.900 Y94.546 E7.12796
G1 X128.850 Y94.866 E7.13111
G1 X128.700 Y95.496 E7.13741
G1 X128.460 Y96.216 E7.14480
G1 X128.280 Y96.686 E7.14970
G1 X128.070 Y97.136 E7.15453
G1 X127.590 Y97.986 E7.16403
G1 X127.210 Y98.536 E7.17053
G1 X127.000 Y98.796 E7.17378
G1 X126.490 Y99.346 E7.18108
G1 X125.890 Y99.926 E7.18920
G1 X125.450 Y100.266 E7.19461
G1 X120.670 Y103.556 E7.25108
G1 X120.050 Y103.936 E7.25815
G1 X118.800 Y104.506 E7.27152
G1 X118.230 Y104.706 E7.27740
G1 X117.650 Y104.856 E7.28323
G1 X116.840 Y105.026 E7.29128
G1 X115.980 Y105.116 E7.29970
G1 X58.140 Y105.116 E7.86252
G1 X57.280 Y105.026 E7.87093
G1 X56.470 Y104.856 E7.87898
G1 X55.600 Y104.616 E7.88776
G1 X46.980 Y101.576 E7.97671
G1 X46.070 Y101.196 E7.98630
G1 X45.550 Y100.936 E7.99196
G1 X45.060 Y100.636 E7.99755
G1 X44.820 Y100.466 E8.00041
G1 X44.280 Y100.066 E8.00695
G1 X43.870 Y99.726 E8.01213
G1 X42.990 Y98.796 E8.02459
G1 X42.780 Y98.536 E8.02784
G1 X42.390 Y97.976 E8.03448
G1 X42.020 Y97.326 E8.04176
G1 X41.790 Y96.866 E8.04677
G1 X41.590 Y96.386 E8.05183
G1 X41.370 Y95.756 E8.05832
G1 X41.200 Y95.156 E8.06439
G1 X41.090 Y94.536 E8.07051
G1 X41.010 Y93.826 E8.07747
G1 X40.980 Y93.146 E8.08409
G1 X40.980 Y76.846 E8.24270
G1 X41.010 Y76.166 E8.24932
G1 X41.140 Y75.146 E8.25933
G1 X41.280 Y74.536 E8.26542
G1 X41.590 Y73.606 E8.27496
G1 X41.900 Y72.896 E8.28250
G1 X42.390 Y72.016 E8.29230
G1 X42.780 Y71.456 E8.29894
G1 X42.990 Y71.196 E8.30219
G1 X43.500 Y70.646 E8.30949
G1 X44.380 Y69.846 E8.32106
G1 X44.961 Y69.414 E8.32811
G1 X45.000 Y69.386 E8.32857
G1 X45.180 Y69.656 F9000.000
G1 X49.770 Y66.526 F1200.000 E8.38263
G1 X50.420 Y66.166 E8.38986
G1 X51.120 Y65.856 E8.39731
G1 X51.620 Y65.656 E8.40255
G1 X51.880 Y65.576 E8.40520
G1 X52.410 Y65.446 E8.41051
G1 X53.200 Y65.286 E8.41835
G1 X54.020 Y65.196 E8.42638
G1 X111.840 Y65.196 E8.98900
G1 X112.390 Y65.246 E8.99437
G1 X112.930 Y65.336 E8.99970
G1 X113.450 Y65.446 E9.00487
G1 X114.290 Y65.676 E9.01335
G1 X122.910 Y68.716 E9.10229
G1 X123.960 Y69.156 E9.11337
G1 X124.250 Y69.306 E9.11654
G1 X124.820 Y69.656 E9.12305
G1 X125.420 Y70.096 E9.13029
G1 X126.260 Y70.856 E9.14132
G1 X126.760 Y71.396 E9.14848
G1 X126.960 Y71.656 E9.15167
G1 X127.330 Y72.186 E9.15796
G1 X127.810 Y73.046 E9.16754
G1 X128.010 Y73.486 E9.17224
G1 X128.400 Y74.626 E9.18397
G1 X128.540 Y75.206 E9.18977
G1 X128.590 Y75.496 E9.19264
G1 X128.660 Y76.206 E9.19958
G1 X128.690 Y76.846 E9.20581
G1 X128.690 Y93.146 E9.36442
G1 X128.660 Y93.786 E9.37066
G1 X128.590 Y94.506 E9.37770
G1 X128.540 Y94.806 E9.38066
G1 X128.390 Y95.406 E9.38667
G1 X128.080 Y96.336 E9.39621
G1 X127.890 Y96.776 E9.40088
G1 X127.670 Y97.206 E9.40558
G1 X127.320 Y97.816 E9.41242
G1 X126.950 Y98.346 E9.41871
G1 X126.540 Y98.836 E9.42493
G1 X126.080 Y99.326 E9.43147
G1 X125.270 Y100.006 E9.44176
G1 X120.300 Y103.416 E9.50041
G1 X119.890 Y103.656 E9.50503
G1 X119.480 Y103.856 E9.50947
G1 X118.680 Y104.216 E9.51800
G1 X118.140 Y104.406 E9.52358
G1 X117.860 Y104.486 E9.52641
G1 X116.790 Y104.706 E9.53704
G1 X115.970 Y104.796 E9.54507
G1 X58.150 Y104.796 E10.10769
G1 X57.600 Y104.746 E10.11306
G1 X57.060 Y104.656 E10.11839
G1 X56.540 Y104.546 E10.12356
G1 X55.700 Y104.316 E10.13204
G1 X47.080 Y101.276 E10.22098
G1 X46.200 Y100.906 E10.23027
G1 X45.710 Y100.656 E10.23562
G1 X45.230 Y100.366 E10.24108
G1 X44.680 Y99.976 E10.24764
G1 X44.280 Y99.656 E10.25262
G1 X43.730 Y99.136 E10.25999
G1 X43.230 Y98.596 E10.26715
G1 X42.660 Y97.806 E10.27663
G1 X42.180 Y96.946 E10.28621
G1 X41.980 Y96.506 E10.29091
G1 X41.590 Y95.366 E10.30264
G1 X41.510 Y95.086 E10.30547
G1 X41.400 Y94.496 E10.31131
G1 X41.330 Y93.786 E10.31825
G1 X41.300 Y93.146 E10.32449
G1 X41.300 Y76.846 E10.48310
G1 X41.330 Y76.206 E10.48933
G1 X41.400 Y75.496 E10.49627
G1 X41.510 Y74.906 E10.50211
G1 X41.890 Y73.716 E10.51427
G1 X42.180 Y73.046 E10.52137
G1 X42.660 Y72.186 E10.53095
G1 X43.230 Y71.396 E10.54043
G1 X43.730 Y70.856 E10.54759
G1 X44.570 Y70.096 E10.55862
G1 X45.141 Y69.683 E10.56547
G1 X45.180 Y69.656 E10.56594
G1 X45.350 Y69.916 F9000.000
G1 X49.740 Y66.926 F1200.000 E10.61762
G1 X50.140 Y66.676 E10.62221
G1 X50.550 Y66.456 E10.62674
G1 X51.490 Y66.046 E10.63672
G1 X52.220 Y65.816 E10.64416
G1 X52.990 Y65.646 E10.65184
G1 X53.510 Y65.556 E10.65697
G1 X53.770 Y65.526 E10.65952
G1 X54.300 Y65.506 E10.66468
G1 X111.560 Y65.506 E11.22185
G1 X112.090 Y65.526 E11.22701
G1 X112.610 Y65.596 E11.23212
G1 X113.390 Y65.756 E11.23987
G1 X114.180 Y65.976 E11.24785
G1 X122.800 Y69.016 E11.33679
G1 X123.530 Y69.316 E11.34447
G1 X124.100 Y69.586 E11.35061
G1 X124.640 Y69.916 E11.35676
G1 X124.890 Y70.096 E11.35976
G1 X125.220 Y70.346 E11.36379
G1 X126.030 Y71.076 E11.37440
G1 X126.710 Y71.846 E11.38440
G1 X127.060 Y72.356 E11.39042
G1 X127.210 Y72.616 E11.39334
G1 X127.520 Y73.186 E11.39965
G1 X127.810 Y73.826 E11.40649
G1 X128.100 Y74.706 E11.41550
G1 X128.170 Y74.986 E11.41831
G1 X128.270 Y75.536 E11.42375
G1 X128.350 Y76.236 E11.43061
G1 X128.380 Y76.846 E11.43655
G1 X128.380 Y93.146 E11.59516
G1 X128.350 Y93.756 E11.60110
G1 X128.270 Y94.456 E11.60796
G1 X128.090 Y95.316 E11.61651
G1 X127.700 Y96.436 E11.62805
G1 X127.500 Y96.846 E11.63248
G1 X127.050 Y97.646 E11.64142
G1 X126.700 Y98.156 E11.64744
G1 X126.030 Y98.916 E11.65729
G1 X125.670 Y99.276 E11.66225
G1 X125.080 Y99.746 E11.66959
G1 X120.310 Y103.026 E11.72592
G1 X119.940 Y103.266 E11.73021
G1 X119.550 Y103.476 E11.73452
G1 X118.310 Y104.016 E11.74768
G1 X117.780 Y104.176 E11.75307
G1 X117.000 Y104.346 E11.76083
G1 X116.480 Y104.436 E11.76597
G1 X116.220 Y104.466 E11.76852
G1 X115.690 Y104.486 E11.77368
G1 X58.430 Y104.486 E12.33085
G1 X57.900 Y104.466 E12.33601
G1 X57.380 Y104.396 E12.34112
G1 X56.600 Y104.236 E12.34886
G1 X55.810 Y104.016 E12.35684
G1 X47.190 Y100.976 E12.44579
G1 X46.710 Y100.786 E12.45081
G1 X46.090 Y100.496 E12.45747
G1 X45.630 Y100.246 E12.46256
G1 X45.190 Y99.956 E12.46769
G1 X44.860 Y99.716 E12.47166
G1 X44.300 Y99.256 E12.47871
G1 X43.680 Y98.616 E12.48738
G1 X43.280 Y98.146 E12.49339
G1 X42.930 Y97.636 E12.49941
G1 X42.780 Y97.376 E12.50233
G1 X42.470 Y96.806 E12.50864
G1 X42.180 Y96.166 E12.51548
G1 X41.890 Y95.286 E12.52450
G1 X41.820 Y95.006 E12.52730
G1 X41.720 Y94.456 E12.53274
G1 X41.640 Y93.756 E12.53960
G1 X41.610 Y93.146 E12.54554
G1 X41.610 Y76.846 E12.70415
G1 X41.640 Y76.236 E12.71009
G1 X41.760 Y75.266 E12.71960
G1 X41.890 Y74.706 E12.72520
G1 X42.180 Y73.826 E12.73421
G1 X42.270 Y73.606 E12.73653
G1 X42.580 Y72.976 E12.74336
G1 X42.930 Y72.356 E12.75029
G1 X43.100 Y72.096 E12.75331
G1 X43.480 Y71.606 E12.75934
G1 X43.960 Y71.076 E12.76630
G1 X44.770 Y70.346 E12.77691
G1 X45.311 Y69.944 E12.78347
G1 X45.350 Y69.916 E12.78394
G1 F1500.000 E11.28394
G92 E0
G1 X119.274 Y92.235 F9000.000
G1 F1500.000 E1.50000
G1 X119.483 Y92.083 F1200.000 E1.50251
G1 X119.719 Y91.978 E1.50502
G1 X119.971 Y91.924 E1.50753
G1 X120.229 Y91.924 E1.51004
G1 X120.481 Y91.978 E1.51256
G1 X120.717 Y92.083 E1.51507
G1 X120.926 Y92.235 E1.51758
G1 X121.099 Y92.426 E1.52009
G1 X121.228 Y92.650 E1.52260
G1 X121.308 Y92.895 E1.52511
G1 X121.334 Y93.152 E1.52762
G1 X121.308 Y93.409 E1.53013
G1 X121.228 Y93.654 E1.53265
G1 X121.099 Y93.878 E1.53516
G1 X120.926 Y94.069 E1.53767
G1 X120.687 Y94.235 E1.54050
G1 X120.481 Y94.326 E1.54268
G1 X120.229 Y94.380 E1.54520
G1 X119.971 Y94.380 E1.54771
G1 X119.719 Y94.326 E1.55022
G1 X119.483 Y94.221 E1.55273
G1 X119.274 Y94.069 E1.55524
G1 X119.101 Y93.878 E1.55775
G1 X118.972 Y93.654 E1.56026
G1 X118.892 Y93.409 E1.56277
G1 X118.866 Y93.152 E1.56529
G1 X118.892 Y92.895 E1.56780
G1 X118.972 Y92.650 E1.57031
G1 X119.101 Y92.426 E1.57282
G1 X119.242 Y92.270 E1.57487
G1 X119.274 Y92.235 E1.57533
G1 F1500.000 E0.07533
G92 E0
G1 X91.334 Y93.152 F9000.000
G1 F1500.000 E1.50000
G1 X91.308 Y93.409 F1200.000 E1.50251
G1 X91.228 Y93.654 E1.50502
G1 X91.099 Y93.878 E1.50753
G1 X90.926 Y94.069 E1.51004
G1 X90.717 Y94.221 E1.51256
G1 X90.481 Y94.326 E1.51507
G1 X90.229 Y94.380 E1.51758
G1 X89.971 Y94.380 E1.52009
G1 X89.719 Y94.326 E1.52260
G1 X89.483 Y94.221 E1.52511
G1 X89.274 Y94.069 E1.52762
G1 X89.101 Y93.878 E1.53013
G1 X88.972 Y93.654 E1.53265
G1 X88.892 Y93.409 E1.53516
G1 X88.866 Y93.152 E1.53767
G1 X88.892 Y92.895 E1.54018
G1 X88.972 Y92.650 E1.54269
G1 X89.101 Y92.426 E1.54520
G1 X89.274 Y92.235 E1.54771
G1 X89.483 Y92.083 E1.55023
G1 X89.719 Y91.978 E1.55274
G1 X89.971 Y91.924 E1.55525
G1 X90.229 Y91.924 E1.55776
G1 X90.481 Y91.978 E1.56027
G1 X90.717 Y92.083 E1.56278
G1 X90.926 Y92.235 E1.56529
G1 X91.099 Y92.426 E1.56780
G1 X91.228 Y92.650 E1.57031
G1 X91.308 Y92.895 E1.57283
G1 X91.330 Y93.105 E1.57487
G1 X91.334 Y93.152 E1.57534
G1 F1500.000 E0.07534
G92 E0
G1 X117.669 Y94.484 F9000.000
G1 F1500.000 E1.50000
G1 X117.669 Y91.821 F1200.000 E1.52591
G1 X118.718 Y91.821 E1.53612
G1 X118.389 Y92.390 E1.54253
