; generated by Slic3r 0.9.7 on 2014-06-25 at 21:06:00

; layer_height = 0.25
; perimeters = 3
; top_solid_layers = 3
; bottom_solid_layers = 3
; fill_density = 1
; perimeter_speed = 30
; infill_speed = 40
; travel_speed = 100
; scale = 1
; nozzle_diameter = 0.5
; filament_diameter = 2.9
; extrusion_multiplier = 0.81
; perimeters extrusion width = 0.40mm
; infill extrusion width = 0.40mm
; first layer extrusion width = 0.27mm

M107
M190 S70 ; wait for bed temperature to be reached
M104 S200 ; set temperature
G28 ; home all axes
M109 S200 ; wait for temperature to be reached
G90 ; use absolute coordinates
G21 ; set units to millimeters
G92 E0
M82 ; use absolute distances for extrusion
G1 F1500.000 E-1.50000
G92 E0
G1 Z0.450 F6000.000
G1 X44.000 Y52.488
G1 F1500.000 E1.50000
G1 X44.640 Y52.018 F1500.000 E1.50773
G1 X49.030 Y49.028 E1.55941
G1 X49.750 Y48.588 E1.56762
G1 X51.020 Y48.018 E1.58117
G1 X51.610 Y47.818 E1.58723
G1 X52.730 Y47.558 E1.59842
G1 X53.350 Y47.448 E1.60454
G1 X53.670 Y47.418 E1.60767
G1 X54.300 Y47.388 E1.61381
G1 X111.560 Y47.388 E2.17098
G1 X112.190 Y47.418 E2.17712
G1 X112.820 Y47.498 E2.18330
G1 X113.650 Y47.668 E2.19154
G1 X114.600 Y47.928 E2.20113
G1 X123.220 Y50.968 E2.29007
G1 X124.370 Y51.448 E2.30219
G1 X125.040 Y51.818 E2.30964
G1 X125.350 Y52.018 E2.31323
G1 X125.990 Y52.488 E2.32096
G1 X126.960 Y53.358 E2.33364
G1 X127.480 Y53.938 E2.34122
G1 X127.930 Y54.528 E2.34844
G1 X128.320 Y55.158 E2.35565
G1 X128.780 Y56.018 E2.36514
G1 X129.090 Y56.798 E2.37330
G1 X129.320 Y57.518 E2.38066
G1 X129.400 Y57.848 E2.38396
G1 X129.530 Y58.518 E2.39060
G1 X129.610 Y59.258 E2.39785
G1 X129.650 Y59.848 E2.40360
G1 X129.650 Y60.148 E2.40652
G1 X129.610 Y60.738 E2.41227
G1 X129.530 Y61.498 E2.41971
G1 X129.400 Y62.188 E2.42654
G1 X129.310 Y62.528 E2.42996
G1 X129.060 Y63.268 E2.43757
G1 X128.730 Y64.088 E2.44617
G1 X128.460 Y64.608 E2.45187
G1 X128.270 Y64.938 E2.45557
G1 X127.920 Y65.478 E2.46183
G1 X127.530 Y65.988 E2.46808
G1 X126.820 Y66.778 E2.47842
G1 X126.340 Y67.228 E2.48482
G1 X126.080 Y67.438 E2.48807
G1 X125.350 Y67.968 E2.49685
G1 X120.810 Y71.078 E2.55040
G1 X120.110 Y71.468 E2.55820
G1 X119.040 Y71.948 E2.56961
G1 X118.420 Y72.168 E2.57601
G1 X118.100 Y72.258 E2.57924
G1 X117.260 Y72.438 E2.58760
G1 X116.640 Y72.548 E2.59373
G1 X116.320 Y72.578 E2.59686
G1 X115.690 Y72.608 E2.60299
G1 X58.430 Y72.608 E3.16017
G1 X57.800 Y72.578 E3.16630
G1 X57.170 Y72.498 E3.17248
G1 X56.340 Y72.328 E3.18073
G1 X55.390 Y72.068 E3.19031
G1 X46.770 Y69.028 E3.27925
G1 X45.810 Y68.628 E3.28937
G1 X44.970 Y68.188 E3.29860
G1 X44.120 Y67.598 E3.30867
G1 X43.620 Y67.198 E3.31490
G1 X42.950 Y66.548 E3.32398
G1 X42.670 Y66.238 E3.32805
G1 X42.250 Y65.728 E3.33448
G1 X42.060 Y65.468 E3.33761
G1 X41.510 Y64.558 E3.34796
G1 X41.110 Y63.758 E3.35666
G1 X40.770 Y62.808 E3.36648
G1 X40.590 Y62.148 E3.37313
G1 X40.460 Y61.478 E3.37978
G1 X40.380 Y60.738 E3.38702
G1 X40.340 Y60.148 E3.39277
G1 X40.340 Y59.848 E3.39569
G1 X40.380 Y59.258 E3.40145
G1 X40.460 Y58.518 E3.40869
G1 X40.670 Y57.518 E3.41863
G1 X40.900 Y56.798 E3.42599
G1 X41.210 Y56.018 E3.43415
G1 X41.670 Y55.158 E3.44364
G1 X42.060 Y54.528 E3.45085
G1 X42.280 Y54.228 E3.45447
G1 X42.750 Y53.658 E3.46166
G1 X43.030 Y53.358 E3.46565
G1 X43.965 Y52.520 E3.47787
G1 X44.000 Y52.488 E3.47833
G1 X44.190 Y52.748 F6000.000
G1 X44.820 Y52.278 F1500.000 E3.48598
G1 X49.430 Y49.138 E3.54026
G1 X49.900 Y48.868 E3.54553
G1 X50.870 Y48.428 E3.55590
G1 X51.420 Y48.208 E3.56166
G1 X51.700 Y48.118 E3.56452
G1 X53.090 Y47.808 E3.57838
G1 X53.690 Y47.738 E3.58426
G1 X54.300 Y47.708 E3.59020
G1 X111.560 Y47.708 E4.14737
G1 X112.170 Y47.738 E4.15332
G1 X112.770 Y47.808 E4.15919
G1 X113.580 Y47.978 E4.16725
G1 X114.500 Y48.228 E4.17652
G1 X123.120 Y51.268 E4.26547
G1 X124.230 Y51.738 E4.27720
G1 X124.560 Y51.898 E4.28076
G1 X125.170 Y52.278 E4.28776
G1 X125.800 Y52.748 E4.29541
G1 X126.720 Y53.578 E4.30746
G1 X127.240 Y54.138 E4.31490
G1 X127.670 Y54.708 E4.32185
G1 X127.870 Y54.998 E4.32527
G1 X128.490 Y56.148 E4.33799
G1 X128.790 Y56.898 E4.34585
G1 X128.920 Y57.288 E4.34985
G1 X129.090 Y57.918 E4.35620
G1 X129.220 Y58.558 E4.36255
G1 X129.320 Y59.578 E4.37252
G1 X129.320 Y60.418 E4.38070
G1 X129.260 Y61.118 E4.38753
G1 X129.160 Y61.778 E4.39403
G1 X129.000 Y62.438 E4.40064
G1 X128.760 Y63.168 E4.40812
G1 X128.560 Y63.688 E4.41354
G1 X128.320 Y64.198 E4.41902
G1 X127.830 Y65.038 E4.42848
G1 X127.480 Y65.548 E4.43450
G1 X127.290 Y65.788 E4.43748
G1 X126.590 Y66.558 E4.44761
G1 X126.130 Y66.988 E4.45373
G1 X125.890 Y67.188 E4.45677
G1 X125.290 Y67.628 E4.46401
G1 X120.850 Y70.668 E4.51637
G1 X120.200 Y71.068 E4.52380
G1 X118.920 Y71.658 E4.53752
G1 X118.320 Y71.868 E4.54370
G1 X116.900 Y72.188 E4.55787
G1 X116.300 Y72.258 E4.56374
G1 X115.690 Y72.288 E4.56969
G1 X58.430 Y72.288 E5.12686
G1 X57.820 Y72.258 E5.13280
G1 X57.220 Y72.188 E5.13868
G1 X56.410 Y72.018 E5.14673
G1 X55.490 Y71.768 E5.15601
G1 X46.870 Y68.728 E5.24495
G1 X45.940 Y68.338 E5.25476
G1 X45.400 Y68.068 E5.26064
G1 X44.880 Y67.748 E5.26658
G1 X44.060 Y67.158 E5.27641
G1 X43.390 Y66.548 E5.28523
G1 X42.700 Y65.788 E5.29522
G1 X42.320 Y65.288 E5.30133
G1 X41.990 Y64.758 E5.30740
G1 X41.520 Y63.898 E5.31694
G1 X41.200 Y63.098 E5.32532
G1 X41.070 Y62.708 E5.32932
G1 X40.900 Y62.078 E5.33567
G1 X40.770 Y61.438 E5.34203
G1 X40.670 Y60.418 E5.35200
G1 X40.670 Y59.578 E5.36017
G1 X40.770 Y58.558 E5.37015
G1 X40.980 Y57.598 E5.37971
G1 X41.290 Y56.648 E5.38943
G1 X41.620 Y55.908 E5.39732
G1 X42.120 Y54.998 E5.40742
G1 X42.750 Y54.138 E5.41779
G1 X43.270 Y53.578 E5.42523
G1 X44.155 Y52.780 E5.43682
G1 X44.190 Y52.748 E5.43729
G1 X44.380 Y52.998 F6000.000
G1 X45.000 Y52.538 F1500.000 E5.44480
G1 X49.390 Y49.548 E5.49648
G1 X50.050 Y49.148 E5.50399
G1 X50.990 Y48.718 E5.51405
G1 X51.520 Y48.508 E5.51960
G1 X52.070 Y48.348 E5.52517
G1 X52.860 Y48.178 E5.53303
G1 X53.150 Y48.118 E5.53592
G1 X53.720 Y48.048 E5.54150
G1 X54.010 Y48.028 E5.54433
G1 X111.850 Y48.028 E6.10715
G1 X112.710 Y48.118 E6.11556
G1 X113.520 Y48.288 E6.12362
G1 X114.390 Y48.528 E6.13240
G1 X123.010 Y51.568 E6.22134
G1 X123.780 Y51.878 E6.22942
G1 X124.400 Y52.178 E6.23612
G1 X124.700 Y52.358 E6.23952
G1 X125.000 Y52.548 E6.24298
G1 X125.610 Y52.998 E6.25036
G1 X126.490 Y53.798 E6.26193
G1 X127.000 Y54.348 E6.26923
G1 X127.210 Y54.608 E6.27248
G1 X127.600 Y55.168 E6.27912
G1 X128.090 Y56.048 E6.28892
G1 X128.400 Y56.758 E6.29646
G1 X128.710 Y57.688 E6.30600
G1 X128.850 Y58.298 E6.31209
G1 X128.980 Y59.318 E6.32209
G1 X129.010 Y59.858 E6.32736
G1 X128.980 Y60.678 E6.33534
G1 X128.900 Y61.398 E6.34239
G1 X128.780 Y62.038 E6.34872
G1 X128.600 Y62.658 E6.35501
G1 X128.270 Y63.568 E6.36443
G1 X128.030 Y64.048 E6.36965
G1 X127.710 Y64.618 E6.37601
G1 X127.230 Y65.358 E6.38459
G1 X126.570 Y66.118 E6.39439
G1 X126.150 Y66.548 E6.40023
G1 X125.690 Y66.938 E6.40610
G1 X124.990 Y67.448 E6.41453
G1 X120.670 Y70.408 E6.46549
G1 X120.050 Y70.788 E6.47256
G1 X118.800 Y71.358 E6.48593
G1 X118.230 Y71.558 E6.49181
G1 X117.650 Y71.708 E6.49764
G1 X116.840 Y71.878 E6.50569
G1 X116.270 Y71.948 E6.51128
G1 X115.980 Y71.968 E6.51411
G1 X58.140 Y71.968 E7.07693
G1 X57.280 Y71.878 E7.08534
G1 X56.470 Y71.708 E7.09339
G1 X55.600 Y71.468 E7.10218
G1 X46.980 Y68.428 E7.19112
G1 X46.070 Y68.048 E7.20071
G1 X45.550 Y67.788 E7.20637
G1 X45.060 Y67.488 E7.21196
G1 X44.260 Y66.908 E7.22158
G1 X43.820 Y66.528 E7.22723
G1 X43.420 Y66.118 E7.23281
G1 X42.940 Y65.578 E7.23984
G1 X42.580 Y65.108 E7.24560
G1 X42.060 Y64.248 E7.25538
G1 X41.810 Y63.758 E7.26073
G1 X41.500 Y62.998 E7.26872
G1 X41.200 Y62.008 E7.27878
G1 X41.050 Y61.088 E7.28785
G1 X40.980 Y60.138 E7.29712
G1 X40.990 Y59.588 E7.30247
G1 X41.090 Y58.608 E7.31206
G1 X41.200 Y57.988 E7.31819
G1 X41.500 Y56.998 E7.32825
G1 X41.790 Y56.278 E7.33581
G1 X42.220 Y55.458 E7.34482
G1 X42.580 Y54.888 E7.35138
G1 X42.990 Y54.348 E7.35797
G1 X43.500 Y53.798 E7.36527
G1 X44.345 Y53.030 E7.37638
G1 X44.380 Y52.998 E7.37684
G1 X44.570 Y53.248 F6000.000
G1 X44.900 Y52.998 F1500.000 E7.38087
G1 X49.770 Y49.678 E7.43822
G1 X50.420 Y49.318 E7.44545
G1 X51.120 Y49.008 E7.45290
G1 X51.620 Y48.808 E7.45814
G1 X51.880 Y48.728 E7.46079
G1 X52.410 Y48.598 E7.46610
G1 X53.200 Y48.438 E7.47394
G1 X54.020 Y48.348 E7.48197
G1 X111.840 Y48.348 E8.04459
G1 X112.660 Y48.438 E8.05262
G1 X113.450 Y48.598 E8.06046
G1 X114.290 Y48.828 E8.06894
G1 X122.910 Y51.868 E8.15788
G1 X123.960 Y52.308 E8.16896
G1 X124.250 Y52.458 E8.17214
G1 X124.820 Y52.808 E8.17864
G1 X125.420 Y53.248 E8.18588
G1 X126.260 Y54.008 E8.19691
G1 X126.760 Y54.548 E8.20407
G1 X126.960 Y54.808 E8.20726
G1 X127.330 Y55.338 E8.21355
G1 X127.810 Y56.198 E8.22313
G1 X128.100 Y56.868 E8.23024
G1 X128.400 Y57.778 E8.23956
G1 X128.480 Y58.058 E8.24239
G1 X128.590 Y58.648 E8.24823
G1 X128.660 Y59.358 E8.25518
G1 X128.690 Y59.868 E8.26015
G1 X128.660 Y60.638 E8.26765
G1 X128.590 Y61.358 E8.27468
G1 X128.470 Y61.958 E8.28064
G1 X128.160 Y62.958 E8.29083
G1 X127.870 Y63.678 E8.29838
G1 X127.440 Y64.458 E8.30705
G1 X127.140 Y64.938 E8.31255
G1 X126.610 Y65.598 E8.32079
G1 X126.140 Y66.118 E8.32761
G1 X125.930 Y66.318 E8.33043
G1 X125.500 Y66.688 E8.33595
G1 X124.920 Y67.108 E8.34292
G1 X120.300 Y70.268 E8.39739
G1 X119.890 Y70.508 E8.40201
G1 X118.680 Y71.068 E8.41498
G1 X118.140 Y71.258 E8.42055
G1 X117.860 Y71.338 E8.42339
G1 X117.060 Y71.508 E8.43134
G1 X116.240 Y71.628 E8.43941
G1 X115.970 Y71.648 E8.44204
G1 X58.150 Y71.648 E9.00467
G1 X57.330 Y71.558 E9.01269
G1 X56.540 Y71.398 E9.02054
G1 X55.700 Y71.168 E9.02901
G1 X47.080 Y68.128 E9.11795
G1 X46.200 Y67.758 E9.12724
G1 X45.710 Y67.508 E9.13259
G1 X45.230 Y67.218 E9.13805
G1 X44.460 Y66.658 E9.14731
G1 X43.840 Y66.108 E9.15538
G1 X43.190 Y65.378 E9.16489
G1 X42.840 Y64.928 E9.17044
G1 X42.210 Y63.858 E9.18252
G1 X41.990 Y63.388 E9.18757
G1 X41.680 Y62.508 E9.19665
G1 X41.510 Y61.938 E9.20244
G1 X41.400 Y61.348 E9.20828
G1 X41.300 Y60.128 E9.22019
G1 X41.310 Y59.608 E9.22525
G1 X41.400 Y58.648 E9.23463
G1 X41.510 Y58.058 E9.24047
G1 X41.890 Y56.868 E9.25263
G1 X42.180 Y56.198 E9.25973
G1 X42.660 Y55.338 E9.26931
G1 X43.230 Y54.548 E9.27879
G1 X43.730 Y54.008 E9.28595
G1 X44.535 Y53.280 E9.29651
G1 X44.570 Y53.248 E9.29698
G1 X44.770 Y53.498 F6000.000
G1 X45.350 Y53.068 F1500.000 E9.30400
G1 X49.740 Y50.078 E9.35569
G1 X50.140 Y49.828 E9.36028
G1 X50.550 Y49.608 E9.36480
G1 X51.490 Y49.198 E9.37478
G1 X51.970 Y49.038 E9.37971
G1 X52.990 Y48.798 E9.38990
G1 X53.770 Y48.678 E9.39758
G1 X54.300 Y48.658 E9.40274
G1 X111.560 Y48.658 E9.95992
G1 X112.090 Y48.678 E9.96508
G1 X112.610 Y48.748 E9.97018
G1 X113.390 Y48.908 E9.97793
G1 X114.180 Y49.128 E9.98591
G1 X122.800 Y52.168 E10.07485
G1 X123.530 Y52.468 E10.08253
G1 X124.100 Y52.738 E10.08867
G1 X124.370 Y52.898 E10.09172
G1 X124.640 Y53.068 E10.09483
G1 X125.220 Y53.498 E10.10185
G1 X126.030 Y54.228 E10.11246
G1 X126.710 Y54.998 E10.12246
G1 X127.060 Y55.508 E10.12848
G1 X127.520 Y56.338 E10.13771
G1 X127.810 Y56.978 E10.14455
G1 X128.100 Y57.858 E10.15356
G1 X128.230 Y58.418 E10.15916
G1 X128.350 Y59.388 E10.16867
G1 X128.380 Y59.878 E10.17345
G1 X128.350 Y60.608 E10.18055
G1 X128.270 Y61.308 E10.18741
G1 X128.090 Y62.168 E10.19596
G1 X127.780 Y63.088 E10.20541
G1 X127.580 Y63.538 E10.21020
G1 X127.030 Y64.528 E10.22122
G1 X126.720 Y64.968 E10.22646
G1 X126.380 Y65.378 E10.23164
G1 X125.720 Y66.078 E10.24100
G1 X125.300 Y66.438 E10.24638
G1 X124.630 Y66.918 E10.25440
G1 X119.940 Y70.118 E10.30965
G1 X119.550 Y70.328 E10.31396
G1 X118.310 Y70.868 E10.32712
G1 X117.520 Y71.088 E10.33510
G1 X116.740 Y71.248 E10.34285
G1 X116.220 Y71.318 E10.34795
G1 X115.690 Y71.338 E10.35311
G1 X58.430 Y71.338 E10.91029
G1 X57.900 Y71.318 E10.91545
G1 X57.380 Y71.248 E10.92055
G1 X56.600 Y71.088 E10.92830
G1 X55.810 Y70.868 E10.93628
G1 X47.190 Y67.828 E11.02522
G1 X46.710 Y67.638 E11.03025
G1 X46.330 Y67.468 E11.03430
G1 X45.630 Y67.098 E11.04200
G1 X44.860 Y66.568 E11.05110
G1 X44.450 Y66.238 E11.05622
G1 X44.070 Y65.888 E11.06125
G1 X43.260 Y64.968 E11.07317
G1 X42.810 Y64.278 E11.08119
G1 X42.380 Y63.488 E11.08994
G1 X42.190 Y63.028 E11.09478
G1 X41.890 Y62.138 E11.10392
G1 X41.760 Y61.578 E11.10952
G1 X41.680 Y61.018 E11.11502
G1 X41.620 Y60.368 E11.12137
G1 X41.620 Y59.628 E11.12857
G1 X41.680 Y58.978 E11.13493
G1 X41.760 Y58.418 E11.14043
G1 X41.820 Y58.138 E11.14322
G1 X41.890 Y57.858 E11.14602
G1 X42.180 Y56.978 E11.15504
G1 X42.470 Y56.338 E11.16188
G1 X42.780 Y55.768 E11.16819
G1 X42.930 Y55.508 E11.17111
G1 X43.280 Y54.998 E11.17713
G1 X43.680 Y54.528 E11.18314
G1 X43.960 Y54.228 E11.18713
G1 X44.735 Y53.530 E11.19728
G1 X44.770 Y53.498 E11.19774
G1 F1500.000 E9.69774
G92 E0
G1 X119.101 Y59.274 F6000.000
G1 F1500.000 E1.50000
G1 X119.274 Y59.083 F1500.000 E1.50251
G1 X119.483 Y58.931 E1.50502
G1 X119.719 Y58.826 E1.50753
G1 X119.938 Y58.779 E1.50972
G1 X120.229 Y58.772 E1.51255
G1 X120.481 Y58.826 E1.51506
G1 X120.717 Y58.931 E1.51757
G1 X120.926 Y59.083 E1.52008
G1 X121.099 Y59.274 E1.52259
G1 X121.228 Y59.498 E1.52511
G1 X121.308 Y59.743 E1.52762
G1 X121.334 Y60.000 E1.53013
G1 X121.308 Y60.257 E1.53264
G1 X121.228 Y60.502 E1.53515
G1 X121.099 Y60.726 E1.53766
G1 X120.926 Y60.917 E1.54017
G1 X120.717 Y61.069 E1.54268
G1 X120.481 Y61.174 E1.54520
G1 X120.229 Y61.228 E1.54771
G1 X119.971 Y61.228 E1.55022
G1 X119.719 Y61.174 E1.55273
G1 X119.483 Y61.069 E1.55524
G1 X119.274 Y60.917 E1.55775
G1 X119.101 Y60.726 E1.56026
G1 X118.972 Y60.502 E1.56277
G1 X118.892 Y60.257 E1.56529
G1 X118.866 Y60.000 E1.56780
G1 X118.892 Y59.743 E1.57031
G1 X118.972 Y59.498 E1.57282
G1 X119.077 Y59.316 E1.57487
G1 X119.101 Y59.274 E1.57533
G1 F1500.000 E0.07533
G92 E0
G1 X91.334 Y60.000 F6000.000
G1 F1500.000 E1.50000
G1 X91.308 Y60.257 F1500.000 E1.50251
G1 X91.228 Y60.502 E1.50502
G1 X91.099 Y60.726 E1.50753
G1 X90.926 Y60.917 E1.51004
G1 X90.717 Y61.069 E1.51256
G1 X90.481 Y61.174 E1.51507
G1 X90.229 Y61.228 E1.51758
G1 X89.971 Y61.228 E1.52009
G1 X89.719 Y61.174 E1.52260
G1 X89.483 Y61.069 E1.52511
G1 X89.274 Y60.917 E1.52762
G1 X89.101 Y60.726 E1.53013
G1 X88.972 Y60.502 E1.53265
G1 X88.892 Y60.257 E1.53516
G1 X88.866 Y60.000 E1.53767
G1 X88.892 Y59.743 E1.54018
G1 X88.972 Y59.498 E1.54269
G1 X89.101 Y59.274 E1.54520
G1 X89.274 Y59.083 E1.54771
G1 X89.483 Y58.931 E1.55023
G1 X89.719 Y58.826 E1.55274
G1 X89.971 Y58.772 E1.55525
G1 X90.229 Y58.772 E1.55776
G1 X90.481 Y58.826 E1.56027
G1 X90.717 Y58.931 E1.56278
G1 X90.926 Y59.083 E1.56529
G1 X91.099 Y59.274 E1.56780
G1 X91.228 Y59.498 E1.57031
G1 X91.308 Y59.743 E1.57283
G1 X91.330 Y59.953 E1.57487
G1 X91.334 Y60.000 E1.57534
G1 F1500.000 E0.07534
G92 E0
G1 X117.669 Y61.331 F6000.000
G1 F1500.000 E1.50000
G1 X117.669 Y58.669 F1500.000 E1.52591
G1 X118.718 Y58.669 E1.53612
G1 X118.389 Y59.238 E1.54253
G1 X118.268 Y59.611 E1.54634
G1 X118.227 Y60.000 E1.55015
G1 X118.268 Y60.389 E1.55396
G1 X118.389 Y60.762 E1.55777
G1 X118.718 Y61.331 E1.56417
G1 X117.716 Y61.331 E1.57392
G1 X117.669 Y61.331 E1.57438
G1 F1500.000 E0.07438
G92 E0
G1 X92.531 Y61.331 F6000.000
G1 F1500.000 E1.50000
G1 X91.482 Y61.331 F1500.000 E1.51021
G1 X91.811 Y60.762 E1.51661
G1 X91.932 Y60.389 E1.52042
G1 X91.973 Y60.000 E1.52423
G1 X91.932 Y59.611 E1.52804
G1 X91.811 Y59.238 E1.53185
G1 X91.482 Y58.669 E1.53825
G1 X92.531 Y58.669 E1.54847
G1 X92.531 Y61.284 E1.57392
G1 X92.531 Y61.331 E1.57438
G1 F1500.000 E0.07438
G92 E0
G1 X117.351 Y61.649 F6000.000
G1 F1500.000 E1.50000
G1 X117.351 Y58.351 F1500.000 E1.53209
G1 X120.005 Y58.351 E1.55791
G1 X119.323 Y58.655 E1.56517
G1 X119.060 Y58.845 E1.56833
G1 X118.843 Y59.087 E1.57149
G1 X118.681 Y59.368 E1.57465
G1 X118.580 Y59.677 E1.57781
G1 X118.546 Y60.000 E1.58097
G1 X118.580 Y60.323 E1.58413
G1 X118.681 Y60.632 E1.58729
G1 X118.843 Y60.913 E1.59045
G1 X119.060 Y61.155 E1.59361
G1 X119.323 Y61.345 E1.59677
G1 X120.005 Y61.649 E1.60403
G1 X117.399 Y61.649 E1.62939
G1 X117.351 Y61.649 E1.62985
G1 F1500.000 E0.12985
G92 E0
G1 X92.849 Y61.649 F6000.000
G1 F1500.000 E1.50000
G1 X90.195 Y61.649 F1500.000 E1.52582
G1 X90.877 Y61.345 E1.53308
