; generated by Slic3r 0.9.9 on 2013-12-27 at 21:40:40

; layer_height = 0.25
; perimeters = 3
; top_solid_layers = 3
; bottom_solid_layers = 3
; fill_density = 1
; perimeter_speed = 20
; infill_speed = 20
; travel_speed = 100
; nozzle_diameter = 0.5
; filament_diameter = 2.89
; extrusion_multiplier = 0.781
; perimeters extrusion width = 0.40mm
; infill extrusion width = 0.25mm
; solid infill extrusion width = 0.35mm
; top infill extrusion width = 0.40mm
; first layer extrusion width = 0.27mm

G21 ; set units to millimeters
M107
M190 S70 ; wait for bed temperature to be reached
M104 S220 ; set temperature
G28 ; home all axes
M109 S220 ; wait for temperature to be reached
G90 ; use absolute coordinates
G92 E0
M82 ; use absolute distances for extrusion
G1 F1200.000 E-1.50000
G92 E0
G1 Z0.250 F6000.000
G1 X73.545 Y75.990
G1 F1200.000 E1.50000
G1 X74.095 Y75.510 F1200.000 E1.50690
G1 X75.125 Y74.760 E1.51893
G1 X75.745 Y74.380 E1.52580
G1 X76.815 Y73.830 E1.53717
G1 X77.495 Y73.550 E1.54412
G1 X78.595 Y73.200 E1.55502
G1 X79.295 Y73.030 E1.56183
G1 X80.575 Y72.830 E1.57407
G1 X81.825 Y72.760 E1.58589
G1 X92.825 Y72.760 E1.68981
G1 X93.395 Y72.780 E1.69520
G1 X93.955 Y72.850 E1.70053
G1 X94.515 Y72.950 E1.70591
G1 X95.335 Y73.190 E1.71398
G1 X96.115 Y73.510 E1.72194
G1 X96.375 Y73.640 E1.72469
G1 X96.865 Y73.930 E1.73007
G1 X97.335 Y74.250 E1.73544
G1 X97.985 Y74.790 E1.74342
G1 X98.575 Y75.400 E1.75144
G1 X99.095 Y76.080 E1.75953
G1 X99.535 Y76.800 E1.76750
G1 X99.885 Y77.580 E1.77558
G1 X100.075 Y78.110 E1.78090
G1 X100.225 Y78.660 E1.78628
G1 X100.325 Y79.220 E1.79166
G1 X100.395 Y79.780 E1.79699
G1 X100.415 Y80.350 E1.80238
G1 X100.415 Y89.650 E1.89024
G1 X100.395 Y90.220 E1.89562
G1 X100.325 Y90.780 E1.90096
G1 X100.225 Y91.340 E1.90633
G1 X99.985 Y92.160 E1.91440
G1 X99.665 Y92.940 E1.92237
G1 X99.535 Y93.200 E1.92511
G1 X99.245 Y93.690 E1.93049
G1 X98.925 Y94.160 E1.93586
G1 X98.385 Y94.810 E1.94385
G1 X97.775 Y95.400 E1.95186
G1 X97.095 Y95.920 E1.95995
G1 X96.375 Y96.360 E1.96792
G1 X95.595 Y96.710 E1.97600
G1 X95.065 Y96.900 E1.98132
G1 X94.515 Y97.050 E1.98670
G1 X93.955 Y97.150 E1.99208
G1 X93.395 Y97.220 E1.99741
G1 X92.825 Y97.240 E2.00280
G1 X81.825 Y97.240 E2.10672
G1 X80.475 Y97.150 E2.11950
G1 X79.325 Y96.970 E2.13050
G1 X78.615 Y96.800 E2.13739
G1 X77.495 Y96.440 E2.14851
G1 X76.815 Y96.160 E2.15546
G1 X75.745 Y95.610 E2.16682
G1 X75.125 Y95.230 E2.17369
G1 X74.095 Y94.480 E2.18573
G1 X73.545 Y94.000 E2.19262
G1 X72.815 Y93.270 E2.20238
G1 X72.165 Y92.520 E2.21175
G1 X71.845 Y92.090 E2.21682
G1 X71.555 Y91.650 E2.22180
G1 X71.175 Y91.020 E2.22875
G1 X70.675 Y90.030 E2.23922
G1 X70.395 Y89.360 E2.24609
G1 X70.015 Y88.200 E2.25762
G1 X69.845 Y87.490 E2.26451
G1 X69.655 Y86.240 E2.27646
G1 X69.605 Y85.510 E2.28337
G1 X69.605 Y84.460 E2.29329
G1 X69.655 Y83.740 E2.30011
G1 X69.845 Y82.500 E2.31196
G1 X70.015 Y81.790 E2.31886
G1 X70.375 Y80.670 E2.32997
G1 X70.655 Y79.990 E2.33692
G1 X71.205 Y78.920 E2.34829
G1 X71.585 Y78.300 E2.35516
G1 X72.335 Y77.270 E2.36719
G1 X72.815 Y76.720 E2.37409
G1 X73.511 Y76.024 E2.38339
G1 X73.755 Y76.230 F6000.000
G1 X74.305 Y75.750 F1200.000 E2.39029
G1 X75.285 Y75.030 E2.40178
G1 X75.905 Y74.650 E2.40865
G1 X76.935 Y74.130 E2.41955
G1 X77.615 Y73.850 E2.42649
G1 X78.665 Y73.510 E2.43692
G1 X79.365 Y73.340 E2.44373
G1 X80.595 Y73.150 E2.45548
G1 X81.825 Y73.080 E2.46712
G1 X92.825 Y73.080 E2.57104
G1 X93.385 Y73.100 E2.57634
G1 X94.205 Y73.210 E2.58415
G1 X94.485 Y73.270 E2.58686
G1 X95.285 Y73.510 E2.59475
G1 X95.795 Y73.720 E2.59996
G1 X96.295 Y73.960 E2.60520
G1 X97.005 Y74.400 E2.61309
G1 X97.665 Y74.920 E2.62103
G1 X98.255 Y75.510 E2.62891
G1 X98.775 Y76.170 E2.63685
G1 X99.215 Y76.880 E2.64474
G1 X99.565 Y77.630 E2.65256
G1 X99.835 Y78.420 E2.66045
G1 X99.965 Y78.970 E2.66579
G1 X100.075 Y79.790 E2.67360
G1 X100.095 Y80.350 E2.67890
G1 X100.095 Y89.650 E2.76675
G1 X100.075 Y90.210 E2.77205
G1 X99.965 Y91.030 E2.77986
G1 X99.905 Y91.310 E2.78257
G1 X99.665 Y92.110 E2.79046
G1 X99.455 Y92.620 E2.79567
G1 X99.215 Y93.120 E2.80091
G1 X98.775 Y93.830 E2.80880
G1 X98.255 Y94.490 E2.81674
G1 X97.665 Y95.080 E2.82462
G1 X97.005 Y95.600 E2.83256
G1 X96.295 Y96.040 E2.84045
G1 X95.545 Y96.390 E2.84827
G1 X94.755 Y96.660 E2.85616
G1 X94.205 Y96.790 E2.86150
G1 X93.385 Y96.900 E2.86931
G1 X92.825 Y96.920 E2.87461
G1 X81.825 Y96.920 E2.97853
G1 X81.225 Y96.900 E2.98420
G1 X80.495 Y96.840 E2.99112
G1 X79.405 Y96.660 E3.00155
G1 X78.695 Y96.490 E3.00845
G1 X77.615 Y96.140 E3.01918
G1 X76.935 Y95.860 E3.02612
G1 X75.905 Y95.340 E3.03703
G1 X75.285 Y94.960 E3.04390
G1 X74.305 Y94.240 E3.05538
G1 X73.755 Y93.760 E3.06228
G1 X73.055 Y93.060 E3.07163
G1 X72.575 Y92.510 E3.07853
G1 X72.255 Y92.120 E3.08329
G1 X71.965 Y91.700 E3.08812
G1 X71.455 Y90.850 E3.09748
G1 X70.965 Y89.900 E3.10758
G1 X70.685 Y89.230 E3.11444
G1 X70.325 Y88.120 E3.12546
G1 X70.155 Y87.410 E3.13236
G1 X69.975 Y86.220 E3.14373
G1 X69.925 Y85.490 E3.15064
G1 X69.925 Y84.490 E3.16009
G1 X69.975 Y83.770 E3.16691
G1 X70.155 Y82.580 E3.17828
G1 X70.325 Y81.870 E3.18518
G1 X70.675 Y80.790 E3.19590
G1 X70.955 Y80.110 E3.20285
G1 X71.475 Y79.080 E3.21375
G1 X71.855 Y78.460 E3.22062
G1 X72.575 Y77.480 E3.23211
G1 X73.055 Y76.930 E3.23901
G1 X73.721 Y76.264 E3.24791
G1 X73.965 Y76.470 F6000.000
G1 X74.515 Y75.990 F1200.000 E3.25480
G1 X75.455 Y75.300 E3.26582
G1 X76.075 Y74.920 E3.27269
G1 X77.055 Y74.420 E3.28308
G1 X77.735 Y74.140 E3.29003
G1 X78.745 Y73.810 E3.30007
G1 X79.445 Y73.640 E3.30687
G1 X80.615 Y73.460 E3.31806
G1 X81.355 Y73.410 E3.32506
G1 X81.825 Y73.400 E3.32951
G1 X93.095 Y73.400 E3.43598
G1 X93.375 Y73.420 E3.43863
G1 X93.915 Y73.480 E3.44376
G1 X94.185 Y73.530 E3.44636
G1 X94.715 Y73.660 E3.45151
G1 X95.235 Y73.830 E3.45668
G1 X95.735 Y74.040 E3.46180
G1 X96.225 Y74.280 E3.46696
G1 X96.915 Y74.730 E3.47474
G1 X97.345 Y75.060 E3.47986
G1 X97.545 Y75.240 E3.48240
G1 X98.115 Y75.830 E3.49015
G1 X98.445 Y76.260 E3.49527
G1 X98.895 Y76.950 E3.50306
G1 X99.245 Y77.690 E3.51079
G1 X99.515 Y78.460 E3.51850
G1 X99.695 Y79.260 E3.52624
G1 X99.755 Y79.800 E3.53138
G1 X99.775 Y80.080 E3.53403
G1 X99.775 Y89.920 E3.62699
G1 X99.755 Y90.200 E3.62964
G1 X99.695 Y90.740 E3.63478
G1 X99.645 Y91.010 E3.63737
G1 X99.515 Y91.540 E3.64252
G1 X99.345 Y92.060 E3.64769
G1 X99.135 Y92.560 E3.65282
G1 X98.895 Y93.050 E3.65797
G1 X98.445 Y93.740 E3.66575
G1 X98.115 Y94.170 E3.67087
G1 X97.935 Y94.370 E3.67342
G1 X97.345 Y94.940 E3.68117
G1 X96.915 Y95.270 E3.68629
G1 X96.225 Y95.720 E3.69407
G1 X95.485 Y96.070 E3.70180
G1 X94.715 Y96.340 E3.70951
G1 X93.915 Y96.520 E3.71726
G1 X93.095 Y96.600 E3.72504
G1 X81.825 Y96.600 E3.83151
G1 X81.255 Y96.580 E3.83690
G1 X80.525 Y96.520 E3.84382
G1 X79.475 Y96.350 E3.85387
G1 X78.765 Y96.180 E3.86077
G1 X77.735 Y95.850 E3.87098
G1 X77.055 Y95.570 E3.87793
G1 X76.075 Y95.070 E3.88833
G1 X75.455 Y94.690 E3.89520
G1 X74.515 Y94.000 E3.90621
G1 X73.965 Y93.520 E3.91311
G1 X73.295 Y92.850 E3.92206
G1 X72.665 Y92.120 E3.93117
G1 X72.365 Y91.730 E3.93582
G1 X72.105 Y91.320 E3.94040
G1 X71.725 Y90.690 E3.94735
G1 X71.265 Y89.780 E3.95699
G1 X70.985 Y89.110 E3.96385
G1 X70.635 Y88.050 E3.97439
G1 X70.465 Y87.340 E3.98129
G1 X70.285 Y86.200 E3.99219
G1 X70.235 Y85.470 E3.99911
G1 X70.235 Y84.510 E4.00818
G1 X70.285 Y83.790 E4.01499
G1 X70.465 Y82.650 E4.02590
G1 X70.635 Y81.940 E4.03279
G1 X70.965 Y80.910 E4.04301
G1 X71.245 Y80.230 E4.04996
G1 X71.745 Y79.250 E4.06035
G1 X72.125 Y78.630 E4.06722
G1 X72.815 Y77.690 E4.07824
G1 X73.295 Y77.140 E4.08514
G1 X73.931 Y76.504 E4.09364
G1 X74.175 Y76.710 F6000.000
G1 X74.725 Y76.230 F1200.000 E4.10053
G1 X75.615 Y75.570 E4.11100
G1 X76.235 Y75.190 E4.11787
G1 X77.175 Y74.710 E4.12784
G1 X77.855 Y74.430 E4.13479
G1 X78.815 Y74.120 E4.14432
G1 X79.515 Y73.950 E4.15113
G1 X80.635 Y73.780 E4.16183
G1 X81.375 Y73.730 E4.16884
G1 X81.825 Y73.720 E4.17309
G1 X93.095 Y73.720 E4.27956
G1 X93.625 Y73.760 E4.28458
G1 X94.155 Y73.850 E4.28966
G1 X94.925 Y74.060 E4.29720
G1 X95.665 Y74.360 E4.30474
G1 X96.145 Y74.600 E4.30981
G1 X96.595 Y74.890 E4.31487
G1 X97.025 Y75.210 E4.31993
G1 X97.615 Y75.750 E4.32749
G1 X98.125 Y76.360 E4.33500
G1 X98.575 Y77.030 E4.34263
G1 X98.925 Y77.750 E4.35019
G1 X99.115 Y78.250 E4.35524
G1 X99.325 Y79.020 E4.36278
G1 X99.415 Y79.550 E4.36786
G1 X99.455 Y80.080 E4.37288
G1 X99.455 Y89.920 E4.46584
G1 X99.415 Y90.450 E4.47086
G1 X99.265 Y91.240 E4.47846
G1 X99.025 Y92.000 E4.48599
G1 X98.815 Y92.490 E4.49103
G1 X98.575 Y92.970 E4.49610
G1 X98.285 Y93.420 E4.50115
G1 X97.965 Y93.850 E4.50622
G1 X97.425 Y94.440 E4.51377
G1 X96.815 Y94.950 E4.52129
G1 X96.145 Y95.400 E4.52891
G1 X95.425 Y95.750 E4.53647
G1 X94.675 Y96.020 E4.54400
G1 X93.885 Y96.200 E4.55166
G1 X93.625 Y96.240 E4.55414
G1 X93.095 Y96.280 E4.55917
G1 X81.825 Y96.280 E4.66564
G1 X81.285 Y96.260 E4.67074
G1 X80.555 Y96.200 E4.67766
G1 X79.555 Y96.040 E4.68723
G1 X78.845 Y95.870 E4.69413
G1 X77.855 Y95.560 E4.70393
G1 X77.175 Y95.280 E4.71087
G1 X76.235 Y94.800 E4.72084
G1 X75.615 Y94.420 E4.72771
G1 X74.725 Y93.760 E4.73818
G1 X74.175 Y93.280 E4.74508
G1 X73.535 Y92.640 E4.75363
G1 X72.905 Y91.920 E4.76267
G1 X72.625 Y91.550 E4.76705
G1 X72.375 Y91.160 E4.77143
G1 X71.995 Y90.530 E4.77838
G1 X71.555 Y89.660 E4.78759
G1 X71.275 Y88.990 E4.79445
G1 X70.945 Y87.970 E4.80458
G1 X70.775 Y87.260 E4.81147
G1 X70.605 Y86.170 E4.82190
G1 X70.555 Y85.440 E4.82881
G1 X70.555 Y84.530 E4.83741
G1 X70.605 Y83.810 E4.84422
G1 X70.775 Y82.730 E4.85455
G1 X70.945 Y82.020 E4.86145
G1 X71.255 Y81.030 E4.87125
G1 X71.535 Y80.350 E4.87820
G1 X72.015 Y79.410 E4.88817
G1 X72.395 Y78.790 E4.89504
G1 X73.055 Y77.900 E4.90551
G1 X73.535 Y77.350 E4.91240
G1 X74.141 Y76.744 E4.92050
G1 X74.385 Y76.950 F6000.000
G1 X74.935 Y76.470 F1200.000 E4.92740
G1 X75.785 Y75.840 E4.93740
G1 X76.405 Y75.460 E4.94427
G1 X77.295 Y75.010 E4.95369
G1 X77.975 Y74.730 E4.96063
G1 X78.895 Y74.430 E4.96978
G1 X79.595 Y74.260 E4.97658
G1 X80.655 Y74.100 E4.98671
G1 X81.825 Y74.030 E4.99778
G1 X92.825 Y74.030 E5.10170
G1 X93.345 Y74.050 E5.10662
G1 X94.125 Y74.170 E5.11407
G1 X94.875 Y74.370 E5.12141
G1 X95.125 Y74.460 E5.12392
G1 X95.595 Y74.670 E5.12878
G1 X95.835 Y74.790 E5.13132
G1 X96.285 Y75.060 E5.13627
G1 X96.705 Y75.360 E5.14115
G1 X97.295 Y75.880 E5.14858
G1 X97.815 Y76.470 E5.15601
G1 X98.115 Y76.890 E5.16089
G1 X98.255 Y77.120 E5.16343
G1 X98.385 Y77.340 E5.16584
G1 X98.615 Y77.810 E5.17079
G1 X98.805 Y78.300 E5.17575
G1 X99.005 Y79.050 E5.18308
G1 X99.125 Y79.830 E5.19054
G1 X99.145 Y80.350 E5.19546
G1 X99.145 Y89.650 E5.28332
G1 X99.125 Y90.170 E5.28823
G1 X99.005 Y90.950 E5.29569
G1 X98.805 Y91.700 E5.30302
G1 X98.715 Y91.950 E5.30553
G1 X98.505 Y92.420 E5.31039
G1 X98.385 Y92.660 E5.31293
G1 X98.115 Y93.110 E5.31789
G1 X97.815 Y93.530 E5.32276
G1 X97.295 Y94.120 E5.33019
G1 X96.705 Y94.640 E5.33762
G1 X96.285 Y94.940 E5.34250
G1 X96.055 Y95.080 E5.34504
G1 X95.835 Y95.210 E5.34746
G1 X95.365 Y95.440 E5.35240
G1 X94.875 Y95.630 E5.35736
G1 X94.125 Y95.830 E5.36470
G1 X93.345 Y95.950 E5.37215
G1 X92.825 Y95.970 E5.37707
G1 X81.825 Y95.970 E5.48099
G1 X81.305 Y95.950 E5.48591
G1 X80.575 Y95.890 E5.49283
G1 X79.625 Y95.730 E5.50193
G1 X78.915 Y95.560 E5.50882
G1 X77.975 Y95.260 E5.51815
G1 X77.295 Y94.980 E5.52509
G1 X76.405 Y94.530 E5.53451
G1 X75.785 Y94.150 E5.54138
G1 X74.935 Y93.520 E5.55138
G1 X74.385 Y93.040 E5.55828
G1 X73.775 Y92.430 E5.56643
G1 X73.155 Y91.720 E5.57533
G1 X72.885 Y91.360 E5.57958
G1 X72.645 Y90.990 E5.58375
G1 X72.265 Y90.360 E5.59070
G1 X71.845 Y89.540 E5.59940
G1 X71.565 Y88.870 E5.60626
G1 X71.255 Y87.900 E5.61588
G1 X71.085 Y87.190 E5.62278
G1 X70.925 Y86.150 E5.63272
G1 X70.875 Y85.420 E5.63963
G1 X70.875 Y84.550 E5.64785
G1 X70.925 Y83.830 E5.65467
G1 X71.085 Y82.800 E5.66452
G1 X71.255 Y82.090 E5.67142
G1 X71.555 Y81.150 E5.68074
G1 X71.835 Y80.470 E5.68769
G1 X72.285 Y79.580 E5.69711
G1 X72.665 Y78.960 E5.70398
G1 X73.295 Y78.110 E5.71397
G1 X73.775 Y77.560 E5.72087
G1 X74.351 Y76.984 E5.72857
G1 F1200.000 E4.22857
G92 E0
G1 X80.378 Y83.553 F6000.000
G1 F1200.000 E1.50000
G1 X80.622 Y83.345 F1200.000 E1.50303
G1 X80.896 Y83.177 E1.50607
G1 X81.193 Y83.054 E1.50910
G1 X81.505 Y82.979 E1.51213
G1 X81.825 Y82.954 E1.51516
G1 X82.145 Y82.979 E1.51820
G1 X82.457 Y83.054 E1.52123
G1 X82.754 Y83.177 E1.52426
G1 X83.028 Y83.345 E1.52730
G1 X83.272 Y83.553 E1.53033
G1 X83.480 Y83.797 E1.53336
G1 X83.648 Y84.071 E1.53640
G1 X83.771 Y84.368 E1.53943
G1 X83.846 Y84.680 E1.54246
G1 X83.871 Y85.000 E1.54549
G1 X83.846 Y85.320 E1.54853
G1 X83.771 Y85.632 E1.55156
G1 X83.648 Y85.929 E1.55459
G1 X83.480 Y86.203 E1.55763
G1 X83.272 Y86.447 E1.56066
G1 X83.028 Y86.655 E1.56369
G1 X82.754 Y86.823 E1.56673
G1 X82.457 Y86.946 E1.56976
G1 X82.145 Y87.021 E1.57279
G1 X81.825 Y87.046 E1.57582
G1 X81.505 Y87.021 E1.57886
G1 X81.193 Y86.946 E1.58189
G1 X80.896 Y86.823 E1.58492
G1 X80.622 Y86.655 E1.58796
G1 X80.378 Y86.447 E1.59099
G1 X80.170 Y86.203 E1.59402
G1 X80.002 Y85.929 E1.59706
G1 X79.879 Y85.632 E1.60009
G1 X79.804 Y85.320 E1.60312
G1 X79.779 Y85.000 E1.60615
G1 X79.804 Y84.680 E1.60919
G1 X79.879 Y84.368 E1.61222
G1 X80.002 Y84.071 E1.61525
G1 X80.170 Y83.797 E1.61829
G1 X80.347 Y83.590 E1.62087
G1 X80.603 Y83.778 F6000.000
G1 X80.810 Y83.602 F1200.000 E1.62343
G1 X81.041 Y83.461 E1.62599
G1 X81.291 Y83.357 E1.62855
G1 X81.555 Y83.294 E1.63111
G1 X81.825 Y83.272 E1.63368
G1 X82.095 Y83.294 E1.63624
G1 X82.359 Y83.357 E1.63880
G1 X82.609 Y83.461 E1.64136
G1 X82.840 Y83.602 E1.64392
G1 X83.047 Y83.778 E1.64648
G1 X83.223 Y83.985 E1.64904
G1 X83.364 Y84.216 E1.65160
G1 X83.468 Y84.466 E1.65416
G1 X83.531 Y84.730 E1.65672
G1 X83.553 Y85.000 E1.65929
G1 X83.531 Y85.270 E1.66185
G1 X83.468 Y85.534 E1.66441
G1 X83.364 Y85.784 E1.66697
G1 X83.223 Y86.015 E1.66953
G1 X83.047 Y86.222 E1.67209
G1 X82.840 Y86.398 E1.67465
G1 X82.609 Y86.539 E1.67721
G1 X82.359 Y86.643 E1.67977
G1 X82.095 Y86.706 E1.68233
G1 X81.825 Y86.728 E1.68490
G1 X81.555 Y86.706 E1.68746
G1 X81.291 Y86.643 E1.69002
G1 X81.041 Y86.539 E1.69258
G1 X80.810 Y86.398 E1.69514
G1 X80.603 Y86.222 E1.69770
G1 X80.427 Y86.015 E1.70026
G1 X80.286 Y85.784 E1.70282
G1 X80.182 Y85.534 E1.70538
G1 X80.119 Y85.270 E1.70794
G1 X80.097 Y85.000 E1.71051
G1 X80.119 Y84.730 E1.71307
G1 X80.182 Y84.466 E1.71563
G1 X80.286 Y84.216 E1.71819
G1 X80.427 Y83.985 E1.72075
G1 X80.573 Y83.815 E1.72286
G1 X80.829 Y84.004 F6000.000
G1 X80.997 Y83.860 F1200.000 E1.72495
G1 X81.185 Y83.744 E1.72704
G1 X81.390 Y83.660 E1.72913
G1 X81.605 Y83.608 E1.73122
G1 X81.825 Y83.591 E1.73331
G1 X82.045 Y83.608 E1.73540
G1 X82.260 Y83.660 E1.73748
G1 X82.465 Y83.744 E1.73957
G1 X82.653 Y83.860 E1.74166
G1 X82.821 Y84.004 E1.74375
G1 X82.965 Y84.172 E1.74584
G1 X83.081 Y84.360 E1.74793
G1 X83.165 Y84.565 E1.75002
G1 X83.217 Y84.780 E1.75211
G1 X83.234 Y85.000 E1.75420
G1 X83.217 Y85.220 E1.75629
G1 X83.165 Y85.435 E1.75837
G1 X83.081 Y85.640 E1.76046
G1 X82.965 Y85.828 E1.76255
G1 X82.821 Y85.996 E1.76464
G1 X82.653 Y86.140 E1.76673
G1 X82.465 Y86.256 E1.76882
G1 X82.260 Y86.340 E1.77091
G1 X82.045 Y86.392 E1.77300
G1 X81.825 Y86.409 E1.77509
G1 X81.605 Y86.392 E1.77718
G1 X81.390 Y86.340 E1.77927
G1 X81.185 Y86.256 E1.78135
G1 X80.997 Y86.140 E1.78344
G1 X80.829 Y85.996 E1.78553
G1 X80.685 Y85.828 E1.78762
G1 X80.569 Y85.640 E1.78971
G1 X80.485 Y85.435 E1.79180
G1 X80.433 Y85.220 E1.79389
G1 X80.416 Y85.000 E1.79598
G1 X80.433 Y84.780 E1.79807
G1 X80.485 Y84.565 E1.80016
G1 X80.569 Y84.360 E1.80224
