; generated by Slic3r 0.9.7 on 2013-12-27 at 23:44:29

; layer_height = 0.25
; perimeters = 3
; top_solid_layers = 3
; bottom_solid_layers = 3
; fill_density = 1
; perimeter_speed = 20
; infill_speed = 20
; travel_speed = 100
; scale = 1
; nozzle_diameter = 0.5
; filament_diameter = 2.89
; extrusion_multiplier = 0.79
; perimeters extrusion width = 0.40mm
; infill extrusion width = 0.25mm
; first layer extrusion width = 0.27mm

M107
M190 S70 ; wait for bed temperature to be reached
M104 S205 ; set temperature
G28 ; home all axes
M109 S205 ; wait for temperature to be reached
G90 ; use absolute coordinates
G21 ; set units to millimeters
G92 E0
M82 ; use absolute distances for extrusion
G1 F1500.000 E-1.50000
G92 E0
G1 Z0.250 F6000.000
G1 X72.845 Y69.230
G1 F1500.000 E1.50000
G1 X73.705 Y68.370 F1200.000 E1.51162
G1 X74.245 Y67.910 E1.51840
G1 X75.185 Y67.230 E1.52949
G1 X75.785 Y66.860 E1.53622
G1 X76.895 Y66.300 E1.54810
G1 X77.555 Y66.030 E1.55492
G1 X78.615 Y65.680 E1.56559
G1 X79.305 Y65.510 E1.57238
G1 X80.585 Y65.310 E1.58476
G1 X81.295 Y65.260 E1.59156
G1 X81.825 Y65.240 E1.59663
G1 X92.685 Y65.240 E1.70041
G1 X93.255 Y65.260 E1.70586
G1 X93.815 Y65.330 E1.71125
G1 X94.375 Y65.430 E1.71669
G1 X94.925 Y65.580 E1.72213
G1 X95.455 Y65.770 E1.72751
G1 X96.235 Y66.120 E1.73568
G1 X96.955 Y66.560 E1.74375
G1 X97.635 Y67.080 E1.75193
G1 X98.245 Y67.670 E1.76004
G1 X98.615 Y68.100 E1.76546
G1 X98.955 Y68.560 E1.77093
G1 X99.395 Y69.280 E1.77899
G1 X99.745 Y70.060 E1.78716
G1 X99.935 Y70.590 E1.79254
G1 X100.085 Y71.140 E1.79799
G1 X100.185 Y71.700 E1.80342
G1 X100.255 Y72.260 E1.80882
G1 X100.275 Y72.830 E1.81427
G1 X100.275 Y97.160 E2.04677
G1 X100.255 Y97.730 E2.05222
G1 X100.185 Y98.290 E2.05761
G1 X100.085 Y98.850 E2.06305
G1 X99.845 Y99.670 E2.07121
G1 X99.525 Y100.450 E2.07927
G1 X99.395 Y100.710 E2.08205
G1 X98.955 Y101.430 E2.09011
G1 X98.435 Y102.110 E2.09829
G1 X97.845 Y102.720 E2.10640
G1 X97.415 Y103.090 E2.11182
G1 X96.955 Y103.430 E2.11729
G1 X96.235 Y103.870 E2.12535
G1 X95.455 Y104.220 E2.13352
G1 X94.925 Y104.410 E2.13890
G1 X94.375 Y104.560 E2.14435
G1 X93.815 Y104.660 E2.14978
G1 X93.255 Y104.730 E2.15518
G1 X92.685 Y104.750 E2.16063
G1 X81.825 Y104.750 E2.26441
G1 X80.585 Y104.680 E2.27628
G1 X79.305 Y104.480 E2.28866
G1 X78.615 Y104.310 E2.29545
G1 X77.555 Y103.960 E2.30611
G1 X76.895 Y103.690 E2.31293
G1 X75.785 Y103.130 E2.32481
G1 X75.185 Y102.760 E2.33154
G1 X74.245 Y102.080 E2.34263
G1 X73.705 Y101.620 E2.34941
G1 X72.845 Y100.760 E2.36103
G1 X72.385 Y100.220 E2.36781
G1 X71.705 Y99.280 E2.37890
G1 X71.335 Y98.680 E2.38563
G1 X70.775 Y97.570 E2.39752
G1 X70.505 Y96.910 E2.40433
G1 X70.155 Y95.850 E2.41500
G1 X69.985 Y95.160 E2.42179
G1 X69.785 Y93.880 E2.43417
G1 X69.715 Y92.640 E2.44604
G1 X69.715 Y77.340 E2.59225
G1 X69.785 Y76.100 E2.60411
G1 X69.985 Y74.830 E2.61640
G1 X70.155 Y74.140 E2.62319
G1 X70.505 Y73.080 E2.63386
G1 X70.775 Y72.420 E2.64067
G1 X71.335 Y71.310 E2.65255
G1 X71.705 Y70.710 E2.65929
G1 X72.385 Y69.770 E2.67038
G1 X72.814 Y69.266 E2.67670
G1 X72.845 Y69.230 E2.67715
G1 X73.095 Y69.440 F6000.000
G1 X73.915 Y68.620 F1200.000 E2.68824
G1 X74.455 Y68.160 E2.69502
G1 X75.345 Y67.500 E2.70560
G1 X75.945 Y67.130 E2.71234
G1 X77.015 Y66.590 E2.72379
G1 X77.675 Y66.320 E2.73061
G1 X78.685 Y65.990 E2.74076
G1 X79.375 Y65.820 E2.74755
G1 X80.605 Y65.630 E2.75945
G1 X81.315 Y65.580 E2.76625
G1 X81.825 Y65.560 E2.77112
G1 X92.685 Y65.560 E2.87490
G1 X93.245 Y65.580 E2.88026
G1 X94.065 Y65.690 E2.88817
G1 X94.615 Y65.820 E2.89357
G1 X95.145 Y65.990 E2.89888
G1 X95.915 Y66.320 E2.90689
G1 X96.395 Y66.580 E2.91211
G1 X96.865 Y66.880 E2.91744
G1 X97.315 Y67.220 E2.92283
G1 X97.725 Y67.590 E2.92810
G1 X98.295 Y68.200 E2.93608
G1 X98.635 Y68.650 E2.94147
G1 X99.075 Y69.360 E2.94945
G1 X99.315 Y69.860 E2.95475
G1 X99.525 Y70.370 E2.96002
G1 X99.695 Y70.900 E2.96534
G1 X99.825 Y71.450 E2.97074
G1 X99.935 Y72.270 E2.97865
G1 X99.955 Y72.830 E2.98400
G1 X99.955 Y97.160 E3.21650
G1 X99.935 Y97.720 E3.22186
G1 X99.825 Y98.540 E3.22977
G1 X99.765 Y98.820 E3.23250
G1 X99.615 Y99.350 E3.23777
G1 X99.425 Y99.880 E3.24315
G1 X99.195 Y100.390 E3.24849
G1 X98.935 Y100.870 E3.25371
G1 X98.635 Y101.340 E3.25904
G1 X98.295 Y101.790 E3.26443
G1 X97.925 Y102.200 E3.26970
G1 X97.315 Y102.770 E3.27768
G1 X96.865 Y103.110 E3.28307
G1 X96.395 Y103.410 E3.28840
G1 X95.915 Y103.670 E3.29362
G1 X95.145 Y104.000 E3.30162
G1 X94.615 Y104.170 E3.30694
G1 X94.065 Y104.300 E3.31234
G1 X93.245 Y104.410 E3.32025
G1 X92.685 Y104.430 E3.32560
G1 X81.825 Y104.430 E3.42938
G1 X81.315 Y104.410 E3.43426
G1 X80.605 Y104.360 E3.44106
G1 X79.375 Y104.170 E3.45295
G1 X78.685 Y104.000 E3.45975
G1 X77.675 Y103.670 E3.46990
G1 X77.015 Y103.400 E3.47671
G1 X75.945 Y102.860 E3.48817
G1 X75.345 Y102.490 E3.49490
G1 X74.455 Y101.830 E3.50549
G1 X73.915 Y101.370 E3.51227
G1 X73.095 Y100.550 E3.52335
G1 X72.635 Y100.010 E3.53013
G1 X71.975 Y99.120 E3.54072
G1 X71.605 Y98.520 E3.54746
G1 X71.065 Y97.450 E3.55891
G1 X70.795 Y96.790 E3.56572
G1 X70.465 Y95.780 E3.57588
G1 X70.295 Y95.090 E3.58267
G1 X70.105 Y93.860 E3.59456
G1 X70.035 Y92.640 E3.60624
G1 X70.035 Y77.340 E3.75245
G1 X70.105 Y76.120 E3.76413
G1 X70.295 Y74.900 E3.77592
G1 X70.465 Y74.210 E3.78272
G1 X70.795 Y73.200 E3.79287
G1 X71.065 Y72.540 E3.79968
G1 X71.605 Y71.470 E3.81114
G1 X71.975 Y70.870 E3.81787
G1 X72.635 Y69.980 E3.82846
G1 X73.064 Y69.476 E3.83479
G1 X73.095 Y69.440 E3.83524
G1 X73.335 Y69.640 F6000.000
G1 X74.115 Y68.860 F1200.000 E3.84578
G1 X74.655 Y68.400 E3.85256
G1 X75.515 Y67.770 E3.86275
G1 X76.115 Y67.400 E3.86948
G1 X77.135 Y66.890 E3.88038
G1 X77.795 Y66.620 E3.88720
G1 X78.765 Y66.300 E3.89696
G1 X79.455 Y66.130 E3.90375
G1 X80.625 Y65.940 E3.91508
G1 X81.335 Y65.890 E3.92188
G1 X92.955 Y65.880 E4.03292
G1 X93.775 Y65.960 E4.04079
G1 X94.575 Y66.140 E4.04863
G1 X95.095 Y66.310 E4.05386
G1 X95.595 Y66.520 E4.05904
G1 X96.085 Y66.760 E4.06425
G1 X96.775 Y67.210 E4.07212
G1 X97.205 Y67.540 E4.07730
G1 X97.795 Y68.110 E4.08514
G1 X98.145 Y68.530 E4.09037
G1 X98.465 Y68.970 E4.09557
G1 X98.755 Y69.430 E4.10076
G1 X98.995 Y69.920 E4.10598
G1 X99.205 Y70.420 E4.11116
G1 X99.375 Y70.940 E4.11639
G1 X99.505 Y71.470 E4.12160
G1 X99.555 Y71.740 E4.12423
G1 X99.635 Y72.560 E4.13210
G1 X99.635 Y97.430 E4.36976
G1 X99.555 Y98.250 E4.37763
G1 X99.505 Y98.520 E4.38026
G1 X99.375 Y99.050 E4.38547
G1 X99.205 Y99.570 E4.39070
G1 X98.995 Y100.070 E4.39588
G1 X98.755 Y100.560 E4.40110
G1 X98.305 Y101.250 E4.40897
G1 X97.975 Y101.680 E4.41415
G1 X97.605 Y102.080 E4.41936
G1 X97.205 Y102.450 E4.42456
G1 X96.775 Y102.780 E4.42974
G1 X96.085 Y103.230 E4.43761
G1 X95.595 Y103.470 E4.44283
G1 X95.095 Y103.680 E4.44801
G1 X94.575 Y103.850 E4.45324
G1 X93.775 Y104.030 E4.46108
G1 X92.955 Y104.110 E4.46895
G1 X81.825 Y104.110 E4.57531
G1 X81.335 Y104.100 E4.57999
G1 X80.625 Y104.050 E4.58679
G1 X79.455 Y103.860 E4.59812
G1 X78.765 Y103.690 E4.60491
G1 X77.795 Y103.370 E4.61467
G1 X77.135 Y103.100 E4.62149
G1 X76.115 Y102.590 E4.63238
G1 X75.515 Y102.220 E4.63912
G1 X74.655 Y101.590 E4.64931
G1 X74.115 Y101.130 E4.65609
G1 X73.335 Y100.350 E4.66663
G1 X72.875 Y99.810 E4.67341
G1 X72.245 Y98.950 E4.68359
G1 X71.875 Y98.350 E4.69033
G1 X71.365 Y97.330 E4.70123
G1 X71.095 Y96.670 E4.70804
G1 X70.775 Y95.700 E4.71780
G1 X70.605 Y95.010 E4.72459
G1 X70.415 Y93.840 E4.73592
G1 X70.365 Y93.130 E4.74272
G1 X70.355 Y92.640 E4.74741
G1 X70.355 Y77.340 E4.89362
G1 X70.425 Y76.140 E4.90510
G1 X70.605 Y74.980 E4.91632
G1 X70.775 Y74.290 E4.92311
G1 X71.095 Y73.320 E4.93287
G1 X71.365 Y72.660 E4.93969
G1 X71.875 Y71.640 E4.95058
G1 X72.245 Y71.040 E4.95732
G1 X72.875 Y70.180 E4.96751
G1 X73.304 Y69.676 E4.97383
G1 X73.335 Y69.640 E4.97429
G1 X73.575 Y69.850 F6000.000
G1 X74.325 Y69.100 F1200.000 E4.98442
G1 X74.865 Y68.640 E4.99120
G1 X75.685 Y68.040 E5.00091
G1 X76.285 Y67.670 E5.00765
G1 X77.255 Y67.180 E5.01803
G1 X77.915 Y66.910 E5.02485
G1 X78.835 Y66.610 E5.03409
G1 X79.525 Y66.440 E5.04088
G1 X80.645 Y66.260 E5.05172
G1 X81.355 Y66.210 E5.05853
G1 X92.955 Y66.200 E5.16938
G1 X93.485 Y66.240 E5.17446
G1 X93.745 Y66.280 E5.17697
G1 X94.275 Y66.390 E5.18214
G1 X94.785 Y66.540 E5.18722
G1 X95.285 Y66.730 E5.19233
G1 X96.005 Y67.080 E5.19998
G1 X96.455 Y67.370 E5.20510
G1 X97.085 Y67.860 E5.21273
G1 X97.475 Y68.230 E5.21786
G1 X97.985 Y68.840 E5.22546
G1 X98.435 Y69.510 E5.23318
G1 X98.785 Y70.230 E5.24083
G1 X98.975 Y70.730 E5.24594
G1 X99.185 Y71.500 E5.25356
G1 X99.275 Y72.030 E5.25870
G1 X99.315 Y72.560 E5.26378
G1 X99.315 Y97.430 E5.50144
G1 X99.275 Y97.960 E5.50652
G1 X99.185 Y98.490 E5.51166
G1 X99.055 Y99.010 E5.51678
G1 X98.785 Y99.760 E5.52440
G1 X98.435 Y100.480 E5.53205
G1 X98.295 Y100.710 E5.53462
G1 X97.985 Y101.150 E5.53976
G1 X97.655 Y101.560 E5.54479
G1 X97.285 Y101.950 E5.54993
G1 X96.885 Y102.300 E5.55501
G1 X96.455 Y102.620 E5.56013
G1 X96.005 Y102.910 E5.56525
G1 X95.285 Y103.260 E5.57290
G1 X94.785 Y103.450 E5.57801
G1 X94.275 Y103.600 E5.58309
G1 X93.485 Y103.750 E5.59077
G1 X92.955 Y103.790 E5.59585
G1 X81.825 Y103.790 E5.70221
G1 X81.355 Y103.780 E5.70670
G1 X80.645 Y103.730 E5.71351
G1 X79.525 Y103.550 E5.72435
G1 X78.835 Y103.380 E5.73114
G1 X77.915 Y103.080 E5.74038
G1 X77.255 Y102.810 E5.74720
G1 X76.285 Y102.320 E5.75758
G1 X75.685 Y101.950 E5.76432
G1 X74.865 Y101.350 E5.77403
G1 X74.325 Y100.890 E5.78081
G1 X73.575 Y100.140 E5.79094
G1 X73.115 Y99.600 E5.79772
G1 X72.515 Y98.780 E5.80743
G1 X72.145 Y98.180 E5.81417
G1 X71.655 Y97.210 E5.82455
G1 X71.385 Y96.550 E5.83137
G1 X71.085 Y95.630 E5.84062
G1 X70.915 Y94.940 E5.84741
G1 X70.735 Y93.820 E5.85825
G1 X70.685 Y93.110 E5.86505
G1 X70.675 Y92.640 E5.86954
G1 X70.675 Y77.340 E6.01575
G1 X70.685 Y76.870 E6.02024
G1 X70.735 Y76.170 E6.02695
G1 X70.915 Y75.050 E6.03779
G1 X71.085 Y74.360 E6.04458
G1 X71.385 Y73.440 E6.05383
G1 X71.655 Y72.780 E6.06064
G1 X72.145 Y71.810 E6.07103
G1 X72.515 Y71.210 E6.07776
G1 X73.115 Y70.390 E6.08747
G1 X73.544 Y69.886 E6.09380
G1 X73.575 Y69.850 E6.09425
G1 X73.815 Y70.050 F6000.000
G1 X74.525 Y69.340 F1200.000 E6.10385
G1 X75.065 Y68.880 E6.11062
G1 X75.845 Y68.310 E6.11986
G1 X76.445 Y67.940 E6.12659
G1 X77.375 Y67.470 E6.13655
G1 X78.035 Y67.200 E6.14336
G1 X78.915 Y66.920 E6.15219
G1 X79.605 Y66.750 E6.15898
G1 X80.675 Y66.580 E6.16933
G1 X81.385 Y66.530 E6.17614
G1 X81.825 Y66.510 E6.18034
G1 X92.685 Y66.510 E6.28412
G1 X93.205 Y66.530 E6.28910
G1 X93.465 Y66.560 E6.29160
G1 X93.985 Y66.650 E6.29664
G1 X94.735 Y66.850 E6.30406
G1 X95.225 Y67.040 E6.30908
G1 X95.695 Y67.270 E6.31408
G1 X96.145 Y67.540 E6.31910
G1 X96.565 Y67.840 E6.32403
G1 X97.155 Y68.360 E6.33154
G1 X97.675 Y68.950 E6.33906
G1 X97.975 Y69.370 E6.34399
G1 X98.245 Y69.820 E6.34901
G1 X98.575 Y70.530 E6.35649
G1 X98.665 Y70.780 E6.35903
G1 X98.865 Y71.530 E6.36644
G1 X98.985 Y72.310 E6.37399
G1 X99.005 Y72.830 E6.37896
G1 X99.005 Y97.160 E6.61146
G1 X98.985 Y97.680 E6.61643
G1 X98.915 Y98.200 E6.62145
G1 X98.805 Y98.710 E6.62643
G1 X98.665 Y99.210 E6.63139
G1 X98.575 Y99.460 E6.63393
G1 X98.245 Y100.170 E6.64141
G1 X97.975 Y100.620 E6.64643
G1 X97.675 Y101.040 E6.65136
G1 X97.335 Y101.440 E6.65638
G1 X96.965 Y101.810 E6.66138
G1 X96.565 Y102.150 E6.66640
G1 X96.145 Y102.450 E6.67133
G1 X95.695 Y102.720 E6.67634
G1 X95.225 Y102.950 E6.68134
G1 X94.735 Y103.140 E6.68637
G1 X93.985 Y103.340 E6.69378
G1 X93.465 Y103.430 E6.69883
G1 X93.205 Y103.460 E6.70133
G1 X92.685 Y103.480 E6.70630
G1 X81.825 Y103.480 E6.81008
G1 X80.675 Y103.410 E6.82109
G1 X79.605 Y103.240 E6.83144
G1 X78.915 Y103.070 E6.83823
G1 X78.035 Y102.790 E6.84706
G1 X77.375 Y102.520 E6.85387
G1 X76.445 Y102.050 E6.86383
G1 X75.845 Y101.680 E6.87057
G1 X75.065 Y101.110 E6.87980
G1 X74.525 Y100.650 E6.88658
G1 X73.815 Y99.940 E6.89617
G1 X73.355 Y99.400 E6.90295
G1 X72.785 Y98.620 E6.91218
G1 X72.415 Y98.020 E6.91892
G1 X71.945 Y97.090 E6.92888
G1 X71.675 Y96.430 E6.93569
G1 X71.395 Y95.550 E6.94452
G1 X71.225 Y94.860 E6.95131
G1 X71.055 Y93.790 E6.96166
G1 X70.985 Y92.640 E6.97267
G1 X70.985 Y77.340 E7.11888
G1 X71.055 Y76.190 E7.12989
G1 X71.225 Y75.130 E7.14015
G1 X71.395 Y74.440 E7.14694
G1 X71.675 Y73.560 E7.15576
G1 X71.945 Y72.900 E7.16258
G1 X72.415 Y71.970 E7.17254
G1 X72.785 Y71.370 E7.17927
G1 X73.355 Y70.590 E7.18850
G1 X73.784 Y70.086 E7.19483
G1 X73.815 Y70.050 E7.19528
G1 F1500.000 E5.69528
G92 E0
G1 X79.689 Y90.514 F6000.000
G1 F1500.000 E1.50000
G1 X80.049 Y90.206 F1200.000 E1.50453
G1 X80.454 Y89.958 E1.50906
G1 X80.891 Y89.777 E1.51359
G1 X81.352 Y89.666 E1.51812
G1 X81.825 Y89.629 E1.52265
G1 X82.298 Y89.666 E1.52718
G1 X82.759 Y89.777 E1.53171
G1 X83.196 Y89.958 E1.53624
G1 X83.601 Y90.206 E1.54077
G1 X83.961 Y90.514 E1.54530
G1 X84.269 Y90.874 E1.54983
G1 X84.477 Y91.214 E1.55364
G1 X84.698 Y91.716 E1.55888
G1 X84.809 Y92.178 E1.56341
G1 X84.846 Y92.650 E1.56794
G1 X84.809 Y93.122 E1.57247
G1 X84.698 Y93.584 E1.57700
G1 X84.517 Y94.021 E1.58153
G1 X84.269 Y94.426 E1.58606
G1 X83.961 Y94.786 E1.59059
G1 X83.601 Y95.094 E1.59512
G1 X83.196 Y95.342 E1.59965
G1 X82.759 Y95.523 E1.60418
G1 X82.298 Y95.634 E1.60871
G1 X81.825 Y95.671 E1.61324
G1 X81.352 Y95.634 E1.61777
G1 X80.891 Y95.523 E1.62230
G1 X80.454 Y95.342 E1.62683
G1 X80.049 Y95.094 E1.63136
G1 X79.689 Y94.786 E1.63589
G1 X79.381 Y94.426 E1.64042
G1 X79.133 Y94.021 E1.64495
G1 X78.952 Y93.584 E1.64948
G1 X78.841 Y93.123 E1.65401
G1 X78.804 Y92.650 E1.65854
G1 X78.841 Y92.177 E1.66307
G1 X78.952 Y91.716 E1.66760
G1 X79.133 Y91.279 E1.67213
G1 X79.381 Y90.874 E1.67666
G1 X79.658 Y90.550 E1.68074
G1 X79.689 Y90.514 E1.68119
G1 X79.914 Y90.739 F6000.000
G1 X80.236 Y90.464 F1200.000 E1.68524
G1 X80.598 Y90.242 E1.68930
G1 X80.990 Y90.080 E1.69335
G1 X81.402 Y89.981 E1.69740
G1 X81.825 Y89.947 E1.70145
G1 X82.248 Y89.981 E1.70551
G1 X82.660 Y90.080 E1.70956
G1 X83.052 Y90.242 E1.71361
G1 X83.414 Y90.464 E1.71766
G1 X83.736 Y90.739 E1.72172
G1 X84.011 Y91.061 E1.72577
G1 X84.207 Y91.380 E1.72934
G1 X84.395 Y91.815 E1.73387
G1 X84.494 Y92.227 E1.73792
G1 X84.528 Y92.650 E1.74197
G1 X84.494 Y93.073 E1.74602
G1 X84.395 Y93.485 E1.75008
G1 X84.233 Y93.877 E1.75413
G1 X84.011 Y94.239 E1.75818
G1 X83.736 Y94.561 E1.76224
G1 X83.414 Y94.836 E1.76629
G1 X83.052 Y95.058 E1.77034
G1 X82.660 Y95.220 E1.77439
G1 X82.248 Y95.319 E1.77845
G1 X81.825 Y95.353 E1.78250
G1 X81.402 Y95.319 E1.78655
G1 X80.990 Y95.220 E1.79060
G1 X80.598 Y95.058 E1.79466
G1 X80.236 Y94.836 E1.79871
G1 X79.914 Y94.561 E1.80276
G1 X79.639 Y94.239 E1.80681
G1 X79.417 Y93.877 E1.81087
G1 X79.255 Y93.485 E1.81492
G1 X79.156 Y93.073 E1.81897
G1 X79.122 Y92.650 E1.82302
G1 X79.156 Y92.227 E1.82708
G1 X79.255 Y91.815 E1.83113
G1 X79.417 Y91.423 E1.83518
G1 X79.639 Y91.061 E1.83923
G1 X79.883 Y90.775 E1.84283
G1 X79.914 Y90.739 E1.84329
G1 X80.139 Y90.964 F6000.000
G1 X80.424 Y90.721 F1200.000 E1.84686
G1 X80.743 Y90.526 E1.85044
G1 X81.088 Y90.383 E1.85401
G1 X81.452 Y90.295 E1.85759
G1 X81.825 Y90.266 E1.86116
G1 X82.198 Y90.295 E1.86474
G1 X82.562 Y90.383 E1.86831
G1 X82.907 Y90.526 E1.87189
G1 X83.226 Y90.721 E1.87546
G1 X83.511 Y90.964 E1.87904
G1 X83.754 Y91.249 E1.88261
G1 X83.936 Y91.546 E1.88594
G1 X84.092 Y91.913 E1.88976
G1 X84.180 Y92.277 E1.89334
G1 X84.209 Y92.650 E1.89691
G1 X84.180 Y93.023 E1.90048
G1 X84.092 Y93.387 E1.90406
G1 X83.949 Y93.732 E1.90764
G1 X83.754 Y94.051 E1.91121
G1 X83.511 Y94.336 E1.91479
G1 X83.226 Y94.579 E1.91836
G1 X82.907 Y94.774 E1.92194
G1 X82.562 Y94.917 E1.92551
G1 X82.198 Y95.005 E1.92909
G1 X81.825 Y95.034 E1.93266
