; generated by Slic3r 0.9.8 on 2013-09-11 at 00:11:22

; layer_height = 0.20
; perimeters = 3
; top_solid_layers = 3
; bottom_solid_layers = 3
; fill_density = 0.5
; perimeter_speed = 30
; infill_speed = 40
; travel_speed = 100
; scale = 1
; nozzle_diameter = 0.5
; filament_diameter = 2.9
; extrusion_multiplier = 0.80
; perimeters extrusion width = 0.40mm
; infill extrusion width = 0.20mm
; first layer extrusion width = 0.20mm

M107
M190 S70 ; wait for bed temperature to be reached
M104 S210 ; set temperature
G28 ; home all axes
M109 S210 ; wait for temperature to be reached
G90 ; use absolute coordinates
G21 ; set units to millimeters
G92 E0
M82 ; use absolute distances for extrusion
G1 F1800.000 E-1.00000
G92 E0
G1 Z0.200 F6000.000
G1 X86.770 Y84.370
G1 F1800.000 E1.00000
G1 X86.340 Y84.730 F1800.000 E1.00363
G1 X85.880 Y85.050 E1.00727
G1 X85.400 Y85.340 E1.01090
G1 X84.890 Y85.590 E1.01458
G1 X84.370 Y85.800 E1.01821
G1 X83.830 Y85.970 E1.02188
G1 X83.290 Y86.090 E1.02547
G1 X82.730 Y86.180 E1.02914
G1 X82.450 Y86.210 E1.03097
G1 X81.890 Y86.230 E1.03460
G1 X72.000 Y86.230 E1.09869
G1 X70.790 Y86.150 E1.10655
G1 X69.720 Y85.990 E1.11356
G1 X69.120 Y85.850 E1.11755
G1 X68.000 Y85.490 E1.12517
G1 X67.440 Y85.260 E1.12910
G1 X66.440 Y84.750 E1.13637
G1 X65.910 Y84.430 E1.14038
G1 X64.890 Y83.690 E1.14855
G1 X64.430 Y83.290 E1.15250
G1 X63.700 Y82.560 E1.15919
G1 X63.300 Y82.100 E1.16314
G1 X62.560 Y81.080 E1.17131
G1 X62.240 Y80.550 E1.17532
G1 X61.730 Y79.550 E1.18259
G1 X61.500 Y78.990 E1.18652
G1 X61.140 Y77.870 E1.19414
G1 X61.000 Y77.270 E1.19813
G1 X60.840 Y76.200 E1.20514
G1 X60.790 Y75.590 E1.20911
G1 X60.790 Y74.380 E1.21695
G1 X60.840 Y73.780 E1.22085
G1 X61.000 Y72.720 E1.22780
G1 X61.140 Y72.120 E1.23179
G1 X61.500 Y71.000 E1.23942
G1 X61.730 Y70.440 E1.24334
G1 X62.240 Y69.440 E1.25061
G1 X62.560 Y68.910 E1.25463
G1 X63.300 Y67.890 E1.26279
G1 X63.700 Y67.430 E1.26674
G1 X64.430 Y66.700 E1.27343
G1 X64.890 Y66.300 E1.27738
G1 X65.910 Y65.560 E1.28555
G1 X66.440 Y65.240 E1.28956
G1 X67.440 Y64.730 E1.29684
G1 X68.000 Y64.500 E1.30076
G1 X69.120 Y64.140 E1.30838
G1 X69.720 Y64.000 E1.31237
G1 X70.790 Y63.840 E1.31939
G1 X71.400 Y63.790 E1.32335
G1 X72.000 Y63.760 E1.32725
G1 X81.890 Y63.760 E1.39134
G1 X82.450 Y63.780 E1.39497
G1 X83.290 Y63.900 E1.40047
G1 X83.830 Y64.020 E1.40405
G1 X84.370 Y64.190 E1.40772
G1 X84.890 Y64.400 E1.41135
G1 X85.400 Y64.650 E1.41503
G1 X85.880 Y64.940 E1.41867
G1 X86.340 Y65.260 E1.42230
G1 X86.980 Y65.810 E1.42777
G1 X87.550 Y66.430 E1.43322
G1 X87.730 Y66.650 E1.43507
G1 X88.050 Y67.110 E1.43870
G1 X88.470 Y67.840 E1.44416
G1 X88.800 Y68.620 E1.44964
G1 X88.970 Y69.160 E1.45331
G1 X89.090 Y69.700 E1.45690
G1 X89.180 Y70.260 E1.46057
G1 X89.210 Y70.540 E1.46240
G1 X89.230 Y71.100 E1.46603
G1 X89.230 Y78.890 E1.51651
G1 X89.210 Y79.450 E1.52014
G1 X89.090 Y80.290 E1.52564
G1 X88.970 Y80.830 E1.52923
G1 X88.800 Y81.370 E1.53289
G1 X88.590 Y81.890 E1.53653
G1 X88.340 Y82.400 E1.54021
G1 X88.050 Y82.880 E1.54384
G1 X87.730 Y83.340 E1.54747
G1 X87.180 Y83.980 E1.55294
G1 X86.800 Y84.343 E1.55635
G1 X86.770 Y84.370 E1.55661
G1 X86.690 Y84.080 F6000.000
G1 X86.270 Y84.440 F1800.000 E1.56019
G1 X85.820 Y84.770 E1.56381
G1 X85.340 Y85.060 E1.56744
G1 X84.850 Y85.310 E1.57101
G1 X84.340 Y85.520 E1.57458
G1 X83.810 Y85.690 E1.57819
G1 X83.270 Y85.820 E1.58179
G1 X82.720 Y85.910 E1.58540
G1 X82.440 Y85.940 E1.58723
G1 X81.890 Y85.960 E1.59079
G1 X72.000 Y85.960 E1.65488
G1 X71.420 Y85.940 E1.65864
G1 X70.810 Y85.890 E1.66261
G1 X69.780 Y85.730 E1.66936
G1 X69.180 Y85.590 E1.67336
G1 X68.100 Y85.240 E1.68071
G1 X67.540 Y85.010 E1.68464
G1 X66.580 Y84.520 E1.69162
G1 X66.050 Y84.200 E1.69563
G1 X65.060 Y83.490 E1.70353
G1 X64.600 Y83.090 E1.70748
G1 X63.900 Y82.390 E1.71389
G1 X63.500 Y81.930 E1.71784
G1 X62.790 Y80.940 E1.72574
G1 X62.470 Y80.410 E1.72975
G1 X61.980 Y79.450 E1.73674
G1 X61.750 Y78.890 E1.74066
G1 X61.400 Y77.810 E1.74802
G1 X61.260 Y77.210 E1.75201
G1 X61.100 Y76.180 E1.75876
G1 X61.050 Y75.570 E1.76273
G1 X61.050 Y74.400 E1.77031
G1 X61.100 Y73.800 E1.77421
G1 X61.260 Y72.780 E1.78090
G1 X61.400 Y72.180 E1.78490
G1 X61.750 Y71.100 E1.79225
G1 X61.980 Y70.540 E1.79618
G1 X62.470 Y69.580 E1.80316
G1 X62.790 Y69.050 E1.80717
G1 X63.500 Y68.060 E1.81507
G1 X63.900 Y67.600 E1.81902
G1 X64.600 Y66.900 E1.82543
G1 X65.060 Y66.500 E1.82938
G1 X66.050 Y65.790 E1.83728
G1 X66.580 Y65.470 E1.84129
G1 X67.540 Y64.980 E1.84828
G1 X68.100 Y64.750 E1.85220
G1 X69.180 Y64.400 E1.85956
G1 X69.780 Y64.260 E1.86355
G1 X70.810 Y64.100 E1.87030
G1 X71.420 Y64.050 E1.87427
G1 X72.000 Y64.030 E1.87803
G1 X81.890 Y64.030 E1.94212
G1 X82.440 Y64.050 E1.94569
G1 X83.000 Y64.120 E1.94934
G1 X83.540 Y64.230 E1.95291
G1 X84.070 Y64.380 E1.95648
G1 X84.600 Y64.570 E1.96013
G1 X85.100 Y64.800 E1.96370
G1 X85.580 Y65.070 E1.96727
G1 X85.820 Y65.220 E1.96910
G1 X86.270 Y65.550 E1.97272
G1 X86.890 Y66.100 E1.97809
G1 X87.270 Y66.510 E1.98171
G1 X87.770 Y67.170 E1.98708
G1 X88.190 Y67.890 E1.99248
G1 X88.520 Y68.650 E1.99785
G1 X88.760 Y69.450 E2.00326
G1 X88.910 Y70.270 E2.00866
G1 X88.940 Y70.550 E2.01049
G1 X88.960 Y71.100 E2.01405
G1 X88.960 Y78.890 E2.06454
G1 X88.940 Y79.440 E2.06810
G1 X88.870 Y80.000 E2.07176
G1 X88.760 Y80.540 E2.07533
G1 X88.610 Y81.070 E2.07890
G1 X88.420 Y81.600 E2.08255
G1 X88.190 Y82.100 E2.08612
G1 X87.920 Y82.580 E2.08968
G1 X87.610 Y83.050 E2.09333
G1 X87.270 Y83.480 E2.09688
G1 X86.719 Y84.052 E2.10203
G1 X86.690 Y84.080 E2.10229
G1 X86.600 Y83.800 F6000.000
G1 X86.190 Y84.160 F1800.000 E2.10583
G1 X85.750 Y84.490 E2.10939
G1 X85.530 Y84.640 E2.11112
G1 X84.810 Y85.040 E2.11646
G1 X84.300 Y85.250 E2.12003
G1 X83.780 Y85.420 E2.12358
G1 X83.250 Y85.560 E2.12713
G1 X82.710 Y85.640 E2.13067
G1 X82.160 Y85.690 E2.13424
G1 X72.000 Y85.690 E2.20008
G1 X71.440 Y85.670 E2.20372
G1 X70.830 Y85.620 E2.20768
G1 X69.840 Y85.460 E2.21418
G1 X69.240 Y85.320 E2.21817
G1 X68.210 Y84.990 E2.22518
G1 X67.650 Y84.760 E2.22910
G1 X66.710 Y84.290 E2.23592
G1 X66.180 Y83.970 E2.23993
G1 X65.240 Y83.280 E2.24748
G1 X64.780 Y82.880 E2.25143
G1 X64.110 Y82.210 E2.25757
G1 X63.710 Y81.750 E2.26152
G1 X63.020 Y80.810 E2.26908
G1 X62.700 Y80.280 E2.27309
G1 X62.230 Y79.340 E2.27990
G1 X62.000 Y78.780 E2.28383
G1 X61.670 Y77.750 E2.29084
G1 X61.530 Y77.150 E2.29483
G1 X61.370 Y76.160 E2.30133
G1 X61.320 Y75.550 E2.30529
G1 X61.320 Y74.430 E2.31255
G1 X61.370 Y73.830 E2.31645
G1 X61.530 Y72.840 E2.32295
G1 X61.670 Y72.240 E2.32694
G1 X62.000 Y71.210 E2.33395
G1 X62.230 Y70.650 E2.33788
G1 X62.700 Y69.710 E2.34469
G1 X63.020 Y69.180 E2.34870
G1 X63.710 Y68.240 E2.35625
G1 X64.110 Y67.780 E2.36020
G1 X64.780 Y67.110 E2.36635
G1 X65.240 Y66.710 E2.37030
G1 X66.180 Y66.020 E2.37785
G1 X66.710 Y65.700 E2.38186
G1 X67.650 Y65.230 E2.38867
G1 X68.210 Y65.000 E2.39260
G1 X69.240 Y64.670 E2.39961
G1 X69.840 Y64.530 E2.40360
G1 X70.830 Y64.370 E2.41010
G1 X71.440 Y64.320 E2.41406
G1 X72.000 Y64.300 E2.41770
G1 X82.160 Y64.300 E2.48353
G1 X82.440 Y64.320 E2.48535
G1 X83.250 Y64.430 E2.49065
G1 X83.780 Y64.570 E2.49420
G1 X84.300 Y64.740 E2.49775
G1 X84.810 Y64.950 E2.50132
G1 X85.290 Y65.210 E2.50486
G1 X85.530 Y65.350 E2.50666
G1 X85.980 Y65.660 E2.51020
G1 X86.600 Y66.190 E2.51549
G1 X87.160 Y66.800 E2.52085
G1 X87.330 Y67.010 E2.52260
G1 X87.640 Y67.460 E2.52615
G1 X88.040 Y68.180 E2.53148
G1 X88.340 Y68.950 E2.53684
G1 X88.560 Y69.740 E2.54215
G1 X88.640 Y70.280 E2.54569
G1 X88.690 Y70.830 E2.54927
G1 X88.690 Y79.160 E2.60325
G1 X88.640 Y79.710 E2.60683
G1 X88.560 Y80.250 E2.61037
G1 X88.420 Y80.780 E2.61392
G1 X88.250 Y81.300 E2.61746
G1 X88.040 Y81.810 E2.62104
G1 X87.780 Y82.290 E2.62458
G1 X87.640 Y82.530 E2.62638
G1 X87.330 Y82.980 E2.62992
G1 X86.980 Y83.400 E2.63346
G1 X86.628 Y83.772 E2.63678
G1 X86.600 Y83.800 E2.63704
G1 X86.420 Y83.600 F6000.000
G1 X86.020 Y83.950 F1800.000 E2.64048
G1 X85.600 Y84.270 E2.64390
G1 X84.930 Y84.680 E2.64899
G1 X84.210 Y85.000 E2.65410
G1 X83.710 Y85.170 E2.65752
G1 X83.450 Y85.240 E2.65926
G1 X82.680 Y85.380 E2.66434
G1 X81.890 Y85.430 E2.66947
G1 X72.000 Y85.430 E2.73356
G1 X70.860 Y85.350 E2.74096
G1 X69.910 Y85.200 E2.74719
G1 X69.310 Y85.060 E2.75119
G1 X68.310 Y84.750 E2.75797
G1 X67.750 Y84.520 E2.76189
G1 X66.850 Y84.060 E2.76844
G1 X66.320 Y83.740 E2.77246
G1 X65.410 Y83.080 E2.77974
G1 X64.950 Y82.680 E2.78369
G1 X64.310 Y82.040 E2.78956
G1 X63.910 Y81.580 E2.79351
G1 X63.250 Y80.670 E2.80079
G1 X62.930 Y80.140 E2.80480
G1 X62.470 Y79.240 E2.81135
G1 X62.240 Y78.680 E2.81528
G1 X61.930 Y77.680 E2.82206
G1 X61.790 Y77.080 E2.82605
G1 X61.640 Y76.130 E2.83229
G1 X61.590 Y75.520 E2.83625
G1 X61.590 Y74.450 E2.84319
G1 X61.640 Y73.850 E2.84709
G1 X61.790 Y72.910 E2.85326
G1 X61.930 Y72.310 E2.85725
G1 X62.240 Y71.310 E2.86403
G1 X62.470 Y70.750 E2.86796
G1 X62.930 Y69.850 E2.87451
G1 X63.250 Y69.320 E2.87852
G1 X63.910 Y68.410 E2.88580
G1 X64.310 Y67.950 E2.88975
G1 X64.950 Y67.310 E2.89562
G1 X65.410 Y66.910 E2.89957
G1 X66.320 Y66.250 E2.90685
G1 X66.850 Y65.930 E2.91087
G1 X67.750 Y65.470 E2.91742
G1 X68.310 Y65.240 E2.92134
G1 X69.310 Y64.930 E2.92812
G1 X69.910 Y64.790 E2.93212
G1 X70.860 Y64.640 E2.93835
G1 X71.470 Y64.590 E2.94232
G1 X72.000 Y64.560 E2.94576
G1 X81.890 Y64.560 E3.00985
G1 X82.680 Y64.610 E3.01498
G1 X83.450 Y64.750 E3.02005
G1 X84.210 Y64.990 E3.02521
G1 X84.930 Y65.310 E3.03032
G1 X85.600 Y65.720 E3.03541
G1 X85.820 Y65.880 E3.03717
G1 X86.420 Y66.390 E3.04227
G1 X86.780 Y66.770 E3.04567
G1 X87.270 Y67.390 E3.05079
G1 X87.680 Y68.060 E3.05588
G1 X88.000 Y68.780 E3.06098
G1 X88.240 Y69.540 E3.06615
G1 X88.380 Y70.310 E3.07122
G1 X88.430 Y71.100 E3.07635
G1 X88.430 Y78.890 E3.12683
G1 X88.380 Y79.680 E3.13196
G1 X88.340 Y79.940 E3.13366
G1 X88.240 Y80.450 E3.13703
G1 X88.090 Y80.960 E3.14048
G1 X87.900 Y81.450 E3.14388
G1 X87.680 Y81.930 E3.14730
G1 X87.270 Y82.600 E3.15239
G1 X87.110 Y82.820 E3.15416
G1 X86.780 Y83.220 E3.15752
G1 X86.448 Y83.572 E3.16065
G1 X86.420 Y83.600 E3.16091
G1 X86.320 Y83.320 F6000.000
G1 X85.740 Y83.840 F1800.000 E3.16596
G1 X85.320 Y84.140 E3.16930
G1 X84.640 Y84.520 E3.17435
G1 X84.170 Y84.730 E3.17769
G1 X83.430 Y84.970 E3.18273
G1 X82.920 Y85.070 E3.18610
G1 X82.410 Y85.140 E3.18943
G1 X81.890 Y85.160 E3.19280
G1 X72.000 Y85.160 E3.25689
G1 X70.880 Y85.090 E3.26417
G1 X69.970 Y84.940 E3.27014
G1 X69.370 Y84.800 E3.27414
G1 X68.410 Y84.500 E3.28065
G1 X67.850 Y84.270 E3.28458
G1 X66.990 Y83.840 E3.29081
G1 X66.460 Y83.520 E3.29482
G1 X65.590 Y82.880 E3.30182
G1 X65.130 Y82.480 E3.30577
G1 X64.510 Y81.860 E3.31145
G1 X64.110 Y81.400 E3.31540
G1 X63.470 Y80.530 E3.32240
G1 X63.150 Y80.000 E3.32641
G1 X62.720 Y79.140 E3.33264
G1 X62.490 Y78.580 E3.33657
G1 X62.190 Y77.620 E3.34308
G1 X62.050 Y77.020 E3.34708
G1 X61.900 Y76.110 E3.35305
G1 X61.850 Y75.500 E3.35702
G1 X61.850 Y74.470 E3.36369
G1 X61.900 Y73.870 E3.36760
G1 X62.050 Y72.970 E3.37351
G1 X62.190 Y72.370 E3.37750
G1 X62.490 Y71.410 E3.38402
G1 X62.720 Y70.850 E3.38794
G1 X63.150 Y69.990 E3.39417
G1 X63.470 Y69.460 E3.39818
G1 X64.110 Y68.590 E3.40518
G1 X64.510 Y68.130 E3.40913
G1 X65.130 Y67.510 E3.41482
G1 X65.590 Y67.110 E3.41877
G1 X66.460 Y66.470 E3.42577
G1 X66.990 Y66.150 E3.42978
G1 X67.850 Y65.720 E3.43601
G1 X68.410 Y65.490 E3.43993
G1 X69.370 Y65.190 E3.44645
G1 X69.970 Y65.050 E3.45044
G1 X70.880 Y64.900 E3.45642
G1 X72.000 Y64.830 E3.46369
G1 X81.890 Y64.830 E3.52778
G1 X82.410 Y64.850 E3.53115
G1 X82.920 Y64.920 E3.53449
G1 X83.430 Y65.020 E3.53786
G1 X83.930 Y65.170 E3.54124
G1 X84.640 Y65.470 E3.54623
G1 X85.320 Y65.850 E3.55128
G1 X85.740 Y66.150 E3.55463
G1 X86.320 Y66.670 E3.55967
G1 X86.840 Y67.250 E3.56472
G1 X87.140 Y67.670 E3.56807
G1 X87.520 Y68.350 E3.57312
G1 X87.820 Y69.060 E3.57811
G1 X87.970 Y69.560 E3.58149
G1 X88.070 Y70.070 E3.58486
G1 X88.140 Y70.580 E3.58820
G1 X88.160 Y71.100 E3.59157
G1 X88.160 Y78.890 E3.64205
G1 X88.140 Y79.410 E3.64542
G1 X88.110 Y79.670 E3.64712
G1 X87.970 Y80.430 E3.65213
G1 X87.900 Y80.680 E3.65381
G1 X87.730 Y81.170 E3.65717
G1 X87.520 Y81.640 E3.66051
G1 X87.140 Y82.320 E3.66555
G1 X86.840 Y82.740 E3.66890
G1 X86.348 Y83.291 E3.67369
G1 X86.320 Y83.320 E3.67395
M204 S1000
G1 F1800.000 E2.67395
G92 E0
G1 X74.351 Y76.198 F6000.000
G1 F1800.000 E1.00000
G1 X74.135 Y76.551 F1800.000 E1.00268
G1 X73.866 Y76.866 E1.00537
G1 X73.551 Y77.135 E1.00805
G1 X73.198 Y77.351 E1.01073
G1 X72.816 Y77.510 E1.01342
G1 X72.413 Y77.607 E1.01610
G1 X72.000 Y77.639 E1.01879
G1 X71.587 Y77.607 E1.02147
G1 X71.184 Y77.510 E1.02415
G1 X70.802 Y77.351 E1.02684
G1 X70.449 Y77.135 E1.02952
G1 X70.134 Y76.866 E1.03220
G1 X69.865 Y76.551 E1.03489
G1 X69.649 Y76.198 E1.03757
G1 X69.490 Y75.816 E1.04025
G1 X69.393 Y75.413 E1.04294
G1 X69.361 Y75.000 E1.04562
G1 X69.393 Y74.587 E1.04830
G1 X69.490 Y74.184 E1.05099
G1 X69.649 Y73.802 E1.05367
G1 X69.865 Y73.449 E1.05635
G1 X70.134 Y73.134 E1.05904
G1 X70.449 Y72.865 E1.06172
G1 X70.802 Y72.649 E1.06441
G1 X71.184 Y72.490 E1.06709
G1 X71.587 Y72.393 E1.06977
G1 X72.000 Y72.361 E1.07246
G1 X72.413 Y72.393 E1.07514
G1 X72.816 Y72.490 E1.07782
G1 X73.198 Y72.649 E1.08051
G1 X73.551 Y72.865 E1.08319
G1 X73.866 Y73.134 E1.08587
G1 X74.135 Y73.449 E1.08856
G1 X74.351 Y73.802 E1.09124
G1 X74.510 Y74.185 E1.09392
G1 X74.592 Y74.526 E1.09620
G1 X74.639 Y75.000 E1.09929
G1 X74.607 Y75.413 E1.10197
G1 X74.510 Y75.815 E1.10465
G1 X74.367 Y76.161 E1.10708
G1 X74.351 Y76.198 E1.10734
G1 X74.112 Y76.076 F6000.000
G1 X73.918 Y76.393 F1800.000 E1.10975
G1 X73.676 Y76.676 E1.11216
G1 X73.393 Y76.918 E1.11457
G1 X73.076 Y77.112 E1.11698
G1 X72.733 Y77.255 E1.11939
G1 X72.371 Y77.341 E1.12180
G1 X72.000 Y77.371 E1.12421
G1 X71.629 Y77.341 E1.12662
G1 X71.267 Y77.255 E1.12903
G1 X70.924 Y77.112 E1.13144
G1 X70.607 Y76.918 E1.13385
G1 X70.324 Y76.676 E1.13627
G1 X70.082 Y76.393 E1.13868
G1 X69.888 Y76.076 E1.14109
G1 X69.745 Y75.733 E1.14350
G1 X69.659 Y75.371 E1.14591
G1 X69.629 Y75.000 E1.14832
G1 X69.659 Y74.629 E1.15073
G1 X69.745 Y74.267 E1.15314
G1 X69.888 Y73.924 E1.15555
G1 X70.082 Y73.607 E1.15796
G1 X70.324 Y73.324 E1.16037
G1 X70.607 Y73.082 E1.16278
G1 X70.924 Y72.888 E1.16519
G1 X71.267 Y72.745 E1.16760
G1 X71.629 Y72.659 E1.17001
G1 X72.000 Y72.629 E1.17243
G1 X72.371 Y72.659 E1.17484
G1 X72.733 Y72.745 E1.17725
G1 X73.076 Y72.888 E1.17966
G1 X73.393 Y73.082 E1.18207
G1 X73.676 Y73.324 E1.18448
G1 X73.918 Y73.607 E1.18689
G1 X74.112 Y73.924 E1.18930
G1 X74.255 Y74.267 E1.19171
G1 X74.332 Y74.589 E1.19385
G1 X74.371 Y75.000 E1.19653
G1 X74.341 Y75.371 E1.19894
G1 X74.255 Y75.733 E1.20135
G1 X74.128 Y76.039 E1.20350
G1 X74.112 Y76.076 E1.20376
G1 X73.873 Y75.954 F6000.000
G1 X73.701 Y76.236 F1800.000 E1.20590
G1 X73.487 Y76.487 E1.20804
G1 X73.236 Y76.701 E1.21017
G1 X72.954 Y76.873 E1.21231
G1 X72.650 Y76.999 E1.21445
G1 X72.329 Y77.076 E1.21659
G1 X72.000 Y77.102 E1.21873
G1 X71.671 Y77.076 E1.22086
G1 X71.350 Y76.999 E1.22300
G1 X71.046 Y76.873 E1.22514
G1 X70.764 Y76.701 E1.22728
G1 X70.513 Y76.487 E1.22941
G1 X70.299 Y76.236 E1.23155
G1 X70.127 Y75.954 E1.23369
G1 X70.001 Y75.650 E1.23583
G1 X69.924 Y75.329 E1.23797
G1 X69.898 Y75.000 E1.24010
G1 X69.924 Y74.671 E1.24224
G1 X70.001 Y74.350 E1.24438
G1 X70.127 Y74.046 E1.24652
G1 X70.299 Y73.764 E1.24865
G1 X70.513 Y73.513 E1.25079
G1 X70.764 Y73.299 E1.25293
G1 X71.046 Y73.127 E1.25507
G1 X71.350 Y73.001 E1.25721
G1 X71.671 Y72.924 E1.25934
G1 X72.000 Y72.898 E1.26148
G1 X72.329 Y72.924 E1.26362
G1 X72.650 Y73.001 E1.26576
G1 X72.954 Y73.127 E1.26789
