; generated by Slic3r 0.9.8 on 2013-09-10 at 23:49:10

; layer_height = 0.20
; perimeters = 3
; top_solid_layers = 3
; bottom_solid_layers = 3
; fill_density = 0.5
; perimeter_speed = 30
; infill_speed = 40
; travel_speed = 100
; scale = 1
; nozzle_diameter = 0.5
; filament_diameter = 2.9
; extrusion_multiplier = 0.80
; perimeters extrusion width = 0.40mm
; infill extrusion width = 0.20mm
; first layer extrusion width = 0.20mm

M107
M190 S70 ; wait for bed temperature to be reached
M104 S210 ; set temperature
G28 ; home all axes
M109 S210 ; wait for temperature to be reached
G90 ; use absolute coordinates
G21 ; set units to millimeters
G92 E0
M82 ; use absolute distances for extrusion
G1 F1800.000 E-1.00000
G92 E0
G1 Z0.200 F6000.000
G1 X88.250 Y88.260
G1 F1800.000 E1.00000
G1 X87.680 Y88.880 F1800.000 E1.00546
G1 X87.260 Y89.250 E1.00908
G1 X86.690 Y89.700 E1.01379
G1 X79.570 Y94.910 E1.07096
G1 X79.120 Y95.220 E1.07451
G1 X78.670 Y95.500 E1.07794
G1 X77.630 Y96.040 E1.08553
G1 X77.130 Y96.250 E1.08905
G1 X75.970 Y96.620 E1.09694
G1 X75.460 Y96.740 E1.10033
G1 X74.610 Y96.890 E1.10593
G1 X73.890 Y96.970 E1.11062
G1 X73.320 Y96.990 E1.11432
G1 X72.130 Y96.910 E1.12205
G1 X71.030 Y96.740 E1.12926
G1 X70.520 Y96.620 E1.13265
G1 X69.360 Y96.250 E1.14054
G1 X68.860 Y96.040 E1.14406
G1 X67.790 Y95.480 E1.15188
G1 X66.910 Y94.900 E1.15871
G1 X59.800 Y89.700 E1.21580
G1 X59.230 Y89.250 E1.22050
G1 X58.610 Y88.680 E1.22596
G1 X58.050 Y88.030 E1.23152
G1 X57.530 Y87.320 E1.23722
G1 X57.080 Y86.570 E1.24289
G1 X56.950 Y86.320 E1.24472
G1 X56.720 Y85.790 E1.24846
G1 X56.610 Y85.510 E1.25041
G1 X56.310 Y84.550 E1.25693
G1 X56.240 Y84.260 E1.25886
G1 X56.050 Y83.030 E1.26693
G1 X56.010 Y82.240 E1.27205
G1 X56.010 Y62.250 E1.40159
G1 X56.050 Y61.460 E1.40672
G1 X56.240 Y60.230 E1.41479
G1 X56.310 Y59.940 E1.41672
G1 X56.610 Y58.980 E1.42324
G1 X56.720 Y58.700 E1.42519
G1 X56.950 Y58.170 E1.42893
G1 X57.220 Y57.670 E1.43261
G1 X57.530 Y57.170 E1.43643
G1 X58.050 Y56.460 E1.44213
G1 X58.620 Y55.800 E1.44778
G1 X59.470 Y55.040 E1.45517
G1 X60.360 Y54.410 E1.46223
G1 X61.150 Y53.960 E1.46813
G1 X61.980 Y53.610 E1.47396
G1 X62.940 Y53.310 E1.48048
G1 X63.230 Y53.240 E1.48241
G1 X64.460 Y53.050 E1.49048
G1 X65.250 Y53.010 E1.49561
G1 X81.240 Y53.010 E1.59923
G1 X82.030 Y53.050 E1.60435
G1 X83.260 Y53.240 E1.61242
G1 X83.550 Y53.310 E1.61435
G1 X84.510 Y53.610 E1.62087
G1 X85.320 Y53.950 E1.62656
G1 X85.820 Y54.220 E1.63024
G1 X86.320 Y54.530 E1.63406
G1 X87.030 Y55.050 E1.63976
G1 X87.260 Y55.240 E1.64169
G1 X87.690 Y55.620 E1.64541
G1 X87.890 Y55.830 E1.64729
G1 X88.450 Y56.470 E1.65280
G1 X88.910 Y57.100 E1.65786
G1 X89.080 Y57.360 E1.65987
G1 X89.620 Y58.340 E1.66712
G1 X93.040 Y65.860 E1.72065
G1 X93.250 Y66.360 E1.72417
G1 X93.620 Y67.520 E1.73206
G1 X93.740 Y68.030 E1.73545
G1 X93.890 Y68.880 E1.74105
G1 X93.940 Y69.320 E1.74392
G1 X93.990 Y70.150 E1.74931
G1 X93.940 Y71.170 E1.75592
G1 X93.890 Y71.610 E1.75879
G1 X93.740 Y72.460 E1.76439
G1 X93.620 Y72.970 E1.76778
G1 X90.080 Y84.920 E1.84855
G1 X89.770 Y85.790 E1.85453
G1 X89.660 Y86.060 E1.85642
G1 X89.410 Y86.570 E1.86010
G1 X88.960 Y87.320 E1.86577
G1 X88.276 Y88.229 E1.87314
G1 X88.250 Y88.260 E1.87340
G1 X88.040 Y88.090 F6000.000
G1 X87.870 Y88.300 F1800.000 E1.87515
G1 X87.300 Y88.870 E1.88038
G1 X86.540 Y89.490 E1.88673
G1 X79.420 Y94.700 E1.94391
G1 X78.530 Y95.270 E1.95076
G1 X77.530 Y95.790 E1.95806
G1 X77.030 Y96.000 E1.96157
G1 X75.910 Y96.360 E1.96920
G1 X75.400 Y96.480 E1.97259
G1 X74.580 Y96.620 E1.97798
G1 X73.600 Y96.720 E1.98437
G1 X72.780 Y96.700 E1.98968
G1 X72.150 Y96.650 E1.99378
G1 X71.090 Y96.480 E2.00074
G1 X70.580 Y96.360 E2.00413
G1 X69.460 Y96.000 E2.01175
G1 X68.960 Y95.790 E2.01527
G1 X67.930 Y95.250 E2.02281
G1 X67.070 Y94.690 E2.02946
G1 X59.960 Y89.490 E2.08654
G1 X59.190 Y88.870 E2.09294
G1 X58.620 Y88.300 E2.09817
G1 X58.260 Y87.860 E2.10185
G1 X57.760 Y87.170 E2.10737
G1 X57.450 Y86.690 E2.11108
G1 X57.190 Y86.200 E2.11467
G1 X56.860 Y85.420 E2.12016
G1 X56.570 Y84.490 E2.12647
G1 X56.500 Y84.200 E2.12841
G1 X56.320 Y83.010 E2.13621
G1 X56.280 Y82.240 E2.14120
G1 X56.280 Y62.250 E2.27074
G1 X56.320 Y61.480 E2.27574
G1 X56.500 Y60.290 E2.28354
G1 X56.570 Y60.000 E2.28547
G1 X56.860 Y59.070 E2.29178
G1 X56.970 Y58.790 E2.29373
G1 X57.190 Y58.290 E2.29727
G1 X57.450 Y57.800 E2.30087
G1 X57.760 Y57.320 E2.30457
G1 X58.260 Y56.630 E2.31009
G1 X58.630 Y56.190 E2.31382
G1 X59.010 Y55.790 E2.31739
G1 X59.640 Y55.250 E2.32277
G1 X60.510 Y54.630 E2.32969
G1 X61.270 Y54.200 E2.33535
G1 X62.070 Y53.860 E2.34099
G1 X63.000 Y53.570 E2.34730
G1 X63.290 Y53.500 E2.34923
G1 X64.480 Y53.320 E2.35703
G1 X65.250 Y53.280 E2.36203
G1 X81.240 Y53.280 E2.46565
G1 X82.010 Y53.320 E2.47064
G1 X83.200 Y53.500 E2.47844
G1 X83.490 Y53.570 E2.48038
G1 X84.420 Y53.860 E2.48669
G1 X85.200 Y54.190 E2.49218
G1 X85.690 Y54.450 E2.49577
G1 X86.170 Y54.760 E2.49948
G1 X86.860 Y55.260 E2.50500
G1 X87.300 Y55.630 E2.50872
G1 X87.700 Y56.010 E2.51230
G1 X88.240 Y56.640 E2.51768
G1 X88.690 Y57.250 E2.52259
G1 X88.860 Y57.510 E2.52460
G1 X89.380 Y58.450 E2.53156
G1 X92.710 Y65.770 E2.58368
G1 X93.000 Y66.460 E2.58853
G1 X93.360 Y67.580 E2.59615
G1 X93.480 Y68.090 E2.59954
G1 X93.620 Y68.910 E2.60494
G1 X93.670 Y69.350 E2.60781
G1 X93.720 Y70.150 E2.61300
G1 X93.670 Y71.140 E2.61942
G1 X93.620 Y71.580 E2.62229
G1 X93.480 Y72.400 E2.62768
G1 X93.260 Y73.300 E2.63369
G1 X89.830 Y84.840 E2.71170
G1 X89.520 Y85.700 E2.71763
G1 X89.300 Y86.200 E2.72117
G1 X89.040 Y86.690 E2.72476
G1 X88.730 Y87.170 E2.72846
G1 X88.230 Y87.860 E2.73399
G1 X88.066 Y88.059 E2.73566
G1 X88.040 Y88.090 E2.73592
G1 X87.830 Y87.920 F6000.000
G1 X87.670 Y88.120 F1800.000 E2.73758
G1 X87.120 Y88.670 E2.74262
G1 X86.380 Y89.270 E2.74879
G1 X79.260 Y94.480 E2.80597
G1 X78.380 Y95.050 E2.81276
G1 X77.420 Y95.540 E2.81975
G1 X76.920 Y95.750 E2.82326
G1 X75.850 Y96.100 E2.83056
G1 X75.340 Y96.220 E2.83395
G1 X74.550 Y96.360 E2.83915
G1 X73.590 Y96.450 E2.84540
G1 X73.060 Y96.450 E2.84883
G1 X72.170 Y96.380 E2.85462
G1 X71.150 Y96.220 E2.86131
G1 X70.640 Y96.100 E2.86470
G1 X69.570 Y95.750 E2.87200
G1 X69.070 Y95.540 E2.87551
G1 X68.070 Y95.020 E2.88282
G1 X67.220 Y94.470 E2.88938
G1 X60.110 Y89.270 E2.94646
G1 X59.370 Y88.670 E2.95263
G1 X58.820 Y88.120 E2.95768
G1 X58.470 Y87.690 E2.96127
G1 X57.980 Y87.030 E2.96659
G1 X57.820 Y86.780 E2.96852
G1 X57.430 Y86.080 E2.97371
G1 X57.110 Y85.320 E2.97905
G1 X56.830 Y84.430 E2.98510
G1 X56.760 Y84.140 E2.98703
G1 X56.580 Y82.990 E2.99458
G1 X56.550 Y82.240 E2.99944
G1 X56.550 Y62.250 E3.12898
G1 X56.580 Y61.500 E3.13385
G1 X56.760 Y60.350 E3.14139
G1 X56.830 Y60.060 E3.14332
G1 X57.110 Y59.170 E3.14937
G1 X57.220 Y58.890 E3.15132
G1 X57.430 Y58.410 E3.15471
G1 X57.680 Y57.940 E3.15816
G1 X57.980 Y57.460 E3.16183
G1 X58.470 Y56.800 E3.16716
G1 X59.010 Y56.170 E3.17254
G1 X59.390 Y55.810 E3.17593
G1 X59.810 Y55.460 E3.17947
G1 X60.400 Y55.030 E3.18420
G1 X60.890 Y54.710 E3.18799
G1 X61.380 Y54.440 E3.19162
G1 X62.170 Y54.110 E3.19717
G1 X63.060 Y53.830 E3.20321
G1 X63.350 Y53.760 E3.20515
G1 X64.500 Y53.580 E3.21269
G1 X65.250 Y53.550 E3.21755
G1 X81.240 Y53.550 E3.32117
G1 X81.990 Y53.580 E3.32604
G1 X83.140 Y53.760 E3.33358
G1 X83.430 Y53.830 E3.33551
G1 X84.320 Y54.110 E3.34156
G1 X85.080 Y54.430 E3.34690
G1 X85.550 Y54.680 E3.35035
G1 X86.030 Y54.980 E3.35402
G1 X86.690 Y55.470 E3.35935
G1 X87.320 Y56.010 E3.36473
G1 X87.680 Y56.390 E3.36812
G1 X88.030 Y56.810 E3.37166
G1 X88.460 Y57.400 E3.37639
G1 X88.630 Y57.660 E3.37840
G1 X89.130 Y58.560 E3.38508
G1 X92.460 Y65.880 E3.43719
G1 X92.750 Y66.570 E3.44204
G1 X93.100 Y67.640 E3.44934
G1 X93.220 Y68.150 E3.45273
G1 X93.360 Y68.940 E3.45793
G1 X93.410 Y69.380 E3.46080
G1 X93.450 Y70.150 E3.46580
G1 X93.410 Y71.110 E3.47202
G1 X93.360 Y71.550 E3.47489
G1 X93.220 Y72.340 E3.48009
G1 X93.000 Y73.230 E3.48603
G1 X89.570 Y84.770 E3.56405
G1 X89.270 Y85.600 E3.56977
G1 X88.940 Y86.320 E3.57490
G1 X88.510 Y87.030 E3.58028
G1 X87.856 Y87.889 E3.58728
G1 X87.830 Y87.920 E3.58754
G1 X87.630 Y87.750 F6000.000
G1 X87.300 Y88.120 F1800.000 E3.59075
G1 X86.940 Y88.470 E3.59400
G1 X86.220 Y89.050 E3.60000
G1 X79.100 Y94.260 E3.65717
G1 X78.240 Y94.820 E3.66382
G1 X77.320 Y95.300 E3.67054
G1 X76.820 Y95.510 E3.67406
G1 X75.790 Y95.840 E3.68107
G1 X75.280 Y95.960 E3.68446
G1 X74.520 Y96.090 E3.68946
G1 X73.830 Y96.170 E3.69396
G1 X73.330 Y96.190 E3.69720
G1 X72.190 Y96.110 E3.70461
G1 X71.210 Y95.960 E3.71103
G1 X70.700 Y95.840 E3.71443
G1 X69.670 Y95.510 E3.72144
G1 X69.170 Y95.300 E3.72495
G1 X68.210 Y94.800 E3.73197
G1 X67.380 Y94.250 E3.73842
G1 X60.270 Y89.050 E3.79550
G1 X59.550 Y88.470 E3.80149
G1 X59.020 Y87.940 E3.80635
G1 X58.670 Y87.520 E3.80989
G1 X58.210 Y86.880 E3.81500
G1 X57.910 Y86.420 E3.81856
G1 X57.670 Y85.970 E3.82186
G1 X57.360 Y85.220 E3.82712
G1 X57.090 Y84.360 E3.83296
G1 X57.020 Y84.070 E3.83490
G1 X56.850 Y82.970 E3.84211
G1 X56.810 Y82.240 E3.84685
G1 X56.810 Y62.250 E3.97639
G1 X56.850 Y61.520 E3.98113
G1 X57.020 Y60.420 E3.98834
G1 X57.090 Y60.130 E3.99027
G1 X57.360 Y59.270 E3.99611
G1 X57.470 Y58.990 E3.99806
G1 X57.670 Y58.520 E4.00137
G1 X57.910 Y58.070 E4.00468
G1 X58.210 Y57.610 E4.00824
G1 X58.670 Y56.970 E4.01334
G1 X59.200 Y56.360 E4.01858
G1 X59.380 Y56.180 E4.02023
G1 X59.980 Y55.660 E4.02538
G1 X60.800 Y55.080 E4.03188
G1 X61.500 Y54.680 E4.03711
G1 X62.270 Y54.360 E4.04251
G1 X63.130 Y54.090 E4.04835
G1 X63.420 Y54.020 E4.05029
G1 X64.520 Y53.850 E4.05750
G1 X65.250 Y53.810 E4.06224
G1 X81.240 Y53.810 E4.16586
G1 X81.970 Y53.850 E4.17060
G1 X83.070 Y54.020 E4.17781
G1 X83.360 Y54.090 E4.17974
G1 X84.220 Y54.360 E4.18558
G1 X84.970 Y54.670 E4.19084
G1 X85.420 Y54.910 E4.19415
G1 X85.880 Y55.210 E4.19771
G1 X86.520 Y55.670 E4.20281
G1 X87.130 Y56.200 E4.20805
G1 X87.310 Y56.380 E4.20970
G1 X87.830 Y56.980 E4.21484
G1 X88.240 Y57.540 E4.21934
G1 X88.410 Y57.800 E4.22135
G1 X88.890 Y58.670 E4.22779
G1 X92.300 Y66.170 E4.28118
G1 X92.510 Y66.670 E4.28470
G1 X92.840 Y67.700 E4.29171
G1 X92.960 Y68.210 E4.29510
G1 X93.090 Y68.970 E4.30010
G1 X93.140 Y69.410 E4.30297
G1 X93.190 Y70.150 E4.30777
G1 X93.140 Y71.080 E4.31381
G1 X93.090 Y71.520 E4.31668
G1 X92.960 Y72.280 E4.32168
G1 X92.840 Y72.790 E4.32507
G1 X89.310 Y84.690 E4.40551
G1 X89.020 Y85.500 E4.41108
G1 X88.820 Y85.970 E4.41439
G1 X88.580 Y86.420 E4.41770
G1 X88.280 Y86.880 E4.42126
G1 X87.820 Y87.520 E4.42636
G1 X87.656 Y87.719 E4.42804
G1 X87.630 Y87.750 E4.42830
G1 X87.420 Y87.580 F6000.000
G1 X86.940 Y88.110 F1800.000 E4.43293
G1 X86.060 Y88.840 E4.44034
G1 X78.940 Y94.050 E4.49751
G1 X78.100 Y94.590 E4.50399
G1 X77.220 Y95.050 E4.51042
G1 X76.720 Y95.260 E4.51393
G1 X75.730 Y95.580 E4.52068
G1 X75.220 Y95.700 E4.52407
G1 X74.490 Y95.830 E4.52888
G1 X73.810 Y95.900 E4.53331
G1 X73.330 Y95.920 E4.53642
G1 X72.210 Y95.850 E4.54369
G1 X71.270 Y95.700 E4.54986
G1 X70.760 Y95.580 E4.55326
G1 X69.770 Y95.260 E4.56000
G1 X69.270 Y95.050 E4.56351
G1 X68.360 Y94.570 E4.57018
G1 X67.540 Y94.040 E4.57651
G1 X60.430 Y88.840 E4.63359
G1 X59.730 Y88.270 E4.63944
G1 X59.380 Y87.940 E4.64256
G1 X58.880 Y87.350 E4.64757
G1 X58.430 Y86.740 E4.65248
G1 X58.020 Y86.070 E4.65757
G1 X57.810 Y85.630 E4.66073
G1 X57.610 Y85.120 E4.66428
G1 X57.350 Y84.300 E4.66985
G1 X57.280 Y84.010 E4.67179
G1 X57.120 Y82.960 E4.67867
G1 X57.080 Y82.240 E4.68334
G1 X57.080 Y62.250 E4.81288
G1 X57.120 Y61.530 E4.81756
G1 X57.280 Y60.480 E4.82444
G1 X57.350 Y60.190 E4.82637
G1 X57.610 Y59.370 E4.83195
G1 X57.810 Y58.860 E4.83550
G1 X58.020 Y58.420 E4.83866
G1 X58.270 Y58.000 E4.84182
G1 X58.430 Y57.750 E4.84375
G1 X58.880 Y57.140 E4.84866
G1 X59.390 Y56.540 E4.85376
G1 X60.150 Y55.870 E4.86033
G1 X60.950 Y55.300 E4.86669
G1 X61.620 Y54.920 E4.87169
G1 X62.370 Y54.610 E4.87695
G1 X63.190 Y54.350 E4.88252
G1 X63.480 Y54.280 E4.88445
G1 X64.530 Y54.120 E4.89134
G1 X65.250 Y54.080 E4.89601
G1 X81.240 Y54.080 E4.99963
G1 X81.960 Y54.120 E5.00430
G1 X83.010 Y54.280 E5.01118
G1 X83.300 Y54.350 E5.01312
G1 X84.120 Y54.610 E5.01869
G1 X84.850 Y54.910 E5.02381
G1 X85.280 Y55.140 E5.02697
G1 X85.740 Y55.430 E5.03049
G1 X86.350 Y55.880 E5.03540
G1 X86.950 Y56.390 E5.04051
G1 X87.120 Y56.570 E5.04211
G1 X87.620 Y57.150 E5.04707
G1 X88.020 Y57.690 E5.05143
G1 X88.190 Y57.950 E5.05344
G1 X88.640 Y58.780 E5.05956
G1 X92.050 Y66.270 E5.11289
G1 X92.260 Y66.770 E5.11640
G1 X92.580 Y67.760 E5.12315
G1 X92.700 Y68.270 E5.12654
G1 X92.830 Y69.000 E5.13135
G1 X92.880 Y69.440 E5.13422
G1 X92.920 Y70.150 E5.13882
G1 X92.880 Y71.050 E5.14466
G1 X92.830 Y71.490 E5.14753
G1 X92.700 Y72.220 E5.15234
G1 X92.490 Y73.080 E5.15807
G1 X89.060 Y84.620 E5.23609
G1 X88.680 Y85.630 E5.24308
G1 X88.470 Y86.070 E5.24624
G1 X88.060 Y86.740 E5.25133
G1 X87.446 Y87.549 E5.25792
G1 X87.420 Y87.580 E5.25818
M204 S1000
G1 F1800.000 E4.25818
G92 E0
G1 X80.887 Y77.137 F6000.000
G1 F1800.000 E1.00000
G1 X66.113 Y77.137 F1800.000 E1.09574
G1 X66.113 Y63.363 E1.18500
G1 X80.887 Y63.363 E1.28074
G1 X80.887 Y69.779 E1.32232
G1 X81.018 Y69.805 E1.32318
G1 X81.255 Y69.233 E1.32719
G1 X81.439 Y68.934 E1.32947
G1 X81.667 Y68.667 E1.33174
G1 X81.934 Y68.439 E1.33402
G1 X82.234 Y68.255 E1.33630
G1 X82.558 Y68.121 E1.33857
G1 X82.900 Y68.039 E1.34085
G1 X83.250 Y68.011 E1.34313
G1 X83.600 Y68.039 E1.34541
G1 X83.942 Y68.121 E1.34768
G1 X84.266 Y68.255 E1.34996
G1 X84.566 Y68.439 E1.35224
G1 X84.833 Y68.667 E1.35451
G1 X85.061 Y68.934 E1.35679
G1 X85.245 Y69.234 E1.35907
G1 X85.356 Y69.503 E1.36095
G1 X85.461 Y69.900 E1.36362
G1 X85.489 Y70.250 E1.36589
G1 X85.461 Y70.600 E1.36817
G1 X85.356 Y70.997 E1.37083
G1 X85.245 Y71.266 E1.37272
G1 X85.061 Y71.566 E1.37500
G1 X84.833 Y71.833 E1.37727
G1 X84.566 Y72.061 E1.37955
G1 X84.266 Y72.245 E1.38183
G1 X83.942 Y72.379 E1.38410
G1 X83.600 Y72.461 E1.38638
G1 X83.250 Y72.489 E1.38866
G1 X82.900 Y72.461 E1.39093
G1 X82.558 Y72.379 E1.39321
G1 X82.234 Y72.245 E1.39549
G1 X81.934 Y72.061 E1.39777
G1 X81.667 Y71.833 E1.40004
G1 X81.439 Y71.566 E1.40232
G1 X81.255 Y71.267 E1.40459
G1 X81.018 Y70.695 E1.40860
G1 X80.887 Y70.721 E1.40947
G1 X80.887 Y77.097 E1.45079
G1 X80.887 Y77.137 E1.45105
G1 F1800.000 E0.45105
G92 E0
G1 X82.641 Y72.124 F6000.000
G1 F1800.000 E1.00000
G1 X82.355 Y72.006 F1800.000 E1.00200
G1 X82.092 Y71.844 E1.00401
G1 X81.856 Y71.643 E1.00601
G1 X81.656 Y71.408 E1.00802
G1 X81.494 Y71.145 E1.01002
G1 X81.376 Y70.859 E1.01202
G1 X81.304 Y70.558 E1.01403
G1 X81.279 Y70.250 E1.01603
G1 X81.304 Y69.942 E1.01803
G1 X81.376 Y69.641 E1.02004
G1 X81.494 Y69.355 E1.02204
G1 X81.656 Y69.092 E1.02405
G1 X81.856 Y68.857 E1.02605
G1 X82.092 Y68.656 E1.02805
G1 X82.355 Y68.494 E1.03006
G1 X82.641 Y68.376 E1.03206
G1 X82.942 Y68.304 E1.03407
G1 X83.250 Y68.279 E1.03607
G1 X83.558 Y68.304 E1.03807
G1 X83.859 Y68.376 E1.04008
G1 X84.145 Y68.494 E1.04208
G1 X84.408 Y68.656 E1.04409
G1 X84.644 Y68.857 E1.04609
G1 X84.844 Y69.092 E1.04809
G1 X85.006 Y69.355 E1.05010
G1 X85.124 Y69.641 E1.05210
G1 X85.196 Y69.942 E1.05411
G1 X85.218 Y70.211 E1.05586
G1 X85.196 Y70.558 E1.05811
G1 X85.124 Y70.859 E1.06011
G1 X84.985 Y71.178 E1.06237
G1 X84.844 Y71.408 E1.06412
G1 X84.644 Y71.643 E1.06612
G1 X84.408 Y71.844 E1.06813
G1 X84.145 Y72.006 E1.07013
G1 X83.859 Y72.124 E1.07214
G1 X83.558 Y72.196 E1.07414
G1 X83.250 Y72.221 E1.07614
G1 X82.942 Y72.196 E1.07815
G1 X82.680 Y72.134 E1.07989
G1 X82.641 Y72.124 E1.08015
G1 X82.724 Y71.869 F6000.000
G1 X82.477 Y71.767 F1800.000 E1.08188
G1 X82.249 Y71.627 E1.08361
G1 X82.046 Y71.454 E1.08534
