; generated by Slic3r 0.9.7 on 2013-12-27 at 23:30:39

; layer_height = 0.25
; perimeters = 3
; top_solid_layers = 3
; bottom_solid_layers = 3
; fill_density = 1
; perimeter_speed = 30
; infill_speed = 30
; travel_speed = 100
; scale = 1
; nozzle_diameter = 0.5
; filament_diameter = 2.89
; extrusion_multiplier = 0.79
; perimeters extrusion width = 0.40mm
; infill extrusion width = 0.25mm
; first layer extrusion width = 0.27mm

M107
M190 S70 ; wait for bed temperature to be reached
M104 S205 ; set temperature
G28 ; home all axes
M109 S205 ; wait for temperature to be reached
G90 ; use absolute coordinates
G21 ; set units to millimeters
G92 E0
M82 ; use absolute distances for extrusion
G1 F1500.000 E-1.00000
G92 E0
G1 Z0.250 F6000.000
G1 X73.705 Y76.020
G1 F1500.000 E1.00000
G1 X74.245 Y75.560 F1200.000 E1.00678
G1 X75.185 Y74.880 E1.01787
G1 X75.785 Y74.510 E1.02460
G1 X76.895 Y73.950 E1.03648
G1 X77.555 Y73.680 E1.04330
G1 X78.615 Y73.330 E1.05396
G1 X79.305 Y73.160 E1.06076
G1 X80.585 Y72.960 E1.07314
G1 X81.295 Y72.910 E1.07994
G1 X81.825 Y72.890 E1.08501
G1 X92.685 Y72.890 E1.18878
G1 X93.255 Y72.910 E1.19424
G1 X93.815 Y72.980 E1.19963
G1 X94.375 Y73.080 E1.20506
G1 X95.195 Y73.320 E1.21323
G1 X95.975 Y73.640 E1.22129
G1 X96.235 Y73.770 E1.22406
G1 X96.725 Y74.060 E1.22950
G1 X97.195 Y74.380 E1.23494
G1 X97.845 Y74.920 E1.24301
G1 X98.435 Y75.530 E1.25112
G1 X98.955 Y76.210 E1.25930
G1 X99.395 Y76.930 E1.26737
G1 X99.745 Y77.710 E1.27554
G1 X99.935 Y78.240 E1.28092
G1 X100.085 Y78.790 E1.28637
G1 X100.185 Y79.350 E1.29180
G1 X100.255 Y79.910 E1.29719
G1 X100.275 Y80.480 E1.30264
G1 X100.275 Y89.510 E1.38894
G1 X100.255 Y90.080 E1.39439
G1 X100.225 Y90.360 E1.39708
G1 X100.085 Y91.200 E1.40522
G1 X99.935 Y91.750 E1.41066
G1 X99.745 Y92.280 E1.41604
G1 X99.525 Y92.800 E1.42144
G1 X99.395 Y93.060 E1.42422
G1 X98.955 Y93.780 E1.43228
G1 X98.615 Y94.240 E1.43775
G1 X98.245 Y94.670 E1.44317
G1 X97.635 Y95.260 E1.45128
G1 X97.195 Y95.610 E1.45665
G1 X96.725 Y95.930 E1.46208
G1 X96.235 Y96.220 E1.46753
G1 X95.455 Y96.570 E1.47569
G1 X94.925 Y96.760 E1.48108
G1 X94.375 Y96.910 E1.48652
G1 X93.815 Y97.010 E1.49196
G1 X93.255 Y97.080 E1.49735
G1 X92.685 Y97.100 E1.50280
G1 X81.825 Y97.100 E1.60658
G1 X80.585 Y97.030 E1.61845
G1 X79.305 Y96.830 E1.63083
G1 X78.615 Y96.660 E1.63762
G1 X77.555 Y96.310 E1.64829
G1 X76.895 Y96.040 E1.65510
G1 X75.785 Y95.480 E1.66698
G1 X75.185 Y95.110 E1.67372
G1 X74.245 Y94.430 E1.68481
G1 X73.705 Y93.970 E1.69159
G1 X72.845 Y93.110 E1.70321
G1 X72.385 Y92.570 E1.70999
G1 X71.705 Y91.630 E1.72107
G1 X71.335 Y91.030 E1.72781
G1 X70.775 Y89.920 E1.73969
G1 X70.505 Y89.260 E1.74651
G1 X70.155 Y88.200 E1.75717
G1 X69.985 Y87.510 E1.76396
G1 X69.785 Y86.230 E1.77634
G1 X69.735 Y85.520 E1.78315
G1 X69.735 Y84.450 E1.79337
G1 X69.785 Y83.750 E1.80008
G1 X69.985 Y82.480 E1.81236
G1 X70.155 Y81.790 E1.81915
G1 X70.505 Y80.730 E1.82982
G1 X70.775 Y80.070 E1.83664
G1 X71.335 Y78.960 E1.84852
G1 X71.705 Y78.360 E1.85525
G1 X72.385 Y77.420 E1.86634
G1 X72.845 Y76.880 E1.87312
G1 X73.671 Y76.054 E1.88429
G1 X73.705 Y76.020 E1.88474
G1 X73.915 Y76.270 F6000.000
G1 X74.455 Y75.810 F1200.000 E1.89152
G1 X75.345 Y75.150 E1.90211
G1 X75.945 Y74.780 E1.90884
G1 X77.015 Y74.240 E1.92030
G1 X77.675 Y73.970 E1.92711
G1 X78.685 Y73.640 E1.93726
G1 X79.375 Y73.470 E1.94406
G1 X80.605 Y73.280 E1.95595
G1 X81.315 Y73.230 E1.96275
G1 X81.825 Y73.210 E1.96763
G1 X92.685 Y73.210 E2.07141
G1 X93.245 Y73.230 E2.07676
G1 X94.065 Y73.340 E2.08467
G1 X94.345 Y73.400 E2.08741
G1 X95.145 Y73.640 E2.09539
G1 X95.655 Y73.850 E2.10066
G1 X96.155 Y74.090 E2.10596
G1 X96.635 Y74.380 E2.11132
G1 X97.095 Y74.700 E2.11667
G1 X97.525 Y75.050 E2.12197
G1 X98.115 Y75.640 E2.12994
G1 X98.635 Y76.300 E2.13797
G1 X99.075 Y77.010 E2.14595
G1 X99.425 Y77.760 E2.15386
G1 X99.695 Y78.550 E2.16184
G1 X99.825 Y79.100 E2.16724
G1 X99.935 Y79.920 E2.17515
G1 X99.955 Y80.480 E2.18050
G1 X99.955 Y89.510 E2.26680
G1 X99.935 Y90.070 E2.27215
G1 X99.905 Y90.340 E2.27475
G1 X99.825 Y90.890 E2.28006
G1 X99.695 Y91.440 E2.28546
G1 X99.525 Y91.970 E2.29078
G1 X99.195 Y92.740 E2.29878
G1 X98.935 Y93.220 E2.30400
G1 X98.635 Y93.690 E2.30933
G1 X98.295 Y94.140 E2.31472
G1 X97.925 Y94.550 E2.31999
G1 X97.525 Y94.940 E2.32533
G1 X96.865 Y95.460 E2.33336
G1 X96.395 Y95.760 E2.33869
G1 X95.915 Y96.020 E2.34391
G1 X95.405 Y96.250 E2.34925
G1 X94.615 Y96.520 E2.35723
G1 X94.065 Y96.650 E2.36263
G1 X93.515 Y96.730 E2.36794
G1 X93.245 Y96.760 E2.37054
G1 X92.685 Y96.780 E2.37589
G1 X81.825 Y96.780 E2.47967
G1 X80.605 Y96.710 E2.49135
G1 X79.375 Y96.520 E2.50325
G1 X78.685 Y96.350 E2.51004
G1 X77.675 Y96.020 E2.52019
G1 X77.015 Y95.750 E2.52700
G1 X75.945 Y95.210 E2.53846
G1 X75.345 Y94.840 E2.54519
G1 X74.455 Y94.180 E2.55578
G1 X73.915 Y93.720 E2.56256
G1 X73.095 Y92.900 E2.57364
G1 X72.635 Y92.360 E2.58042
G1 X71.975 Y91.470 E2.59101
G1 X71.605 Y90.870 E2.59775
G1 X71.065 Y89.800 E2.60920
G1 X70.795 Y89.140 E2.61601
G1 X70.465 Y88.130 E2.62617
G1 X70.295 Y87.440 E2.63296
G1 X70.105 Y86.210 E2.64485
G1 X70.055 Y85.500 E2.65165
G1 X70.055 Y84.470 E2.66150
G1 X70.105 Y83.770 E2.66820
G1 X70.295 Y82.550 E2.68000
G1 X70.465 Y81.860 E2.68679
G1 X70.795 Y80.850 E2.69695
G1 X71.065 Y80.190 E2.70376
G1 X71.605 Y79.120 E2.71521
G1 X71.975 Y78.520 E2.72195
G1 X72.635 Y77.630 E2.73254
G1 X73.095 Y77.090 E2.73932
G1 X73.881 Y76.304 E2.74994
G1 X73.915 Y76.270 E2.75040
G1 X74.115 Y76.510 F6000.000
G1 X74.655 Y76.050 F1200.000 E2.75718
G1 X75.515 Y75.420 E2.76737
G1 X76.115 Y75.050 E2.77410
G1 X77.135 Y74.540 E2.78500
G1 X77.795 Y74.270 E2.79181
G1 X78.765 Y73.950 E2.80157
G1 X79.455 Y73.780 E2.80837
G1 X80.625 Y73.590 E2.81969
G1 X81.335 Y73.540 E2.82649
G1 X92.955 Y73.530 E2.93754
G1 X93.235 Y73.550 E2.94022
G1 X93.775 Y73.610 E2.94541
G1 X94.045 Y73.660 E2.94804
G1 X94.575 Y73.790 E2.95325
G1 X95.095 Y73.960 E2.95848
G1 X95.595 Y74.170 E2.96366
G1 X96.085 Y74.410 E2.96887
G1 X96.545 Y74.700 E2.97407
G1 X96.985 Y75.020 E2.97927
G1 X97.405 Y75.370 E2.98449
G1 X97.975 Y75.960 E2.99233
G1 X98.305 Y76.390 E2.99751
G1 X98.755 Y77.080 E3.00539
G1 X99.105 Y77.820 E3.01321
G1 X99.375 Y78.590 E3.02101
G1 X99.555 Y79.390 E3.02884
G1 X99.635 Y80.210 E3.03672
G1 X99.635 Y89.780 E3.12817
G1 X99.555 Y90.600 E3.13604
G1 X99.375 Y91.400 E3.14388
G1 X99.205 Y91.920 E3.14910
G1 X98.995 Y92.420 E3.15429
G1 X98.755 Y92.910 E3.15950
G1 X98.305 Y93.600 E3.16737
G1 X97.975 Y94.030 E3.17255
G1 X97.605 Y94.430 E3.17776
G1 X97.205 Y94.800 E3.18297
G1 X96.775 Y95.130 E3.18815
G1 X96.085 Y95.580 E3.19602
G1 X95.595 Y95.820 E3.20123
G1 X95.095 Y96.030 E3.20641
G1 X94.575 Y96.200 E3.21164
G1 X93.775 Y96.380 E3.21948
G1 X92.955 Y96.460 E3.22735
G1 X81.335 Y96.450 E3.33839
G1 X80.625 Y96.400 E3.34520
G1 X79.455 Y96.210 E3.35652
G1 X78.765 Y96.040 E3.36331
G1 X77.795 Y95.720 E3.37307
G1 X77.135 Y95.450 E3.37989
G1 X76.115 Y94.940 E3.39079
G1 X75.515 Y94.570 E3.39752
G1 X74.655 Y93.940 E3.40771
G1 X74.115 Y93.480 E3.41449
G1 X73.335 Y92.700 E3.42503
G1 X72.875 Y92.160 E3.43181
G1 X72.245 Y91.300 E3.44200
G1 X71.875 Y90.700 E3.44873
G1 X71.365 Y89.680 E3.45963
G1 X71.095 Y89.020 E3.46644
G1 X70.775 Y88.050 E3.47621
G1 X70.605 Y87.360 E3.48300
G1 X70.415 Y86.190 E3.49432
G1 X70.365 Y85.480 E3.50113
G1 X70.375 Y84.490 E3.51059
G1 X70.425 Y83.790 E3.51729
G1 X70.605 Y82.630 E3.52851
G1 X70.775 Y81.940 E3.53530
G1 X71.095 Y80.970 E3.54506
G1 X71.365 Y80.310 E3.55188
G1 X71.875 Y79.290 E3.56277
G1 X72.245 Y78.690 E3.56951
G1 X72.875 Y77.830 E3.57970
G1 X73.335 Y77.290 E3.58648
G1 X74.081 Y76.544 E3.59656
G1 X74.115 Y76.510 E3.59702
G1 X74.325 Y76.750 F6000.000
G1 X74.865 Y76.290 F1200.000 E3.60380
G1 X75.685 Y75.690 E3.61351
G1 X76.285 Y75.320 E3.62024
G1 X77.255 Y74.830 E3.63063
G1 X77.915 Y74.560 E3.63744
G1 X78.835 Y74.260 E3.64669
G1 X79.525 Y74.090 E3.65348
G1 X80.645 Y73.910 E3.66432
G1 X81.355 Y73.860 E3.67112
G1 X92.955 Y73.850 E3.78197
G1 X93.485 Y73.890 E3.78705
G1 X94.015 Y73.980 E3.79219
G1 X94.535 Y74.110 E3.79731
G1 X95.285 Y74.380 E3.80493
G1 X96.005 Y74.730 E3.81258
G1 X96.675 Y75.180 E3.82029
G1 X97.285 Y75.690 E3.82789
G1 X97.655 Y76.080 E3.83303
G1 X98.145 Y76.710 E3.84065
G1 X98.435 Y77.160 E3.84577
G1 X98.785 Y77.880 E3.85342
G1 X99.055 Y78.630 E3.86104
G1 X99.235 Y79.420 E3.86878
G1 X99.275 Y79.680 E3.87129
G1 X99.315 Y80.210 E3.87637
G1 X99.315 Y89.780 E3.96783
G1 X99.275 Y90.310 E3.97290
G1 X99.185 Y90.840 E3.97804
G1 X99.055 Y91.360 E3.98316
G1 X98.885 Y91.860 E3.98821
G1 X98.675 Y92.350 E3.99331
G1 X98.435 Y92.830 E3.99843
G1 X98.295 Y93.060 E4.00101
G1 X97.825 Y93.710 E4.00867
G1 X97.475 Y94.110 E4.01375
G1 X96.885 Y94.650 E4.02139
G1 X96.455 Y94.970 E4.02652
G1 X96.005 Y95.260 E4.03163
G1 X95.525 Y95.500 E4.03676
G1 X95.035 Y95.710 E4.04185
G1 X94.535 Y95.880 E4.04690
G1 X94.015 Y96.010 E4.05202
G1 X93.485 Y96.100 E4.05716
G1 X92.955 Y96.140 E4.06224
G1 X81.825 Y96.140 E4.16860
G1 X81.355 Y96.130 E4.17309
G1 X80.645 Y96.080 E4.17989
G1 X79.525 Y95.900 E4.19073
G1 X78.835 Y95.730 E4.19752
G1 X77.915 Y95.430 E4.20677
G1 X77.255 Y95.160 E4.21359
G1 X76.285 Y94.670 E4.22397
G1 X75.685 Y94.300 E4.23071
G1 X74.865 Y93.700 E4.24042
G1 X74.325 Y93.240 E4.24720
G1 X73.575 Y92.490 E4.25733
G1 X73.115 Y91.950 E4.26411
G1 X72.515 Y91.130 E4.27382
G1 X72.145 Y90.530 E4.28056
G1 X71.655 Y89.560 E4.29094
G1 X71.385 Y88.900 E4.29776
G1 X71.085 Y87.980 E4.30700
G1 X70.915 Y87.290 E4.31379
G1 X70.735 Y86.170 E4.32463
G1 X70.685 Y85.460 E4.33144
G1 X70.685 Y84.520 E4.34042
G1 X70.735 Y83.820 E4.34713
G1 X70.915 Y82.700 E4.35797
G1 X71.085 Y82.010 E4.36476
G1 X71.385 Y81.090 E4.37400
G1 X71.655 Y80.430 E4.38082
G1 X72.145 Y79.460 E4.39120
G1 X72.515 Y78.860 E4.39794
G1 X73.115 Y78.040 E4.40765
G1 X73.575 Y77.500 E4.41443
G1 X74.291 Y76.784 E4.42411
G1 X74.325 Y76.750 E4.42456
G1 X74.525 Y76.990 F6000.000
G1 X75.065 Y76.530 F1200.000 E4.43134
G1 X75.845 Y75.960 E4.44057
G1 X76.445 Y75.590 E4.44731
G1 X77.375 Y75.120 E4.45727
G1 X78.035 Y74.850 E4.46408
G1 X78.915 Y74.570 E4.47291
G1 X79.605 Y74.400 E4.47970
G1 X80.675 Y74.230 E4.49005
G1 X81.385 Y74.180 E4.49685
G1 X81.825 Y74.160 E4.50106
G1 X92.685 Y74.160 E4.60484
G1 X93.205 Y74.180 E4.60981
G1 X93.985 Y74.300 E4.61736
G1 X94.735 Y74.500 E4.62477
G1 X94.985 Y74.590 E4.62731
G1 X95.695 Y74.920 E4.63479
G1 X96.145 Y75.190 E4.63981
G1 X96.565 Y75.490 E4.64474
G1 X97.155 Y76.010 E4.65226
G1 X97.675 Y76.600 E4.65977
G1 X97.975 Y77.020 E4.66470
G1 X98.245 Y77.470 E4.66972
G1 X98.365 Y77.710 E4.67228
G1 X98.475 Y77.940 E4.67472
G1 X98.665 Y78.430 E4.67974
G1 X98.865 Y79.180 E4.68716
G1 X98.985 Y79.960 E4.69470
G1 X99.005 Y80.480 E4.69967
G1 X99.005 Y89.510 E4.78597
G1 X98.985 Y90.030 E4.79094
G1 X98.955 Y90.290 E4.79344
G1 X98.865 Y90.810 E4.79848
G1 X98.665 Y91.560 E4.80590
G1 X98.575 Y91.810 E4.80844
G1 X98.365 Y92.280 E4.81336
G1 X98.245 Y92.520 E4.81592
G1 X97.975 Y92.970 E4.82094
G1 X97.675 Y93.390 E4.82587
G1 X97.155 Y93.980 E4.83339
G1 X96.565 Y94.500 E4.84090
G1 X96.145 Y94.800 E4.84583
G1 X95.695 Y95.070 E4.85085
G1 X95.455 Y95.190 E4.85341
G1 X95.225 Y95.300 E4.85585
G1 X94.735 Y95.490 E4.86087
G1 X93.985 Y95.690 E4.86829
G1 X93.465 Y95.780 E4.87333
G1 X93.205 Y95.810 E4.87583
G1 X92.685 Y95.830 E4.88081
G1 X81.825 Y95.830 E4.98458
G1 X80.675 Y95.760 E4.99559
G1 X79.605 Y95.590 E5.00595
G1 X78.915 Y95.420 E5.01274
G1 X78.035 Y95.140 E5.02156
G1 X77.375 Y94.870 E5.02838
G1 X76.445 Y94.400 E5.03834
G1 X75.845 Y94.030 E5.04507
G1 X75.065 Y93.460 E5.05430
G1 X74.525 Y93.000 E5.06108
G1 X73.815 Y92.290 E5.07068
G1 X73.355 Y91.750 E5.07746
G1 X72.785 Y90.970 E5.08669
G1 X72.415 Y90.370 E5.09342
G1 X71.945 Y89.440 E5.10338
G1 X71.675 Y88.780 E5.11020
G1 X71.395 Y87.900 E5.11902
G1 X71.225 Y87.210 E5.12581
G1 X71.055 Y86.140 E5.13617
G1 X71.005 Y85.430 E5.14297
G1 X71.005 Y84.540 E5.15147
G1 X71.055 Y83.840 E5.15818
G1 X71.225 Y82.780 E5.16844
G1 X71.395 Y82.090 E5.17523
G1 X71.675 Y81.210 E5.18405
G1 X71.945 Y80.550 E5.19087
G1 X72.415 Y79.620 E5.20083
G1 X72.785 Y79.020 E5.20756
G1 X73.355 Y78.240 E5.21679
G1 X73.815 Y77.700 E5.22357
G1 X74.491 Y77.024 E5.23271
G1 X74.525 Y76.990 E5.23317
G1 F1500.000 E4.23317
G92 E0
G1 X79.689 Y82.864 F6000.000
G1 F1500.000 E1.00000
G1 X80.049 Y82.556 F1200.000 E1.00453
G1 X80.454 Y82.308 E1.00906
G1 X80.891 Y82.127 E1.01359
G1 X81.352 Y82.016 E1.01812
G1 X81.825 Y81.979 E1.02265
G1 X82.298 Y82.016 E1.02718
G1 X82.759 Y82.127 E1.03171
G1 X83.196 Y82.308 E1.03624
G1 X83.601 Y82.556 E1.04077
G1 X83.961 Y82.864 E1.04530
G1 X84.269 Y83.224 E1.04983
G1 X84.477 Y83.564 E1.05364
G1 X84.698 Y84.066 E1.05888
G1 X84.809 Y84.528 E1.06341
G1 X84.846 Y85.000 E1.06794
G1 X84.809 Y85.472 E1.07247
G1 X84.698 Y85.934 E1.07700
G1 X84.517 Y86.371 E1.08153
G1 X84.269 Y86.776 E1.08606
G1 X83.961 Y87.136 E1.09059
G1 X83.601 Y87.444 E1.09512
G1 X83.196 Y87.692 E1.09965
G1 X82.759 Y87.873 E1.10418
G1 X82.298 Y87.984 E1.10871
G1 X81.825 Y88.021 E1.11324
G1 X81.352 Y87.984 E1.11777
G1 X80.891 Y87.873 E1.12230
G1 X80.454 Y87.692 E1.12683
G1 X80.049 Y87.444 E1.13136
G1 X79.689 Y87.136 E1.13589
G1 X79.381 Y86.776 E1.14042
G1 X79.133 Y86.371 E1.14495
G1 X78.952 Y85.934 E1.14948
G1 X78.841 Y85.473 E1.15401
G1 X78.804 Y85.000 E1.15854
G1 X78.841 Y84.527 E1.16307
G1 X78.952 Y84.066 E1.16760
G1 X79.133 Y83.629 E1.17213
G1 X79.381 Y83.224 E1.17666
G1 X79.658 Y82.900 E1.18074
G1 X79.689 Y82.864 E1.18119
G1 X79.914 Y83.089 F6000.000
G1 X80.236 Y82.814 F1200.000 E1.18524
G1 X80.598 Y82.592 E1.18930
G1 X80.990 Y82.430 E1.19335
G1 X81.402 Y82.331 E1.19740
G1 X81.825 Y82.297 E1.20145
G1 X82.248 Y82.331 E1.20551
G1 X82.660 Y82.430 E1.20956
G1 X83.052 Y82.592 E1.21361
G1 X83.414 Y82.814 E1.21766
G1 X83.736 Y83.089 E1.22172
G1 X84.011 Y83.411 E1.22577
G1 X84.207 Y83.730 E1.22934
G1 X84.395 Y84.165 E1.23387
G1 X84.494 Y84.577 E1.23792
G1 X84.528 Y85.000 E1.24197
G1 X84.494 Y85.423 E1.24602
G1 X84.395 Y85.835 E1.25008
G1 X84.233 Y86.227 E1.25413
G1 X84.011 Y86.589 E1.25818
G1 X83.736 Y86.911 E1.26224
G1 X83.414 Y87.186 E1.26629
G1 X83.052 Y87.408 E1.27034
G1 X82.660 Y87.570 E1.27439
G1 X82.248 Y87.669 E1.27845
G1 X81.825 Y87.703 E1.28250
G1 X81.402 Y87.669 E1.28655
G1 X80.990 Y87.570 E1.29060
G1 X80.598 Y87.408 E1.29466
G1 X80.236 Y87.186 E1.29871
G1 X79.914 Y86.911 E1.30276
G1 X79.639 Y86.589 E1.30681
G1 X79.417 Y86.227 E1.31087
G1 X79.255 Y85.835 E1.31492
G1 X79.156 Y85.423 E1.31897
G1 X79.122 Y85.000 E1.32302
G1 X79.156 Y84.577 E1.32708
G1 X79.255 Y84.165 E1.33113
G1 X79.417 Y83.773 E1.33518
G1 X79.639 Y83.411 E1.33923
G1 X79.883 Y83.125 E1.34283
G1 X79.914 Y83.089 E1.34329
G1 X80.139 Y83.314 F6000.000
G1 X80.424 Y83.071 F1200.000 E1.34686
G1 X80.743 Y82.876 E1.35044
G1 X81.088 Y82.733 E1.35401
G1 X81.452 Y82.645 E1.35759
G1 X81.825 Y82.616 E1.36116
G1 X82.198 Y82.645 E1.36474
G1 X82.562 Y82.733 E1.36831
G1 X82.907 Y82.876 E1.37189
G1 X83.226 Y83.071 E1.37546
G1 X83.511 Y83.314 E1.37904
G1 X83.754 Y83.599 E1.38261
G1 X83.936 Y83.896 E1.38594
G1 X84.092 Y84.263 E1.38976
G1 X84.180 Y84.627 E1.39334
G1 X84.209 Y85.000 E1.39691
G1 X84.180 Y85.373 E1.40048
G1 X84.092 Y85.737 E1.40406
G1 X83.949 Y86.082 E1.40764
G1 X83.754 Y86.401 E1.41121
G1 X83.511 Y86.686 E1.41479
G1 X83.226 Y86.929 E1.41836
G1 X82.907 Y87.124 E1.42194
G1 X82.562 Y87.267 E1.42551
G1 X82.198 Y87.355 E1.42909
G1 X81.825 Y87.384 E1.43266
G1 X81.452 Y87.355 E1.43624
G1 X81.088 Y87.267 E1.43981
G1 X80.743 Y87.124 E1.44339
G1 X80.424 Y86.929 E1.44696
G1 X80.139 Y86.686 E1.45054
G1 X79.896 Y86.401 E1.45411
G1 X79.701 Y86.082 E1.45769
