; generated by Slic3r 0.9.8 on 2013-09-10 at 22:19:03

; layer_height = 0.20
; perimeters = 3
; top_solid_layers = 3
; bottom_solid_layers = 3
; fill_density = 0.5
; perimeter_speed = 30
; infill_speed = 40
; travel_speed = 100
; scale = 1
; nozzle_diameter = 0.5
; filament_diameter = 2.9
; extrusion_multiplier = 0.80
; perimeters extrusion width = 0.40mm
; infill extrusion width = 0.20mm
; first layer extrusion width = 0.20mm

M107
M190 S70 ; wait for bed temperature to be reached
M104 S210 ; set temperature
G28 ; home all axes
M109 S210 ; wait for temperature to be reached
G90 ; use absolute coordinates
G21 ; set units to millimeters
G92 E0
M82 ; use absolute distances for extrusion
G1 F1800.000 E-1.00000
G92 E0
G1 Z0.200 F6000.000
G1 X82.790 Y89.040
G1 F1800.000 E1.00000
G1 X82.550 Y89.220 F1800.000 E1.00194
G1 X82.050 Y89.530 E1.00576
G1 X81.530 Y89.800 E1.00955
G1 X80.980 Y90.030 E1.01342
G1 X80.710 Y90.130 E1.01528
G1 X80.140 Y90.300 E1.01914
G1 X79.560 Y90.410 E1.02296
G1 X78.980 Y90.480 E1.02675
G1 X78.390 Y90.510 E1.03058
G1 X71.310 Y90.500 E1.07646
G1 X70.720 Y90.450 E1.08029
G1 X70.140 Y90.360 E1.08410
G1 X69.850 Y90.300 E1.08602
G1 X69.280 Y90.130 E1.08987
G1 X68.460 Y89.800 E1.09560
G1 X67.940 Y89.530 E1.09940
G1 X67.440 Y89.220 E1.10321
G1 X53.600 Y78.860 E1.21524
G1 X52.700 Y78.120 E1.22279
G1 X52.310 Y77.740 E1.22632
G1 X51.940 Y77.330 E1.22990
G1 X51.600 Y76.920 E1.23335
G1 X51.020 Y76.120 E1.23975
G1 X50.740 Y75.670 E1.24319
G1 X50.200 Y74.630 E1.25078
G1 X49.990 Y74.130 E1.25430
G1 X49.620 Y72.970 E1.26219
G1 X49.500 Y72.460 E1.26558
G1 X49.320 Y71.320 E1.27306
G1 X49.280 Y70.780 E1.27657
G1 X49.280 Y69.690 E1.28363
G1 X49.320 Y69.160 E1.28708
G1 X49.500 Y68.030 E1.29449
G1 X49.620 Y67.520 E1.29789
G1 X49.990 Y66.360 E1.30578
G1 X50.200 Y65.860 E1.30929
G1 X50.740 Y64.820 E1.31689
G1 X51.020 Y64.370 E1.32032
G1 X51.600 Y63.570 E1.32672
G1 X52.120 Y62.950 E1.33197
G1 X52.310 Y62.750 E1.33375
G1 X52.700 Y62.370 E1.33728
G1 X53.320 Y61.850 E1.34253
G1 X54.120 Y61.270 E1.34893
G1 X54.570 Y60.990 E1.35237
G1 X55.320 Y60.580 E1.35790
G1 X65.870 Y55.610 E1.43348
G1 X66.470 Y55.360 E1.43769
G1 X67.080 Y55.170 E1.44183
G1 X67.400 Y55.090 E1.44397
G1 X68.030 Y54.980 E1.44811
G1 X68.350 Y54.940 E1.45020
G1 X69.000 Y54.910 E1.45442
G1 X80.990 Y54.910 E1.53212
G1 X81.640 Y54.940 E1.53633
G1 X82.590 Y55.090 E1.54257
G1 X83.520 Y55.360 E1.54884
G1 X84.120 Y55.610 E1.55305
G1 X94.670 Y60.580 E1.62863
G1 X95.420 Y60.990 E1.63417
G1 X95.870 Y61.270 E1.63760
G1 X96.670 Y61.850 E1.64400
G1 X97.500 Y62.560 E1.65108
G1 X97.880 Y62.960 E1.65466
G1 X98.390 Y63.570 E1.65981
G1 X98.940 Y64.330 E1.66589
G1 X99.230 Y64.790 E1.66941
G1 X99.790 Y65.860 E1.67724
G1 X100.000 Y66.360 E1.68075
G1 X100.370 Y67.520 E1.68864
G1 X100.490 Y68.030 E1.69204
G1 X100.640 Y68.880 E1.69763
G1 X100.690 Y69.320 E1.70050
G1 X100.740 Y70.340 E1.70712
G1 X100.690 Y71.170 E1.71251
G1 X100.640 Y71.610 E1.71538
G1 X100.490 Y72.460 E1.72097
G1 X100.370 Y72.970 E1.72437
G1 X100.000 Y74.130 E1.73226
G1 X99.790 Y74.630 E1.73577
G1 X99.250 Y75.670 E1.74337
G1 X98.970 Y76.120 E1.74680
G1 X98.390 Y76.920 E1.75320
G1 X97.870 Y77.540 E1.75845
G1 X97.290 Y78.120 E1.76376
G1 X96.670 Y78.640 E1.76901
G1 X82.822 Y89.016 E1.88114
G1 X82.790 Y89.040 E1.88140
G1 X82.630 Y88.830 F6000.000
G1 X82.400 Y89.000 F1800.000 E1.88325
G1 X81.920 Y89.300 E1.88692
G1 X81.410 Y89.560 E1.89063
G1 X80.890 Y89.780 E1.89429
G1 X80.620 Y89.880 E1.89616
G1 X80.080 Y90.040 E1.89981
G1 X79.520 Y90.150 E1.90350
G1 X78.960 Y90.220 E1.90716
G1 X78.390 Y90.240 E1.91086
G1 X71.600 Y90.240 E1.95486
G1 X71.030 Y90.220 E1.95855
G1 X70.190 Y90.100 E1.96405
G1 X69.910 Y90.040 E1.96591
G1 X69.370 Y89.880 E1.96956
G1 X68.840 Y89.680 E1.97323
G1 X68.580 Y89.560 E1.97509
G1 X68.070 Y89.300 E1.97879
G1 X67.590 Y89.000 E1.98246
G1 X53.760 Y78.650 E2.09440
G1 X52.680 Y77.740 E2.10356
G1 X52.320 Y77.360 E2.10695
G1 X51.810 Y76.750 E2.11210
G1 X51.250 Y75.980 E2.11827
G1 X50.970 Y75.530 E2.12170
G1 X50.450 Y74.530 E2.12901
G1 X50.240 Y74.030 E2.13252
G1 X49.880 Y72.910 E2.14015
G1 X49.760 Y72.400 E2.14354
G1 X49.590 Y71.300 E2.15075
G1 X49.550 Y70.760 E2.15426
G1 X49.550 Y69.710 E2.16107
G1 X49.590 Y69.180 E2.16451
G1 X49.760 Y68.090 E2.17166
G1 X49.880 Y67.580 E2.17506
G1 X50.240 Y66.460 E2.18268
G1 X50.450 Y65.960 E2.18619
G1 X50.970 Y64.960 E2.19350
G1 X51.250 Y64.510 E2.19693
G1 X51.810 Y63.740 E2.20310
G1 X52.500 Y62.930 E2.21000
G1 X52.880 Y62.570 E2.21339
G1 X53.490 Y62.060 E2.21854
G1 X54.260 Y61.500 E2.22471
G1 X54.710 Y61.220 E2.22815
G1 X55.440 Y60.820 E2.23354
G1 X65.990 Y55.850 E2.30911
G1 X66.560 Y55.610 E2.31312
G1 X66.860 Y55.510 E2.31517
G1 X67.460 Y55.350 E2.31920
G1 X68.070 Y55.240 E2.32321
G1 X69.000 Y55.180 E2.32925
G1 X80.990 Y55.180 E2.40695
G1 X81.920 Y55.240 E2.41299
G1 X82.530 Y55.350 E2.41701
G1 X83.130 Y55.510 E2.42103
G1 X83.430 Y55.610 E2.42308
G1 X84.000 Y55.850 E2.42709
G1 X94.550 Y60.820 E2.50266
G1 X95.280 Y61.220 E2.50805
G1 X95.730 Y61.500 E2.51149
G1 X96.500 Y62.060 E2.51766
G1 X97.120 Y62.570 E2.52286
G1 X97.500 Y62.940 E2.52630
G1 X97.850 Y63.340 E2.52974
G1 X98.180 Y63.740 E2.53310
G1 X98.710 Y64.470 E2.53895
G1 X99.000 Y64.930 E2.54247
G1 X99.540 Y65.960 E2.55001
G1 X99.750 Y66.460 E2.55352
G1 X100.110 Y67.580 E2.56115
G1 X100.230 Y68.090 E2.56454
G1 X100.370 Y68.910 E2.56993
G1 X100.420 Y69.350 E2.57280
G1 X100.470 Y70.340 E2.57923
G1 X100.420 Y71.140 E2.58442
G1 X100.370 Y71.580 E2.58729
G1 X100.230 Y72.400 E2.59268
G1 X100.110 Y72.910 E2.59608
G1 X99.750 Y74.030 E2.60370
G1 X99.540 Y74.530 E2.60721
G1 X99.020 Y75.530 E2.61452
G1 X98.740 Y75.980 E2.61795
G1 X98.180 Y76.750 E2.62412
G1 X97.670 Y77.360 E2.62928
G1 X97.490 Y77.560 E2.63102
G1 X97.110 Y77.920 E2.63441
G1 X96.230 Y78.650 E2.64182
G1 X82.662 Y88.806 E2.75165
G1 X82.630 Y88.830 E2.75191
G1 X82.470 Y88.620 F6000.000
G1 X81.990 Y88.940 F1800.000 E2.75565
G1 X81.480 Y89.230 E2.75945
G1 X81.220 Y89.360 E2.76133
G1 X80.680 Y89.580 E2.76511
G1 X79.840 Y89.820 E2.77077
G1 X79.260 Y89.920 E2.77459
G1 X78.970 Y89.950 E2.77648
G1 X78.680 Y89.970 E2.77836
G1 X71.310 Y89.970 E2.82612
G1 X70.730 Y89.920 E2.82989
G1 X70.150 Y89.820 E2.83370
G1 X69.310 Y89.580 E2.83937
G1 X68.770 Y89.360 E2.84314
G1 X68.510 Y89.230 E2.84503
G1 X68.000 Y88.940 E2.84883
G1 X67.520 Y88.620 E2.85257
G1 X53.920 Y78.440 E2.96266
G1 X53.250 Y77.890 E2.96827
G1 X52.870 Y77.550 E2.97158
G1 X52.350 Y76.990 E2.97653
G1 X52.010 Y76.580 E2.97998
G1 X51.470 Y75.830 E2.98597
G1 X51.190 Y75.380 E2.98940
G1 X50.700 Y74.420 E2.99639
G1 X50.490 Y73.920 E2.99990
G1 X50.140 Y72.850 E3.00720
G1 X50.020 Y72.340 E3.01059
G1 X49.860 Y71.280 E3.01754
G1 X49.820 Y70.740 E3.02105
G1 X49.820 Y69.730 E3.02760
G1 X49.860 Y69.200 E3.03104
G1 X50.020 Y68.150 E3.03792
G1 X50.140 Y67.640 E3.04132
G1 X50.490 Y66.570 E3.04861
G1 X50.700 Y66.070 E3.05213
G1 X51.190 Y65.110 E3.05911
G1 X51.470 Y64.660 E3.06255
G1 X52.010 Y63.910 E3.06854
G1 X52.350 Y63.500 E3.07199
G1 X52.870 Y62.940 E3.07694
G1 X53.660 Y62.260 E3.08369
G1 X54.410 Y61.720 E3.08968
G1 X54.860 Y61.440 E3.09312
G1 X55.550 Y61.070 E3.09819
G1 X66.370 Y55.970 E3.17571
G1 X67.220 Y55.680 E3.18153
G1 X67.810 Y55.550 E3.18544
G1 X68.400 Y55.470 E3.18930
G1 X68.700 Y55.450 E3.19125
G1 X81.290 Y55.450 E3.27284
G1 X81.890 Y55.510 E3.27674
G1 X82.480 Y55.610 E3.28062
G1 X82.770 Y55.680 E3.28255
G1 X83.620 Y55.970 E3.28837
G1 X94.440 Y61.070 E3.36589
G1 X95.130 Y61.440 E3.37096
G1 X95.580 Y61.720 E3.37440
G1 X96.330 Y62.260 E3.38039
G1 X96.940 Y62.770 E3.38554
G1 X97.310 Y63.130 E3.38888
G1 X97.650 Y63.510 E3.39219
G1 X97.980 Y63.910 E3.39555
G1 X98.480 Y64.610 E3.40112
G1 X98.770 Y65.070 E3.40465
G1 X99.290 Y66.070 E3.41195
G1 X99.500 Y66.570 E3.41547
G1 X99.850 Y67.640 E3.42276
G1 X99.970 Y68.150 E3.42616
G1 X100.110 Y68.940 E3.43136
G1 X100.160 Y69.380 E3.43423
G1 X100.200 Y70.340 E3.44045
G1 X100.160 Y71.110 E3.44545
G1 X100.110 Y71.550 E3.44832
G1 X99.970 Y72.340 E3.45352
G1 X99.850 Y72.850 E3.45691
G1 X99.500 Y73.920 E3.46421
G1 X99.290 Y74.420 E3.46772
G1 X98.800 Y75.380 E3.47471
G1 X98.520 Y75.830 E3.47814
G1 X97.980 Y76.580 E3.48413
G1 X97.640 Y76.990 E3.48758
G1 X97.120 Y77.550 E3.49253
G1 X96.330 Y78.230 E3.49929
G1 X82.502 Y88.596 E3.61128
G1 X82.470 Y88.620 E3.61154
G1 X82.310 Y88.400 F6000.000
G1 X81.840 Y88.720 F1800.000 E3.61522
G1 X81.360 Y88.990 E3.61879
G1 X80.850 Y89.230 E3.62245
G1 X80.590 Y89.330 E3.62425
G1 X79.780 Y89.560 E3.62971
G1 X78.950 Y89.680 E3.63514
G1 X78.390 Y89.710 E3.63878
G1 X71.320 Y89.700 E3.68459
G1 X70.760 Y89.650 E3.68824
G1 X70.210 Y89.560 E3.69185
G1 X69.400 Y89.330 E3.69730
G1 X69.140 Y89.230 E3.69911
G1 X68.630 Y88.990 E3.70276
G1 X68.150 Y88.720 E3.70633
G1 X67.680 Y88.400 E3.71001
G1 X54.080 Y78.220 E3.82010
G1 X53.230 Y77.520 E3.82724
G1 X52.880 Y77.180 E3.83040
G1 X52.560 Y76.820 E3.83352
G1 X52.220 Y76.410 E3.83697
G1 X51.700 Y75.690 E3.84273
G1 X51.420 Y75.240 E3.84616
G1 X50.940 Y74.320 E3.85289
G1 X50.730 Y73.820 E3.85640
G1 X50.400 Y72.790 E3.86341
G1 X50.280 Y72.280 E3.86681
G1 X50.120 Y71.260 E3.87350
G1 X50.080 Y70.720 E3.87701
G1 X50.080 Y69.750 E3.88329
G1 X50.120 Y69.220 E3.88674
G1 X50.280 Y68.210 E3.89336
G1 X50.400 Y67.700 E3.89676
G1 X50.730 Y66.670 E3.90377
G1 X50.940 Y66.170 E3.90728
G1 X51.420 Y65.250 E3.91401
G1 X51.700 Y64.800 E3.91744
G1 X52.220 Y64.080 E3.92320
G1 X52.880 Y63.310 E3.92977
G1 X53.230 Y62.970 E3.93293
G1 X53.830 Y62.470 E3.93799
G1 X54.550 Y61.950 E3.94375
G1 X55.000 Y61.670 E3.94718
G1 X55.660 Y61.310 E3.95205
G1 X66.210 Y56.340 E4.02763
G1 X67.020 Y56.020 E4.03327
G1 X67.570 Y55.870 E4.03696
G1 X68.140 Y55.770 E4.04071
G1 X69.000 Y55.710 E4.04630
G1 X80.990 Y55.710 E4.12400
G1 X81.850 Y55.770 E4.12959
G1 X82.420 Y55.870 E4.13334
G1 X82.970 Y56.020 E4.13703
G1 X83.780 Y56.340 E4.14267
G1 X94.330 Y61.310 E4.21825
G1 X94.990 Y61.670 E4.22312
G1 X95.440 Y61.950 E4.22655
G1 X96.160 Y62.470 E4.23231
G1 X96.760 Y62.970 E4.23737
G1 X97.280 Y63.490 E4.24214
G1 X97.770 Y64.080 E4.24711
G1 X98.260 Y64.750 E4.25248
G1 X98.550 Y65.210 E4.25601
G1 X99.050 Y66.170 E4.26302
G1 X99.260 Y66.670 E4.26654
G1 X99.590 Y67.700 E4.27355
G1 X99.710 Y68.210 E4.27694
G1 X99.840 Y68.970 E4.28194
G1 X99.890 Y69.410 E4.28481
G1 X99.940 Y70.340 E4.29084
G1 X99.890 Y71.080 E4.29565
G1 X99.840 Y71.520 E4.29852
G1 X99.710 Y72.280 E4.30352
G1 X99.590 Y72.790 E4.30691
G1 X99.260 Y73.820 E4.31392
G1 X99.050 Y74.320 E4.31743
G1 X98.570 Y75.240 E4.32416
G1 X98.290 Y75.690 E4.32759
G1 X97.770 Y76.410 E4.33335
G1 X97.270 Y77.010 E4.33841
G1 X96.760 Y77.520 E4.34308
G1 X96.160 Y78.020 E4.34815
G1 X82.342 Y88.376 E4.46005
G1 X82.310 Y88.400 E4.46031
G1 X82.150 Y88.190 F6000.000
G1 X81.470 Y88.630 F1800.000 E4.46555
G1 X80.750 Y88.980 E4.47074
G1 X80.500 Y89.070 E4.47246
G1 X80.240 Y89.160 E4.47425
G1 X79.460 Y89.350 E4.47945
G1 X79.190 Y89.390 E4.48122
G1 X78.660 Y89.430 E4.48466
G1 X71.330 Y89.430 E4.53216
G1 X70.800 Y89.390 E4.53561
G1 X70.530 Y89.350 E4.53738
G1 X69.750 Y89.160 E4.54258
G1 X69.240 Y88.980 E4.54608
G1 X68.520 Y88.630 E4.55127
G1 X67.840 Y88.190 E4.55652
G1 X54.240 Y78.010 E4.66661
G1 X53.410 Y77.320 E4.67360
G1 X52.920 Y76.830 E4.67809
G1 X52.430 Y76.240 E4.68306
G1 X51.930 Y75.550 E4.68858
G1 X51.650 Y75.100 E4.69202
G1 X51.190 Y74.220 E4.69845
G1 X50.980 Y73.720 E4.70197
G1 X50.660 Y72.730 E4.70871
G1 X50.540 Y72.220 E4.71211
G1 X50.390 Y71.240 E4.71853
G1 X50.350 Y70.700 E4.72204
G1 X50.350 Y69.770 E4.72807
G1 X50.390 Y69.240 E4.73151
G1 X50.540 Y68.270 E4.73787
G1 X50.660 Y67.760 E4.74127
G1 X50.980 Y66.770 E4.74801
G1 X51.190 Y66.270 E4.75152
G1 X51.650 Y65.390 E4.75796
G1 X51.930 Y64.940 E4.76139
G1 X52.430 Y64.250 E4.76691
G1 X53.080 Y63.490 E4.77339
G1 X53.410 Y63.170 E4.77637
G1 X54.000 Y62.680 E4.78134
G1 X54.690 Y62.180 E4.78686
G1 X55.140 Y61.900 E4.79030
G1 X55.780 Y61.550 E4.79503
G1 X66.330 Y56.580 E4.87060
G1 X66.840 Y56.370 E4.87417
G1 X67.630 Y56.130 E4.87952
G1 X68.170 Y56.040 E4.88307
G1 X69.000 Y55.980 E4.88846
G1 X80.990 Y55.980 E4.96616
G1 X81.820 Y56.040 E4.97156
G1 X82.360 Y56.130 E4.97510
G1 X82.890 Y56.280 E4.97867
G1 X83.660 Y56.580 E4.98403
G1 X94.210 Y61.550 E5.05960
G1 X94.850 Y61.900 E5.06433
G1 X95.300 Y62.180 E5.06776
G1 X95.990 Y62.680 E5.07328
G1 X96.580 Y63.170 E5.07825
G1 X97.080 Y63.670 E5.08284
G1 X97.560 Y64.250 E5.08772
G1 X98.030 Y64.900 E5.09291
G1 X98.320 Y65.360 E5.09644
G1 X98.800 Y66.270 E5.10310
G1 X99.010 Y66.770 E5.10662
G1 X99.330 Y67.760 E5.11336
G1 X99.450 Y68.270 E5.11676
G1 X99.580 Y69.000 E5.12156
G1 X99.630 Y69.440 E5.12443
G1 X99.670 Y70.340 E5.13027
G1 X99.630 Y71.050 E5.13488
G1 X99.580 Y71.490 E5.13775
G1 X99.450 Y72.220 E5.14255
G1 X99.330 Y72.730 E5.14595
G1 X99.010 Y73.720 E5.15269
G1 X98.800 Y74.220 E5.15620
G1 X98.340 Y75.100 E5.16264
G1 X98.060 Y75.550 E5.16607
G1 X97.560 Y76.240 E5.17160
G1 X97.070 Y76.830 E5.17657
G1 X96.580 Y77.320 E5.18106
G1 X95.750 Y78.010 E5.18805
G1 X82.182 Y88.166 E5.29788
G1 X82.150 Y88.190 E5.29814
M204 S1000
G1 F1800.000 E4.29814
G92 E0
G1 X62.028 Y71.360 F6000.000
G1 F1800.000 E1.00000
G1 X61.836 Y71.586 F1800.000 E1.00192
G1 X61.610 Y71.778 E1.00384
G1 X61.358 Y71.933 E1.00576
G1 X61.084 Y72.047 E1.00768
G1 X60.795 Y72.116 E1.00960
G1 X60.500 Y72.139 E1.01153
G1 X60.205 Y72.116 E1.01345
G1 X59.916 Y72.047 E1.01537
G1 X59.642 Y71.933 E1.01729
G1 X59.390 Y71.778 E1.01921
G1 X59.164 Y71.586 E1.02113
G1 X58.972 Y71.360 E1.02305
G1 X58.817 Y71.108 E1.02497
G1 X58.703 Y70.834 E1.02689
G1 X58.634 Y70.546 E1.02881
G1 X58.611 Y70.250 E1.03073
G1 X58.634 Y69.954 E1.03266
G1 X58.703 Y69.666 E1.03458
G1 X58.817 Y69.392 E1.03650
G1 X58.972 Y69.140 E1.03842
G1 X59.164 Y68.914 E1.04034
G1 X59.390 Y68.722 E1.04226
G1 X59.642 Y68.567 E1.04418
G1 X59.916 Y68.453 E1.04610
G1 X60.205 Y68.384 E1.04802
G1 X60.500 Y68.361 E1.04994
G1 X60.795 Y68.384 E1.05186
G1 X61.084 Y68.453 E1.05378
G1 X61.358 Y68.567 E1.05571
G1 X61.610 Y68.722 E1.05763
G1 X61.836 Y68.914 E1.05955
G1 X62.028 Y69.140 E1.06147
G1 X62.183 Y69.392 E1.06339
G1 X62.297 Y69.666 E1.06531
G1 X62.366 Y69.954 E1.06723
G1 X62.389 Y70.250 E1.06915
G1 X62.366 Y70.546 E1.07107
G1 X62.297 Y70.834 E1.07299
G1 X62.183 Y71.108 E1.07491
G1 X62.049 Y71.326 E1.07658
G1 X62.028 Y71.360 E1.07684
G1 X61.811 Y71.203 F6000.000
G1 X61.646 Y71.396 F1800.000 E1.07848
G1 X61.453 Y71.561 E1.08013
G1 X61.236 Y71.694 E1.08178
G1 X61.001 Y71.791 E1.08343
G1 X60.753 Y71.851 E1.08508
G1 X60.500 Y71.871 E1.08672
G1 X60.247 Y71.851 E1.08837
G1 X59.999 Y71.791 E1.09002
G1 X59.764 Y71.694 E1.09167
G1 X59.547 Y71.561 E1.09332
G1 X59.354 Y71.396 E1.09496
G1 X59.189 Y71.203 E1.09661
G1 X59.056 Y70.986 E1.09826
G1 X58.959 Y70.751 E1.09991
G1 X58.899 Y70.504 E1.10156
G1 X58.879 Y70.250 E1.10320
G1 X58.899 Y69.996 E1.10485
G1 X58.959 Y69.749 E1.10650
G1 X59.056 Y69.514 E1.10815
G1 X59.189 Y69.297 E1.10980
G1 X59.354 Y69.104 E1.11144
G1 X59.547 Y68.939 E1.11309
G1 X59.764 Y68.806 E1.11474
G1 X59.999 Y68.709 E1.11639
G1 X60.247 Y68.649 E1.11804
G1 X60.500 Y68.629 E1.11968
G1 X60.753 Y68.649 E1.12133
G1 X61.001 Y68.709 E1.12298
G1 X61.236 Y68.806 E1.12463
G1 X61.453 Y68.939 E1.12628
G1 X61.646 Y69.104 E1.12792
G1 X61.811 Y69.297 E1.12957
G1 X61.944 Y69.514 E1.13122
G1 X62.041 Y69.749 E1.13287
G1 X62.101 Y69.996 E1.13452
G1 X62.121 Y70.250 E1.13616
G1 X62.101 Y70.504 E1.13781
G1 X62.041 Y70.751 E1.13946
G1 X61.944 Y70.986 E1.14111
G1 X61.832 Y71.168 E1.14250
G1 X61.811 Y71.203 E1.14276
G1 X61.594 Y71.045 F6000.000
G1 X61.456 Y71.206 F1800.000 E1.14413
G1 X61.295 Y71.344 E1.14551
