; generated by Slic3r 0.9.8 on 2013-09-10 at 21:08:04

; layer_height = 0.15
; perimeters = 3
; top_solid_layers = 3
; bottom_solid_layers = 3
; fill_density = 0.5
; perimeter_speed = 30
; infill_speed = 40
; travel_speed = 100
; scale = 1
; nozzle_diameter = 0.5
; filament_diameter = 2.9
; extrusion_multiplier = 0.80
; perimeters extrusion width = 0.40mm
; infill extrusion width = 0.15mm
; first layer extrusion width = 0.15mm

M107
M190 S70 ; wait for bed temperature to be reached
M104 S205 ; set temperature
G28 ; home all axes
M109 S205 ; wait for temperature to be reached
G90 ; use absolute coordinates
G21 ; set units to millimeters
G92 E0
M82 ; use absolute distances for extrusion
G1 F1800.000 E-1.00000
G92 E0
G1 Z0.150 F6000.000
G1 X82.420 Y88.520
G1 F1800.000 E1.00000
G1 X82.190 Y88.690 F1800.000 E1.00118
G1 X81.450 Y89.130 E1.00474
G1 X80.660 Y89.460 E1.00828
G1 X79.840 Y89.700 E1.01181
G1 X79.280 Y89.800 E1.01416
G1 X78.710 Y89.850 E1.01652
G1 X71.280 Y89.850 E1.04723
G1 X70.710 Y89.800 E1.04959
G1 X70.150 Y89.700 E1.05194
G1 X69.600 Y89.550 E1.05430
G1 X69.060 Y89.360 E1.05667
G1 X68.540 Y89.130 E1.05902
G1 X67.800 Y88.690 E1.06257
G1 X53.980 Y78.360 E1.13388
G1 X53.300 Y77.810 E1.13749
G1 X52.930 Y77.480 E1.13954
G1 X52.430 Y76.940 E1.14258
G1 X52.090 Y76.530 E1.14478
G1 X51.580 Y75.820 E1.14839
G1 X51.160 Y75.160 E1.15163
G1 X50.930 Y74.730 E1.15364
G1 X50.540 Y73.780 E1.15789
G1 X50.260 Y72.920 E1.16162
G1 X50.130 Y72.400 E1.16384
G1 X49.950 Y71.270 E1.16857
G1 X49.910 Y70.730 E1.17080
G1 X49.910 Y69.740 E1.17490
G1 X50.000 Y68.740 E1.17904
G1 X50.130 Y68.060 E1.18191
G1 X50.260 Y67.550 E1.18408
G1 X50.520 Y66.760 E1.18752
G1 X50.720 Y66.250 E1.18978
G1 X51.030 Y65.560 E1.19291
G1 X51.580 Y64.670 E1.19723
G1 X52.090 Y63.960 E1.20084
G1 X52.430 Y63.550 E1.20304
G1 X52.930 Y63.010 E1.20609
G1 X53.710 Y62.340 E1.21033
G1 X54.420 Y61.830 E1.21395
G1 X54.880 Y61.540 E1.21619
G1 X55.610 Y61.140 E1.21963
G1 X66.170 Y56.200 E1.26781
G1 X66.710 Y55.970 E1.27024
G1 X67.550 Y55.730 E1.27385
G1 X67.840 Y55.670 E1.27507
G1 X68.420 Y55.590 E1.27749
G1 X68.710 Y55.570 E1.27869
G1 X81.280 Y55.570 E1.33064
G1 X81.570 Y55.590 E1.33184
G1 X82.150 Y55.670 E1.33426
G1 X82.440 Y55.730 E1.33548
G1 X83.280 Y55.970 E1.33909
G1 X83.820 Y56.200 E1.34152
G1 X94.380 Y61.140 E1.38970
G1 X95.110 Y61.540 E1.39314
G1 X95.570 Y61.830 E1.39538
G1 X96.280 Y62.340 E1.39900
G1 X96.860 Y62.830 E1.40213
G1 X97.360 Y63.320 E1.40503
G1 X97.850 Y63.890 E1.40813
G1 X98.450 Y64.710 E1.41233
G1 X98.740 Y65.180 E1.41462
G1 X99.250 Y66.210 E1.41936
G1 X99.450 Y66.710 E1.42159
G1 X99.730 Y67.570 E1.42533
G1 X99.860 Y68.090 E1.42754
G1 X100.040 Y69.200 E1.43219
G1 X100.080 Y69.720 E1.43435
G1 X100.080 Y70.710 E1.43844
G1 X100.040 Y71.260 E1.44072
G1 X99.860 Y72.400 E1.44548
G1 X99.730 Y72.920 E1.44770
G1 X99.450 Y73.780 E1.45144
G1 X99.160 Y74.510 E1.45468
G1 X98.830 Y75.160 E1.45770
G1 X98.410 Y75.820 E1.46093
G1 X97.900 Y76.530 E1.46454
G1 X97.560 Y76.940 E1.46674
G1 X97.060 Y77.480 E1.46978
G1 X96.280 Y78.150 E1.47403
G1 X82.447 Y88.500 E1.54543
G1 X82.420 Y88.520 E1.54557
G1 X82.290 Y88.340 F6000.000
G1 X81.830 Y88.650 F1800.000 E1.54786
G1 X81.350 Y88.920 E1.55013
G1 X80.590 Y89.250 E1.55356
G1 X80.330 Y89.340 E1.55470
G1 X79.790 Y89.480 E1.55700
G1 X79.250 Y89.570 E1.55926
G1 X78.700 Y89.620 E1.56155
G1 X71.290 Y89.620 E1.59217
G1 X70.740 Y89.570 E1.59445
G1 X70.200 Y89.480 E1.59671
G1 X69.660 Y89.340 E1.59902
G1 X69.400 Y89.250 E1.60015
G1 X68.640 Y88.920 E1.60358
G1 X68.160 Y88.650 E1.60585
G1 X67.700 Y88.340 E1.60815
G1 X54.110 Y78.180 E1.67827
G1 X53.450 Y77.640 E1.68179
G1 X53.090 Y77.320 E1.68378
G1 X52.600 Y76.790 E1.68676
G1 X52.260 Y76.380 E1.68897
G1 X51.770 Y75.700 E1.69243
G1 X51.240 Y74.840 E1.69660
G1 X51.040 Y74.410 E1.69856
G1 X50.750 Y73.700 E1.70173
G1 X50.480 Y72.870 E1.70534
G1 X50.350 Y72.350 E1.70756
G1 X50.170 Y71.260 E1.71212
G1 X50.130 Y70.720 E1.71436
G1 X50.130 Y69.750 E1.71837
G1 X50.220 Y68.780 E1.72239
G1 X50.300 Y68.330 E1.72428
G1 X50.490 Y67.610 E1.72736
G1 X50.730 Y66.840 E1.73069
G1 X51.020 Y66.110 E1.73394
G1 X51.240 Y65.670 E1.73597
G1 X51.350 Y65.460 E1.73695
G1 X51.770 Y64.790 E1.74022
G1 X52.260 Y64.110 E1.74368
G1 X52.920 Y63.340 E1.74787
G1 X53.450 Y62.850 E1.75086
G1 X53.860 Y62.510 E1.75306
G1 X54.540 Y62.020 E1.75652
G1 X55.000 Y61.730 E1.75877
G1 X55.700 Y61.340 E1.76208
G1 X66.260 Y56.400 E1.81026
G1 X67.050 Y56.100 E1.81375
G1 X67.600 Y55.950 E1.81611
G1 X68.160 Y55.850 E1.81846
G1 X68.720 Y55.800 E1.82078
G1 X81.270 Y55.800 E1.87264
G1 X81.830 Y55.850 E1.87497
G1 X82.390 Y55.950 E1.87732
G1 X82.940 Y56.100 E1.87967
G1 X83.730 Y56.400 E1.88316
G1 X94.290 Y61.340 E1.93134
G1 X94.990 Y61.730 E1.93465
G1 X95.450 Y62.020 E1.93690
G1 X96.130 Y62.510 E1.94037
G1 X96.880 Y63.150 E1.94444
G1 X97.190 Y63.470 E1.94628
G1 X97.680 Y64.040 E1.94939
G1 X98.250 Y64.830 E1.95341
G1 X98.540 Y65.300 E1.95570
G1 X99.040 Y66.290 E1.96028
G1 X99.240 Y66.790 E1.96250
G1 X99.510 Y67.620 E1.96611
G1 X99.640 Y68.140 E1.96833
G1 X99.820 Y69.210 E1.97281
G1 X99.860 Y69.730 E1.97496
G1 X99.860 Y70.700 E1.97897
G1 X99.820 Y71.250 E1.98125
G1 X99.640 Y72.350 E1.98586
G1 X99.510 Y72.870 E1.98807
G1 X99.240 Y73.700 E1.99168
G1 X98.950 Y74.410 E1.99485
G1 X98.750 Y74.840 E1.99681
G1 X98.220 Y75.700 E2.00098
G1 X97.730 Y76.380 E2.00445
G1 X97.390 Y76.790 E2.00665
G1 X96.900 Y77.320 E2.00963
G1 X96.130 Y77.980 E2.01382
G1 X82.317 Y88.320 E2.08512
G1 X82.290 Y88.340 E2.08527
G1 X82.150 Y88.160 F6000.000
G1 X81.710 Y88.460 F1800.000 E2.08747
G1 X81.240 Y88.720 E2.08969
G1 X81.000 Y88.840 E2.09080
G1 X80.510 Y89.040 E2.09298
G1 X79.740 Y89.260 E2.09629
G1 X79.220 Y89.350 E2.09847
G1 X78.690 Y89.390 E2.10067
G1 X71.300 Y89.390 E2.13121
G1 X70.770 Y89.350 E2.13340
G1 X70.510 Y89.310 E2.13449
G1 X70.250 Y89.260 E2.13559
G1 X69.480 Y89.040 E2.13890
G1 X68.990 Y88.840 E2.14108
G1 X68.750 Y88.720 E2.14219
G1 X68.280 Y88.460 E2.14441
G1 X67.840 Y88.160 E2.14661
G1 X54.250 Y78.000 E2.21673
G1 X53.420 Y77.310 E2.22119
G1 X53.090 Y76.990 E2.22309
G1 X52.780 Y76.650 E2.22499
G1 X52.440 Y76.240 E2.22719
G1 X51.960 Y75.580 E2.23057
G1 X51.440 Y74.730 E2.23468
G1 X51.160 Y74.110 E2.23750
G1 X50.960 Y73.610 E2.23972
G1 X50.700 Y72.810 E2.24320
G1 X50.570 Y72.290 E2.24541
G1 X50.400 Y71.240 E2.24981
G1 X50.360 Y70.700 E2.25205
G1 X50.360 Y69.770 E2.25589
G1 X50.420 Y69.030 E2.25896
G1 X50.480 Y68.600 E2.26075
G1 X50.710 Y67.660 E2.26475
G1 X50.940 Y66.930 E2.26791
G1 X51.330 Y65.990 E2.27212
G1 X51.550 Y65.570 E2.27408
G1 X51.960 Y64.910 E2.27729
G1 X52.440 Y64.250 E2.28066
G1 X53.090 Y63.500 E2.28476
G1 X53.420 Y63.180 E2.28666
G1 X54.000 Y62.690 E2.28980
G1 X54.660 Y62.210 E2.29317
G1 X55.120 Y61.920 E2.29542
G1 X55.800 Y61.550 E2.29862
G1 X66.360 Y56.610 E2.34680
G1 X66.920 Y56.380 E2.34930
G1 X67.500 Y56.210 E2.35180
G1 X67.800 Y56.140 E2.35307
G1 X68.400 Y56.050 E2.35558
G1 X69.000 Y56.020 E2.35806
G1 X80.990 Y56.020 E2.40761
G1 X81.590 Y56.050 E2.41009
G1 X82.190 Y56.140 E2.41260
G1 X83.070 Y56.380 E2.41637
G1 X83.630 Y56.610 E2.41887
G1 X94.190 Y61.550 E2.46705
G1 X94.870 Y61.920 E2.47025
G1 X95.330 Y62.210 E2.47249
G1 X95.990 Y62.690 E2.47587
G1 X96.720 Y63.310 E2.47982
G1 X97.020 Y63.620 E2.48161
G1 X97.500 Y64.190 E2.48469
G1 X98.060 Y64.950 E2.48859
G1 X98.350 Y65.420 E2.49087
G1 X98.830 Y66.380 E2.49531
G1 X99.030 Y66.880 E2.49753
G1 X99.290 Y67.680 E2.50101
G1 X99.420 Y68.200 E2.50322
G1 X99.590 Y69.230 E2.50754
G1 X99.630 Y69.750 E2.50969
G1 X99.630 Y70.680 E2.51354
G1 X99.590 Y71.230 E2.51581
G1 X99.420 Y72.290 E2.52025
G1 X99.290 Y72.810 E2.52247
G1 X99.030 Y73.610 E2.52594
G1 X98.650 Y74.530 E2.53006
G1 X98.440 Y74.930 E2.53192
G1 X98.030 Y75.580 E2.53510
G1 X97.550 Y76.240 E2.53847
G1 X97.210 Y76.650 E2.54067
G1 X96.740 Y77.150 E2.54351
G1 X95.990 Y77.800 E2.54761
G1 X82.177 Y88.140 E2.61891
G1 X82.150 Y88.160 E2.61905
M204 S1000
G1 F1800.000 E1.61905
G92 E0
G1 X61.943 Y71.298 F6000.000
G1 F1800.000 E1.00000
G1 X61.761 Y71.511 F1800.000 E1.00116
G1 X61.548 Y71.693 E1.00231
G1 X61.310 Y71.839 E1.00347
G1 X61.051 Y71.946 E1.00462
G1 X60.779 Y72.011 E1.00578
G1 X60.500 Y72.033 E1.00694
G1 X60.221 Y72.011 E1.00809
G1 X59.949 Y71.946 E1.00925
G1 X59.690 Y71.839 E1.01041
G1 X59.452 Y71.693 E1.01156
G1 X59.239 Y71.511 E1.01272
G1 X59.057 Y71.298 E1.01388
G1 X58.911 Y71.059 E1.01503
G1 X58.804 Y70.801 E1.01619
G1 X58.739 Y70.529 E1.01734
G1 X58.717 Y70.250 E1.01850
G1 X58.739 Y69.971 E1.01966
G1 X58.804 Y69.699 E1.02081
G1 X58.911 Y69.441 E1.02197
G1 X59.057 Y69.202 E1.02313
G1 X59.239 Y68.989 E1.02428
G1 X59.452 Y68.807 E1.02544
G1 X59.690 Y68.661 E1.02659
G1 X59.949 Y68.554 E1.02775
G1 X60.221 Y68.489 E1.02891
G1 X60.500 Y68.467 E1.03006
G1 X60.779 Y68.489 E1.03122
G1 X61.051 Y68.554 E1.03238
G1 X61.310 Y68.661 E1.03353
G1 X61.548 Y68.807 E1.03469
G1 X61.761 Y68.989 E1.03584
G1 X61.943 Y69.202 E1.03700
G1 X62.089 Y69.441 E1.03816
G1 X62.196 Y69.699 E1.03931
G1 X62.261 Y69.971 E1.04047
G1 X62.283 Y70.250 E1.04163
G1 X62.261 Y70.529 E1.04278
G1 X62.196 Y70.801 E1.04394
G1 X62.089 Y71.059 E1.04509
G1 X61.960 Y71.269 E1.04611
G1 X61.943 Y71.298 E1.04625
G1 X61.758 Y71.164 F6000.000
G1 X61.599 Y71.350 F1800.000 E1.04726
G1 X61.414 Y71.508 E1.04827
G1 X61.206 Y71.635 E1.04928
G1 X60.981 Y71.729 E1.05028
G1 X60.743 Y71.786 E1.05129
G1 X60.500 Y71.805 E1.05230
G1 X60.257 Y71.786 E1.05331
G1 X60.019 Y71.729 E1.05432
G1 X59.794 Y71.635 E1.05533
G1 X59.586 Y71.508 E1.05633
G1 X59.401 Y71.350 E1.05734
G1 X59.242 Y71.164 E1.05835
G1 X59.115 Y70.956 E1.05936
G1 X59.021 Y70.730 E1.06037
G1 X58.964 Y70.493 E1.06138
G1 X58.945 Y70.250 E1.06238
G1 X58.964 Y70.007 E1.06339
G1 X59.021 Y69.770 E1.06440
G1 X59.115 Y69.544 E1.06541
G1 X59.242 Y69.336 E1.06642
G1 X59.401 Y69.150 E1.06743
G1 X59.586 Y68.992 E1.06843
G1 X59.794 Y68.865 E1.06944
G1 X60.019 Y68.771 E1.07045
G1 X60.257 Y68.714 E1.07146
G1 X60.500 Y68.695 E1.07247
G1 X60.743 Y68.714 E1.07347
G1 X60.981 Y68.771 E1.07448
G1 X61.206 Y68.865 E1.07549
G1 X61.414 Y68.992 E1.07650
G1 X61.599 Y69.150 E1.07751
G1 X61.758 Y69.336 E1.07852
G1 X61.885 Y69.544 E1.07952
G1 X61.979 Y69.770 E1.08053
G1 X62.036 Y70.007 E1.08154
G1 X62.055 Y70.250 E1.08255
G1 X62.036 Y70.493 E1.08356
G1 X61.979 Y70.730 E1.08457
G1 X61.885 Y70.956 E1.08557
G1 X61.776 Y71.135 E1.08644
G1 X61.758 Y71.164 E1.08658
G1 X61.573 Y71.030 F6000.000
G1 X61.438 Y71.188 F1800.000 E1.08744
G1 X61.280 Y71.323 E1.08830
G1 X61.102 Y71.432 E1.08916
G1 X60.910 Y71.512 E1.09002
G1 X60.707 Y71.560 E1.09088
G1 X60.500 Y71.577 E1.09174
G1 X60.292 Y71.560 E1.09261
G1 X60.090 Y71.512 E1.09347
G1 X59.898 Y71.432 E1.09433
G1 X59.720 Y71.323 E1.09519
G1 X59.562 Y71.188 E1.09605
G1 X59.427 Y71.030 E1.09691
G1 X59.318 Y70.852 E1.09777
G1 X59.238 Y70.660 E1.09863
G1 X59.190 Y70.458 E1.09949
G1 X59.173 Y70.250 E1.10035
G1 X59.190 Y70.042 E1.10121
G1 X59.238 Y69.840 E1.10207
G1 X59.318 Y69.648 E1.10293
G1 X59.427 Y69.470 E1.10379
G1 X59.562 Y69.312 E1.10465
G1 X59.720 Y69.177 E1.10551
G1 X59.898 Y69.068 E1.10637
G1 X60.090 Y68.988 E1.10723
G1 X60.292 Y68.940 E1.10809
G1 X60.500 Y68.923 E1.10895
G1 X60.707 Y68.940 E1.10981
G1 X60.910 Y68.988 E1.11067
G1 X61.102 Y69.068 E1.11153
G1 X61.280 Y69.177 E1.11239
G1 X61.438 Y69.312 E1.11325
G1 X61.573 Y69.470 E1.11411
G1 X61.682 Y69.648 E1.11497
G1 X61.762 Y69.840 E1.11583
G1 X61.810 Y70.042 E1.11669
G1 X61.827 Y70.250 E1.11756
G1 X61.810 Y70.458 E1.11842
G1 X61.762 Y70.660 E1.11928
G1 X61.682 Y70.852 E1.12014
G1 X61.591 Y71.001 E1.12086
G1 X61.573 Y71.030 E1.12100
G1 X61.660 Y71.240 F6000.000
G1 F1800.000 E0.12100
G92 E0
G1 X87.717 Y70.250 F6000.000
G1 F1800.000 E1.00000
G1 X87.739 Y69.971 F1800.000 E1.00116
G1 X87.804 Y69.699 E1.00231
G1 X87.911 Y69.441 E1.00347
G1 X88.057 Y69.202 E1.00463
G1 X88.239 Y68.989 E1.00578
G1 X88.452 Y68.807 E1.00694
G1 X88.690 Y68.661 E1.00809
G1 X88.949 Y68.554 E1.00925
G1 X89.221 Y68.489 E1.01041
G1 X89.500 Y68.467 E1.01156
G1 X89.779 Y68.489 E1.01272
G1 X90.051 Y68.554 E1.01388
G1 X90.310 Y68.661 E1.01503
G1 X90.548 Y68.807 E1.01619
G1 X90.761 Y68.989 E1.01734
G1 X90.943 Y69.202 E1.01850
G1 X91.089 Y69.441 E1.01966
G1 X91.196 Y69.699 E1.02081
G1 X91.261 Y69.971 E1.02197
G1 X91.283 Y70.250 E1.02313
G1 X91.261 Y70.529 E1.02428
G1 X91.196 Y70.801 E1.02544
G1 X91.089 Y71.059 E1.02659
G1 X90.943 Y71.298 E1.02775
G1 X90.761 Y71.511 E1.02891
G1 X90.548 Y71.693 E1.03006
G1 X90.310 Y71.839 E1.03122
G1 X90.051 Y71.946 E1.03238
G1 X89.779 Y72.011 E1.03353
G1 X89.500 Y72.033 E1.03469
G1 X89.221 Y72.011 E1.03584
G1 X88.949 Y71.946 E1.03700
G1 X88.690 Y71.839 E1.03816
G1 X88.452 Y71.693 E1.03931
G1 X88.239 Y71.511 E1.04047
G1 X88.057 Y71.298 E1.04163
G1 X87.911 Y71.059 E1.04278
G1 X87.804 Y70.801 E1.04394
G1 X87.739 Y70.529 E1.04509
G1 X87.720 Y70.284 E1.04611
G1 X87.717 Y70.250 E1.04625
G1 X87.945 Y70.250 F6000.000
G1 X87.964 Y70.007 F1800.000 E1.04726
G1 X88.021 Y69.770 E1.04827
G1 X88.115 Y69.544 E1.04928
G1 X88.242 Y69.336 E1.05028
G1 X88.401 Y69.150 E1.05129
G1 X88.586 Y68.992 E1.05230
G1 X88.794 Y68.865 E1.05331
G1 X89.019 Y68.771 E1.05432
G1 X89.257 Y68.714 E1.05533
G1 X89.500 Y68.695 E1.05633
G1 X89.743 Y68.714 E1.05734
G1 X89.981 Y68.771 E1.05835
G1 X90.206 Y68.865 E1.05936
G1 X90.414 Y68.992 E1.06037
G1 X90.599 Y69.150 E1.06138
G1 X90.758 Y69.336 E1.06238
G1 X90.885 Y69.544 E1.06339
G1 X90.979 Y69.770 E1.06440
G1 X91.036 Y70.007 E1.06541
G1 X91.055 Y70.250 E1.06642
G1 X91.036 Y70.493 E1.06743
G1 X90.979 Y70.730 E1.06843
G1 X90.885 Y70.956 E1.06944
G1 X90.758 Y71.164 E1.07045
G1 X90.599 Y71.350 E1.07146
G1 X90.414 Y71.508 E1.07247
G1 X90.206 Y71.635 E1.07347
G1 X89.981 Y71.729 E1.07448
G1 X89.743 Y71.786 E1.07549
G1 X89.500 Y71.805 E1.07650
G1 X89.257 Y71.786 E1.07751
G1 X89.019 Y71.729 E1.07852
G1 X88.794 Y71.635 E1.07952
G1 X88.586 Y71.508 E1.08053
G1 X88.401 Y71.350 E1.08154
G1 X88.242 Y71.164 E1.08255
G1 X88.115 Y70.956 E1.08356
G1 X88.021 Y70.730 E1.08457
G1 X87.964 Y70.493 E1.08557
G1 X87.948 Y70.284 E1.08644
G1 X87.945 Y70.250 E1.08658
G1 X88.173 Y70.250 F6000.000
G1 X88.190 Y70.042 F1800.000 E1.08744
G1 X88.238 Y69.840 E1.08830
G1 X88.318 Y69.648 E1.08916
G1 X88.427 Y69.470 E1.09002
G1 X88.562 Y69.312 E1.09088
G1 X88.720 Y69.177 E1.09175
G1 X88.898 Y69.068 E1.09261
G1 X89.090 Y68.988 E1.09347
G1 X89.292 Y68.940 E1.09433
G1 X89.500 Y68.923 E1.09519
G1 X89.707 Y68.940 E1.09605
G1 X89.910 Y68.988 E1.09691
G1 X90.102 Y69.068 E1.09777
G1 X90.280 Y69.177 E1.09863
G1 X90.438 Y69.312 E1.09949
G1 X90.573 Y69.470 E1.10035
G1 X90.682 Y69.648 E1.10121
G1 X90.762 Y69.840 E1.10207
G1 X90.810 Y70.042 E1.10293
G1 X90.827 Y70.250 E1.10379
G1 X90.810 Y70.458 E1.10465
G1 X90.762 Y70.660 E1.10551
G1 X90.682 Y70.852 E1.10637
G1 X90.573 Y71.030 E1.10723
G1 X90.438 Y71.188 E1.10809
G1 X90.280 Y71.323 E1.10895
G1 X90.102 Y71.432 E1.10981
G1 X89.910 Y71.512 E1.11067
G1 X89.707 Y71.560 E1.11153
G1 X89.500 Y71.577 E1.11239
G1 X89.292 Y71.560 E1.11325
G1 X89.090 Y71.512 E1.11411
G1 X88.898 Y71.432 E1.11497
G1 X88.720 Y71.323 E1.11583
G1 X88.562 Y71.188 E1.11669
G1 X88.427 Y71.030 E1.11756
G1 X88.318 Y70.852 E1.11842
G1 X88.238 Y70.660 E1.11928
G1 X88.190 Y70.458 E1.12014
G1 X88.176 Y70.284 E1.12086
G1 X88.173 Y70.250 E1.12100
G1 X87.979 Y70.131 F6000.000
G1 F1800.000 E0.12100
G92 E0
G1 X80.533 Y70.250 F6000.000
G1 F1800.000 E1.00000
G1 X80.465 Y71.116 F1800.000 E1.00359
G1 X80.262 Y71.960 E1.00718
G1 X79.930 Y72.762 E1.01076
G1 X79.476 Y73.502 E1.01435
G1 X78.912 Y74.162 E1.01794
G1 X78.252 Y74.726 E1.02153
G1 X77.460 Y75.202 E1.02535
