; generated by Slic3r 0.9.7 on 2013-12-28 at 01:17:32

; layer_height = 0.25
; perimeters = 3
; top_solid_layers = 3
; bottom_solid_layers = 3
; fill_density = 0.3
; perimeter_speed = 80
; infill_speed = 80
; travel_speed = 250
; scale = 1
; nozzle_diameter = 0.5
; filament_diameter = 2.89
; extrusion_multiplier = 0.781
; perimeters extrusion width = 0.40mm
; infill extrusion width = 0.25mm
; first layer extrusion width = 0.27mm

M107
M190 S70 ; wait for bed temperature to be reached
M104 S220 ; set temperature
G28 ; home all axes
M109 S220 ; wait for temperature to be reached
G90 ; use absolute coordinates
G21 ; set units to millimeters
G92 E0
M82 ; use absolute distances for extrusion
G1 F1500.000 E-1.50000
G92 E0
G1 Z0.250 F15000.000
G1 X47.410 Y51.020
G1 F1500.000 E1.50000
G1 X47.610 Y50.840 F4800.000 E1.50254
G1 X48.040 Y50.510 E1.50766
G1 X48.500 Y50.200 E1.51290
G1 X48.730 Y50.060 E1.51545
G1 X49.470 Y49.710 E1.52318
G1 X49.980 Y49.520 E1.52832
G1 X50.770 Y49.310 E1.53604
G1 X51.040 Y49.260 E1.53864
G1 X51.860 Y49.180 E1.54642
G1 X118.130 Y49.180 E2.17249
G1 X118.950 Y49.260 E2.18027
G1 X119.750 Y49.440 E2.18802
G1 X120.270 Y49.610 E2.19319
G1 X121.020 Y49.940 E2.20093
G1 X121.260 Y50.060 E2.20347
G1 X121.720 Y50.350 E2.20860
G1 X122.380 Y50.840 E2.21637
G1 X122.580 Y51.020 E2.21891
G1 X123.150 Y51.610 E2.22666
G1 X123.480 Y52.040 E2.23178
G1 X123.790 Y52.500 E2.23702
G1 X123.930 Y52.730 E2.23957
G1 X124.280 Y53.470 E2.24730
G1 X124.550 Y54.240 E2.25501
G1 X124.730 Y55.040 E2.26276
G1 X124.810 Y55.860 E2.27054
G1 X124.810 Y80.990 E2.50795
G1 X124.740 Y82.010 E2.51761
G1 X124.570 Y82.940 E2.52654
G1 X124.370 Y83.590 E2.53296
G1 X124.250 Y83.910 E2.53619
G1 X123.920 Y84.620 E2.54359
G1 X123.540 Y85.260 E2.55062
G1 X123.130 Y85.840 E2.55733
G1 X122.770 Y86.270 E2.56263
G1 X122.120 Y86.900 E2.57118
G1 X86.120 Y118.900 E3.02622
G1 X85.720 Y119.230 E3.03112
G1 X85.080 Y119.660 E3.03840
G1 X84.620 Y119.930 E3.04344
G1 X83.980 Y120.230 E3.05012
G1 X82.900 Y120.580 E3.06085
G1 X82.410 Y120.680 E3.06557
G1 X81.720 Y120.770 E3.07214
G1 X80.990 Y120.810 E3.07905
G1 X53.000 Y120.810 E3.34348
G1 X52.270 Y120.770 E3.35039
G1 X51.830 Y120.720 E3.35457
G1 X51.090 Y120.580 E3.36168
G1 X50.010 Y120.230 E3.37241
G1 X49.370 Y119.930 E3.37909
G1 X48.670 Y119.510 E3.38680
G1 X48.200 Y119.170 E3.39228
G1 X47.760 Y118.790 E3.39777
G1 X46.880 Y117.870 E3.40980
G1 X46.400 Y117.210 E3.41751
G1 X46.080 Y116.660 E3.42352
G1 X45.940 Y116.370 E3.42656
G1 X45.740 Y115.910 E3.43130
G1 X45.510 Y115.270 E3.43773
G1 X45.350 Y114.610 E3.44414
G1 X45.250 Y114.010 E3.44989
G1 X45.180 Y112.990 E3.45955
G1 X45.180 Y55.860 E3.99927
G1 X45.260 Y55.040 E4.00705
G1 X45.370 Y54.510 E4.01217
G1 X45.610 Y53.720 E4.01997
G1 X45.820 Y53.220 E4.02509
G1 X46.060 Y52.730 E4.03024
G1 X46.510 Y52.040 E4.03803
G1 X46.840 Y51.610 E4.04315
G1 X47.375 Y51.053 E4.05045
G1 X47.410 Y51.020 E4.05090
G1 X47.530 Y51.340 F15000.000
G1 X47.930 Y50.990 F4800.000 E4.05592
G1 X48.580 Y50.520 E4.06350
G1 X48.810 Y50.380 E4.06604
G1 X49.530 Y50.030 E4.07360
G1 X50.280 Y49.760 E4.08113
G1 X50.800 Y49.630 E4.08620
G1 X51.330 Y49.540 E4.09128
G1 X51.860 Y49.500 E4.09630
G1 X118.130 Y49.500 E4.72237
G1 X118.660 Y49.540 E4.72739
G1 X119.450 Y49.690 E4.73499
G1 X119.960 Y49.840 E4.74001
G1 X120.700 Y50.140 E4.74755
G1 X121.180 Y50.380 E4.75262
G1 X121.410 Y50.520 E4.75517
G1 X121.850 Y50.830 E4.76025
G1 X122.260 Y51.160 E4.76522
G1 X122.460 Y51.340 E4.76776
G1 X122.830 Y51.730 E4.77284
G1 X123.160 Y52.140 E4.77782
G1 X123.470 Y52.580 E4.78290
G1 X123.610 Y52.810 E4.78544
G1 X123.960 Y53.530 E4.79301
G1 X124.230 Y54.280 E4.80054
G1 X124.410 Y55.070 E4.80819
G1 X124.450 Y55.330 E4.81068
G1 X124.490 Y55.860 E4.81570
G1 X124.490 Y80.990 E5.05311
G1 X124.420 Y81.960 E5.06230
G1 X124.330 Y82.550 E5.06793
G1 X124.170 Y83.180 E5.07407
G1 X123.950 Y83.790 E5.08020
G1 X123.640 Y84.470 E5.08726
G1 X123.400 Y84.890 E5.09183
G1 X123.140 Y85.290 E5.09634
G1 X122.710 Y85.850 E5.10301
G1 X122.350 Y86.250 E5.10809
G1 X121.910 Y86.660 E5.11377
G1 X85.910 Y118.660 E5.56881
G1 X85.530 Y118.970 E5.57345
G1 X85.120 Y119.260 E5.57819
G1 X84.470 Y119.650 E5.58535
G1 X84.170 Y119.800 E5.58852
G1 X83.220 Y120.160 E5.59812
G1 X82.590 Y120.320 E5.60426
G1 X81.870 Y120.440 E5.61116
G1 X80.990 Y120.490 E5.61948
G1 X53.000 Y120.490 E5.88391
G1 X52.120 Y120.440 E5.89224
G1 X51.400 Y120.320 E5.89913
G1 X50.770 Y120.160 E5.90527
G1 X49.820 Y119.800 E5.91487
G1 X49.520 Y119.650 E5.91804
G1 X48.840 Y119.240 E5.92554
G1 X48.180 Y118.750 E5.93331
G1 X47.840 Y118.430 E5.93772
G1 X47.130 Y117.670 E5.94754
G1 X46.840 Y117.290 E5.95206
G1 X46.670 Y117.030 E5.95500
G1 X46.360 Y116.510 E5.96071
G1 X46.100 Y115.960 E5.96646
G1 X45.920 Y115.480 E5.97130
G1 X45.730 Y114.870 E5.97734
G1 X45.660 Y114.550 E5.98044
G1 X45.570 Y113.960 E5.98607
G1 X45.500 Y112.990 E5.99526
G1 X45.500 Y55.860 E6.53498
G1 X45.540 Y55.330 E6.54000
G1 X45.630 Y54.800 E6.54508
G1 X45.760 Y54.280 E6.55015
G1 X46.030 Y53.530 E6.55768
G1 X46.380 Y52.810 E6.56524
G1 X46.520 Y52.580 E6.56778
G1 X46.990 Y51.930 E6.57536
G1 X47.496 Y51.374 E6.58247
G1 X47.530 Y51.340 E6.58292
G1 X47.660 Y51.660 F15000.000
G1 X48.250 Y51.140 F4800.000 E6.59035
G1 X48.670 Y50.840 E6.59522
G1 X49.120 Y50.570 E6.60018
G1 X49.830 Y50.240 E6.60758
G1 X50.080 Y50.150 E6.61009
G1 X50.580 Y50.010 E6.61499
G1 X51.090 Y49.900 E6.61992
G1 X51.610 Y49.830 E6.62488
G1 X52.130 Y49.810 E6.62980
G1 X117.860 Y49.810 E7.25076
G1 X118.380 Y49.830 E7.25568
G1 X119.160 Y49.950 E7.26314
G1 X119.910 Y50.150 E7.27047
G1 X120.400 Y50.340 E7.27543
G1 X120.870 Y50.570 E7.28038
G1 X121.090 Y50.700 E7.28279
G1 X121.320 Y50.840 E7.28534
G1 X121.740 Y51.140 E7.29021
G1 X122.140 Y51.480 E7.29517
G1 X122.510 Y51.850 E7.30011
G1 X122.850 Y52.250 E7.30507
G1 X123.150 Y52.670 E7.30995
G1 X123.420 Y53.120 E7.31491
G1 X123.540 Y53.360 E7.31744
G1 X123.650 Y53.590 E7.31985
G1 X123.840 Y54.080 E7.32482
G1 X124.040 Y54.830 E7.33215
G1 X124.160 Y55.610 E7.33960
G1 X124.180 Y56.130 E7.34452
G1 X124.180 Y80.990 E7.57938
G1 X124.110 Y81.920 E7.58819
G1 X124.020 Y82.490 E7.59364
G1 X123.870 Y83.090 E7.59948
G1 X123.660 Y83.670 E7.60531
G1 X123.460 Y84.120 E7.60996
G1 X123.250 Y84.530 E7.61432
G1 X123.010 Y84.910 E7.61856
G1 X122.630 Y85.450 E7.62480
G1 X122.300 Y85.840 E7.62963
G1 X121.700 Y86.420 E7.63751
G1 X85.700 Y118.420 E8.09255
G1 X85.330 Y118.720 E8.09705
G1 X84.950 Y118.990 E8.10145
G1 X84.320 Y119.370 E8.10841
G1 X84.030 Y119.510 E8.11145
G1 X83.440 Y119.750 E8.11746
G1 X82.960 Y119.900 E8.12222
G1 X82.520 Y120.010 E8.12650
G1 X82.290 Y120.060 E8.12872
G1 X81.840 Y120.120 E8.13301
G1 X80.990 Y120.180 E8.14106
G1 X53.000 Y120.180 E8.40549
G1 X52.150 Y120.120 E8.41354
G1 X51.700 Y120.060 E8.41783
G1 X51.470 Y120.010 E8.42005
G1 X51.030 Y119.900 E8.42434
G1 X50.550 Y119.750 E8.42909
G1 X49.960 Y119.510 E8.43511
G1 X49.670 Y119.370 E8.43815
G1 X49.020 Y118.980 E8.44531
G1 X48.590 Y118.670 E8.45032
G1 X48.190 Y118.330 E8.45528
G1 X48.050 Y118.200 E8.45708
G1 X47.380 Y117.470 E8.46644
G1 X46.870 Y116.760 E8.47470
G1 X46.540 Y116.150 E8.48125
G1 X46.400 Y115.840 E8.48447
G1 X46.120 Y115.090 E8.49203
G1 X45.970 Y114.490 E8.49787
G1 X45.880 Y113.920 E8.50333
G1 X45.810 Y112.990 E8.51214
G1 X45.810 Y56.130 E9.04931
G1 X45.830 Y55.610 E9.05422
G1 X45.900 Y55.090 E9.05918
G1 X46.010 Y54.580 E9.06411
G1 X46.150 Y54.080 E9.06901
G1 X46.240 Y53.830 E9.07152
G1 X46.570 Y53.120 E9.07892
G1 X46.840 Y52.670 E9.08388
G1 X47.140 Y52.250 E9.08876
G1 X47.627 Y51.695 E9.09574
G1 X47.660 Y51.660 E9.09619
G1 F1500.000 E7.59619
G92 E0
G1 X100.124 Y73.211 F15000.000
G1 F1500.000 E1.50000
G1 X100.411 Y72.924 F4800.000 E1.50383
G1 X100.725 Y72.670 E1.50765
G1 X101.065 Y72.449 E1.51148
G1 X101.426 Y72.265 E1.51531
G1 X101.804 Y72.120 E1.51913
G1 X102.196 Y72.015 E1.52297
G1 X102.595 Y71.952 E1.52678
G1 X103.000 Y71.930 E1.53061
G1 X103.405 Y71.952 E1.53444
G1 X103.804 Y72.015 E1.53827
G1 X104.196 Y72.120 E1.54210
G1 X104.574 Y72.265 E1.54592
G1 X104.935 Y72.449 E1.54975
G1 X105.275 Y72.670 E1.55358
G1 X105.589 Y72.924 E1.55740
G1 X105.876 Y73.211 E1.56123
G1 X106.130 Y73.525 E1.56505
G1 X106.351 Y73.865 E1.56888
G1 X106.535 Y74.226 E1.57270
G1 X106.664 Y74.561 E1.57610
G1 X106.785 Y74.996 E1.58036
G1 X106.848 Y75.395 E1.58418
G1 X106.870 Y75.800 E1.58801
G1 X106.848 Y76.205 E1.59184
G1 X106.785 Y76.604 E1.59566
G1 X106.680 Y76.996 E1.59949
G1 X106.535 Y77.374 E1.60332
G1 X106.351 Y77.735 E1.60715
G1 X106.130 Y78.075 E1.61097
G1 X105.876 Y78.389 E1.61480
G1 X105.589 Y78.676 E1.61863
G1 X105.275 Y78.930 E1.62245
G1 X104.935 Y79.151 E1.62628
G1 X104.574 Y79.335 E1.63010
G1 X104.196 Y79.480 E1.63392
G1 X103.760 Y79.592 E1.63818
G1 X103.405 Y79.648 E1.64158
G1 X103.000 Y79.670 E1.64541
G1 X102.596 Y79.648 E1.64923
G1 X102.196 Y79.585 E1.65306
G1 X101.804 Y79.480 E1.65689
G1 X101.426 Y79.335 E1.66072
G1 X101.065 Y79.151 E1.66454
G1 X100.725 Y78.930 E1.66837
G1 X100.411 Y78.676 E1.67219
G1 X100.124 Y78.389 E1.67602
G1 X99.870 Y78.075 E1.67984
G1 X99.649 Y77.735 E1.68367
G1 X99.465 Y77.374 E1.68750
G1 X99.320 Y76.996 E1.69132
G1 X99.215 Y76.604 E1.69515
G1 X99.152 Y76.205 E1.69898
G1 X99.130 Y75.800 E1.70280
G1 X99.152 Y75.395 E1.70663
G1 X99.215 Y74.996 E1.71046
G1 X99.320 Y74.604 E1.71429
G1 X99.465 Y74.226 E1.71811
G1 X99.649 Y73.865 E1.72194
G1 X99.870 Y73.525 E1.72577
G1 X100.094 Y73.248 E1.72914
G1 X100.124 Y73.211 E1.72959
G1 X100.360 Y73.424 F15000.000
G1 X100.623 Y73.161 F4800.000 E1.73310
G1 X100.912 Y72.927 E1.73661
G1 X101.224 Y72.724 E1.74012
G1 X101.555 Y72.555 E1.74364
G1 X101.902 Y72.422 E1.74715
G1 X102.262 Y72.326 E1.75066
G1 X102.628 Y72.268 E1.75417
G1 X103.000 Y72.248 E1.75768
G1 X103.371 Y72.268 E1.76120
G1 X103.738 Y72.326 E1.76471
G1 X104.098 Y72.422 E1.76823
G1 X104.445 Y72.555 E1.77174
G1 X104.776 Y72.724 E1.77525
G1 X105.088 Y72.927 E1.77876
G1 X105.376 Y73.160 E1.78227
G1 X105.639 Y73.423 E1.78578
G1 X105.873 Y73.712 E1.78929
G1 X106.076 Y74.024 E1.79281
G1 X106.245 Y74.355 E1.79632
G1 X106.367 Y74.675 E1.79955
G1 X106.474 Y75.062 E1.80334
G1 X106.532 Y75.429 E1.80685
G1 X106.552 Y75.800 E1.81037
G1 X106.532 Y76.171 E1.81388
G1 X106.474 Y76.538 E1.81739
G1 X106.378 Y76.898 E1.82090
G1 X106.245 Y77.245 E1.82442
G1 X106.076 Y77.576 E1.82793
G1 X105.873 Y77.888 E1.83144
G1 X105.639 Y78.177 E1.83495
G1 X105.376 Y78.440 E1.83847
G1 X105.088 Y78.673 E1.84198
G1 X104.776 Y78.876 E1.84549
G1 X104.445 Y79.045 E1.84900
G1 X104.098 Y79.178 E1.85251
G1 X103.710 Y79.279 E1.85630
G1 X103.371 Y79.332 E1.85954
G1 X103.000 Y79.352 E1.86305
G1 X102.629 Y79.332 E1.86656
G1 X102.262 Y79.274 E1.87007
G1 X101.902 Y79.178 E1.87359
G1 X101.555 Y79.045 E1.87710
G1 X101.224 Y78.876 E1.88061
G1 X100.912 Y78.673 E1.88412
G1 X100.623 Y78.439 E1.88764
G1 X100.360 Y78.176 E1.89115
G1 X100.127 Y77.888 E1.89466
G1 X99.924 Y77.576 E1.89817
G1 X99.755 Y77.245 E1.90168
G1 X99.622 Y76.898 E1.90519
G1 X99.526 Y76.538 E1.90871
G1 X99.468 Y76.171 E1.91222
G1 X99.448 Y75.800 E1.91573
G1 X99.468 Y75.429 E1.91925
G1 X99.526 Y75.062 E1.92276
G1 X99.622 Y74.702 E1.92627
G1 X99.755 Y74.355 E1.92978
G1 X99.924 Y74.024 E1.93330
G1 X100.127 Y73.712 E1.93681
G1 X100.330 Y73.461 E1.93987
G1 X100.360 Y73.424 E1.94032
G1 X100.597 Y73.636 F15000.000
G1 X100.836 Y73.397 F4800.000 E1.94351
G1 X101.099 Y73.184 E1.94671
G1 X101.383 Y72.999 E1.94991
G1 X101.685 Y72.846 E1.95311
G1 X102.001 Y72.724 E1.95631
G1 X102.328 Y72.637 E1.95951
G1 X102.662 Y72.584 E1.96270
G1 X103.000 Y72.566 E1.96590
G1 X103.338 Y72.584 E1.96910
G1 X103.672 Y72.637 E1.97230
G1 X104.000 Y72.724 E1.97550
G1 X104.315 Y72.846 E1.97869
G1 X104.617 Y72.999 E1.98189
G1 X104.901 Y73.184 E1.98509
G1 X105.164 Y73.397 E1.98828
G1 X105.403 Y73.636 E1.99148
G1 X105.616 Y73.899 E1.99468
G1 X105.801 Y74.183 E1.99788
G1 X105.954 Y74.485 E2.00108
G1 X106.071 Y74.789 E2.00415
G1 X106.163 Y75.128 E2.00747
G1 X106.216 Y75.462 E2.01067
G1 X106.234 Y75.800 E2.01387
G1 X106.216 Y76.138 E2.01707
G1 X106.163 Y76.472 E2.02026
G1 X106.076 Y76.799 E2.02346
G1 X105.954 Y77.115 E2.02666
G1 X105.801 Y77.417 E2.02986
G1 X105.616 Y77.701 E2.03306
G1 X105.403 Y77.964 E2.03625
G1 X105.164 Y78.203 E2.03945
G1 X104.901 Y78.416 E2.04265
G1 X104.617 Y78.601 E2.04585
G1 X104.315 Y78.754 E2.04905
G1 X104.000 Y78.876 E2.05224
G1 X103.660 Y78.965 E2.05556
G1 X103.338 Y79.016 E2.05864
G1 X103.000 Y79.034 E2.06184
G1 X102.662 Y79.016 E2.06503
G1 X102.328 Y78.963 E2.06823
G1 X102.001 Y78.876 E2.07143
G1 X101.685 Y78.754 E2.07463
G1 X101.383 Y78.601 E2.07783
G1 X101.099 Y78.416 E2.08102
G1 X100.836 Y78.203 E2.08422
G1 X100.597 Y77.964 E2.08742
G1 X100.384 Y77.701 E2.09062
G1 X100.199 Y77.417 E2.09382
G1 X100.046 Y77.115 E2.09701
G1 X99.924 Y76.800 E2.10021
G1 X99.837 Y76.472 E2.10341
G1 X99.784 Y76.138 E2.10661
G1 X99.766 Y75.800 E2.10981
G1 X99.784 Y75.462 E2.11300
G1 X99.837 Y75.128 E2.11620
G1 X99.924 Y74.800 E2.11940
G1 X100.046 Y74.485 E2.12260
G1 X100.199 Y74.183 E2.12580
G1 X100.384 Y73.899 E2.12899
G1 X100.567 Y73.673 E2.13174
G1 X100.597 Y73.636 E2.13219
G1 F1500.000 E0.63219
G92 E0
G1 X101.456 Y66.689 F15000.000
G1 F1500.000 E1.50000
G1 X103.000 Y66.770 F4800.000 E1.51461
G1 X104.544 Y66.689 E1.52921
G1 X106.071 Y66.447 E1.54382
G1 X107.564 Y66.047 E1.55842
G1 X109.007 Y65.493 E1.57303
G1 X110.385 Y64.791 E1.58763
G1 X111.681 Y63.949 E1.60224
G1 X112.883 Y62.976 E1.61684
G1 X113.976 Y61.883 E1.63145
G1 X114.949 Y60.681 E1.64605
G1 X115.791 Y59.385 E1.66066
G1 X116.493 Y58.007 E1.67526
G1 X117.231 Y56.083 E1.69474
G1 X117.231 Y80.980 E1.92994
G1 X117.219 Y81.071 E1.93081
G1 X117.171 Y81.154 E1.93172
G1 X117.093 Y81.211 E1.93263
G1 X116.980 Y81.231 E1.93372
G1 X88.976 Y81.229 E2.19828
G1 X88.885 Y81.199 E2.19918
G1 X88.829 Y81.154 E2.19987
G1 X88.781 Y81.071 E2.20077
G1 X88.769 Y80.980 E2.20164
G1 X88.769 Y56.083 E2.43685
G1 X89.507 Y58.007 E2.45632
G1 X90.209 Y59.385 E2.47093
G1 X91.051 Y60.681 E2.48553
G1 X91.982 Y61.831 E2.49951
G1 X93.117 Y62.976 E2.51474
G1 X94.319 Y63.949 E2.52935
G1 X95.615 Y64.791 E2.54395
G1 X96.993 Y65.493 E2.55856
G1 X98.436 Y66.047 E2.57316
G1 X99.929 Y66.447 E2.58777
G1 X101.409 Y66.681 E2.60192
G1 X101.456 Y66.689 E2.60237
G1 X101.489 Y66.373 F15000.000
G1 X103.000 Y66.452 F4800.000 E2.61666
G1 X104.511 Y66.373 E2.63095
G1 X106.005 Y66.136 E2.64524
G1 X107.466 Y65.744 E2.65953
G1 X108.878 Y65.202 E2.67383
G1 X110.226 Y64.516 E2.68812
G1 X111.495 Y63.692 E2.70241
G1 X112.670 Y62.740 E2.71670
G1 X113.740 Y61.670 E2.73099
G1 X114.692 Y60.495 E2.74528
G1 X115.516 Y59.226 E2.75957
G1 X116.202 Y57.878 E2.77386
G1 X116.750 Y56.451 E2.78830
G1 X117.549 Y56.451 E2.79585
G1 X117.549 Y80.988 E3.02765
G1 X117.521 Y81.169 E3.02939
G1 X117.407 Y81.367 E3.03154
G1 X117.223 Y81.501 E3.03369
G1 X117.114 Y81.536 E3.03477
G1 X116.988 Y81.549 E3.03597
G1 X88.943 Y81.545 E3.30092
G1 X88.726 Y81.475 E3.30308
G1 X88.593 Y81.367 E3.30470
G1 X88.479 Y81.169 E3.30685
G1 X88.451 Y80.988 E3.30858
G1 X88.451 Y56.451 E3.54039
G1 X89.250 Y56.451 E3.54794
G1 X89.798 Y57.878 E3.56238
G1 X90.484 Y59.226 E3.57667
G1 X91.308 Y60.495 E3.59096
G1 X92.260 Y61.670 E3.60525
G1 X93.330 Y62.740 E3.61954
G1 X94.505 Y63.692 E3.63383
G1 X95.774 Y64.516 E3.64812
G1 X97.122 Y65.202 E3.66241
G1 X98.534 Y65.744 E3.67670
G1 X99.995 Y66.136 E3.69099
G1 X101.442 Y66.365 E3.70483
G1 X101.489 Y66.373 E3.70528
G1 X101.523 Y66.056 F15000.000
G1 X103.000 Y66.134 F4800.000 E3.71926
G1 X104.477 Y66.056 E3.73324
G1 X105.939 Y65.825 E3.74721
G1 X107.368 Y65.442 E3.76119
G1 X108.749 Y64.912 E3.77517
