; generated by Slic3r 0.9.7 on 2013-12-28 at 01:50:15

; layer_height = 0.25
; perimeters = 3
; top_solid_layers = 3
; bottom_solid_layers = 3
; fill_density = 0.3
; perimeter_speed = 80
; infill_speed = 80
; travel_speed = 250
; scale = 1
; nozzle_diameter = 0.5
; filament_diameter = 2.89
; extrusion_multiplier = 0.781
; perimeters extrusion width = 0.40mm
; infill extrusion width = 0.25mm
; first layer extrusion width = 0.27mm

M107
M190 S70 ; wait for bed temperature to be reached
M104 S235 ; set temperature
G28 ; home all axes
M109 S235 ; wait for temperature to be reached
G90 ; use absolute coordinates
G21 ; set units to millimeters
G92 E0
M82 ; use absolute distances for extrusion
G1 F1500.000 E-1.50000
G92 E0
G1 Z0.250 F15000.000
G1 X64.791 Y59.033
G1 F1500.000 E1.50000
G1 X65.401 Y58.463 F4800.000 E1.50789
G1 X66.081 Y57.973 E1.51581
G1 X66.571 Y57.693 E1.52114
G1 X67.071 Y57.453 E1.52638
G1 X67.871 Y57.173 E1.53438
G1 X68.141 Y57.103 E1.53702
G1 X68.681 Y56.993 E1.54223
G1 X69.521 Y56.903 E1.55021
G1 X100.461 Y56.903 E1.84250
G1 X101.291 Y56.993 E1.85039
G1 X102.111 Y57.173 E1.85832
G1 X102.901 Y57.453 E1.86624
G1 X103.411 Y57.693 E1.87157
G1 X103.891 Y57.973 E1.87682
G1 X104.581 Y58.463 E1.88481
G1 X105.191 Y59.033 E1.89270
G1 X105.741 Y59.673 E1.90067
G1 X105.901 Y59.903 E1.90332
G1 X106.201 Y60.373 E1.90858
G1 X115.331 Y76.173 E2.08098
G1 X115.671 Y76.793 E2.08766
G1 X115.791 Y77.053 E2.09037
G1 X116.081 Y77.843 E2.09832
G1 X116.271 Y78.673 E2.10636
G1 X116.361 Y79.513 E2.11434
G1 X116.361 Y80.073 E2.11963
G1 X116.281 Y80.923 E2.12770
G1 X116.231 Y81.193 E2.13029
G1 X116.011 Y82.013 E2.13831
G1 X115.811 Y82.543 E2.14366
G1 X115.571 Y83.053 E2.14899
G1 X115.431 Y83.303 E2.15170
G1 X100.241 Y109.623 E2.43879
G1 X99.941 Y110.093 E2.44405
G1 X99.611 Y110.543 E2.44933
G1 X99.041 Y111.153 E2.45721
G1 X98.401 Y111.703 E2.46518
G1 X97.941 Y112.023 E2.47048
G1 X97.451 Y112.303 E2.47581
G1 X96.951 Y112.543 E2.48105
G1 X96.151 Y112.823 E2.48906
G1 X95.341 Y113.003 E2.49690
G1 X94.781 Y113.073 E2.50223
G1 X94.501 Y113.093 E2.50488
G1 X75.491 Y113.093 E2.68447
G1 X74.651 Y113.003 E2.69245
G1 X73.841 Y112.823 E2.70029
G1 X73.041 Y112.543 E2.70830
G1 X72.541 Y112.303 E2.71354
G1 X72.051 Y112.023 E2.71887
G1 X71.591 Y111.703 E2.72416
G1 X71.161 Y111.343 E2.72946
G1 X70.761 Y110.963 E2.73467
G1 X70.381 Y110.543 E2.74003
G1 X70.051 Y110.093 E2.74530
G1 X69.751 Y109.623 E2.75057
G1 X54.421 Y83.053 E3.04036
G1 X54.181 Y82.543 E3.04569
G1 X53.901 Y81.753 E3.05361
G1 X53.771 Y81.213 E3.05885
G1 X53.651 Y80.383 E3.06678
G1 X53.631 Y80.103 E3.06943
G1 X53.631 Y79.543 E3.07472
G1 X53.681 Y78.983 E3.08003
G1 X53.771 Y78.433 E3.08529
G1 X53.901 Y77.893 E3.09054
G1 X54.081 Y77.353 E3.09592
G1 X54.181 Y77.093 E3.09855
G1 X54.421 Y76.593 E3.10379
G1 X63.921 Y60.133 E3.28333
G1 X64.411 Y59.453 E3.29125
G1 X64.759 Y59.068 E3.29615
G1 X64.791 Y59.033 E3.29660
G1 X65.061 Y59.213 F15000.000
G1 X65.461 Y58.833 F4800.000 E3.30181
G1 X65.901 Y58.483 E3.30713
G1 X66.361 Y58.173 E3.31237
G1 X67.101 Y57.793 E3.32023
G1 X67.621 Y57.583 E3.32552
G1 X68.151 Y57.423 E3.33075
G1 X68.691 Y57.313 E3.33596
G1 X69.521 Y57.223 E3.34385
G1 X100.461 Y57.223 E3.63615
G1 X101.291 Y57.313 E3.64403
G1 X101.831 Y57.423 E3.64924
G1 X102.101 Y57.503 E3.65190
G1 X102.361 Y57.583 E3.65447
G1 X102.881 Y57.793 E3.65977
G1 X103.621 Y58.173 E3.66763
G1 X104.081 Y58.483 E3.67287
G1 X104.721 Y59.013 E3.68072
G1 X105.111 Y59.413 E3.68599
G1 X105.631 Y60.063 E3.69386
G1 X105.921 Y60.533 E3.69908
G1 X115.261 Y76.693 E3.87541
G1 X115.601 Y77.423 E3.88302
G1 X115.691 Y77.683 E3.88562
G1 X115.841 Y78.193 E3.89064
G1 X115.951 Y78.723 E3.89575
G1 X116.041 Y79.523 E3.90336
G1 X116.041 Y80.063 E3.90846
G1 X116.001 Y80.603 E3.91357
G1 X115.861 Y81.393 E3.92115
G1 X115.711 Y81.913 E3.92627
G1 X115.411 Y82.663 E3.93390
G1 X115.161 Y83.143 E3.93901
G1 X99.971 Y109.463 E4.22610
G1 X99.511 Y110.153 E4.23394
G1 X99.151 Y110.583 E4.23923
G1 X98.761 Y110.983 E4.24451
G1 X98.121 Y111.513 E4.25236
G1 X97.661 Y111.813 E4.25755
G1 X97.171 Y112.083 E4.26284
G1 X96.401 Y112.413 E4.27075
G1 X95.871 Y112.573 E4.27598
G1 X95.331 Y112.683 E4.28119
G1 X94.781 Y112.753 E4.28642
G1 X94.501 Y112.773 E4.28908
G1 X75.491 Y112.773 E4.46867
G1 X74.661 Y112.683 E4.47656
G1 X74.121 Y112.573 E4.48176
G1 X73.591 Y112.413 E4.48699
G1 X73.331 Y112.313 E4.48962
G1 X72.571 Y111.953 E4.49757
G1 X72.101 Y111.673 E4.50274
G1 X71.431 Y111.163 E4.51069
G1 X70.841 Y110.583 E4.51851
G1 X70.321 Y109.933 E4.52637
G1 X70.021 Y109.463 E4.53164
G1 X54.831 Y83.143 E4.81873
G1 X54.461 Y82.393 E4.82663
G1 X54.271 Y81.873 E4.83186
G1 X54.061 Y81.063 E4.83977
G1 X53.981 Y80.513 E4.84502
G1 X53.951 Y79.963 E4.85022
G1 X53.961 Y79.403 E4.85551
G1 X53.981 Y79.133 E4.85807
G1 X54.061 Y78.583 E4.86332
G1 X54.191 Y78.043 E4.86857
G1 X54.361 Y77.513 E4.87383
G1 X54.461 Y77.253 E4.87646
G1 X54.701 Y76.753 E4.88170
G1 X64.051 Y60.533 E5.05857
G1 X64.351 Y60.063 E5.06384
G1 X64.691 Y59.623 E5.06909
G1 X65.029 Y59.248 E5.07386
G1 X65.061 Y59.213 E5.07431
G1 X65.291 Y59.433 F15000.000
G1 X65.671 Y59.073 F4800.000 E5.07925
G1 X66.091 Y58.743 E5.08430
G1 X66.301 Y58.593 E5.08674
G1 X66.991 Y58.193 E5.09427
G1 X67.721 Y57.883 E5.10176
G1 X67.971 Y57.803 E5.10424
G1 X68.491 Y57.673 E5.10931
G1 X69.271 Y57.553 E5.11676
G1 X69.801 Y57.533 E5.12177
G1 X100.181 Y57.533 E5.40878
G1 X100.711 Y57.553 E5.41379
G1 X100.971 Y57.583 E5.41626
G1 X101.751 Y57.733 E5.42377
G1 X102.261 Y57.883 E5.42879
G1 X102.751 Y58.083 E5.43379
G1 X103.221 Y58.313 E5.43873
G1 X103.891 Y58.743 E5.44625
G1 X104.501 Y59.243 E5.45371
G1 X105.051 Y59.823 E5.46126
G1 X105.371 Y60.243 E5.46624
G1 X105.651 Y60.693 E5.47125
G1 X114.991 Y76.853 E5.64758
G1 X115.221 Y77.333 E5.65261
G1 X115.411 Y77.833 E5.65767
G1 X115.611 Y78.603 E5.66518
G1 X115.691 Y79.133 E5.67025
G1 X115.731 Y79.663 E5.67527
G1 X115.721 Y80.193 E5.68027
G1 X115.661 Y80.723 E5.68531
G1 X115.621 Y80.993 E5.68789
G1 X115.501 Y81.513 E5.69293
G1 X115.421 Y81.763 E5.69541
G1 X115.131 Y82.513 E5.70301
G1 X114.881 Y82.983 E5.70804
G1 X99.691 Y109.303 E5.99513
G1 X99.411 Y109.743 E6.00006
G1 X98.921 Y110.373 E6.00760
G1 X98.351 Y110.923 E6.01508
G1 X97.931 Y111.253 E6.02013
G1 X97.721 Y111.403 E6.02256
G1 X97.031 Y111.803 E6.03010
G1 X96.301 Y112.113 E6.03759
G1 X96.051 Y112.193 E6.04007
G1 X95.531 Y112.323 E6.04514
G1 X94.751 Y112.443 E6.05259
G1 X94.221 Y112.463 E6.05760
G1 X75.771 Y112.463 E6.23190
G1 X75.241 Y112.443 E6.23691
G1 X74.981 Y112.413 E6.23939
G1 X74.201 Y112.263 E6.24689
G1 X73.691 Y112.113 E6.25191
G1 X73.201 Y111.913 E6.25691
G1 X72.731 Y111.683 E6.26186
G1 X72.271 Y111.403 E6.26694
G1 X72.061 Y111.253 E6.26938
G1 X71.441 Y110.743 E6.27697
G1 X71.071 Y110.373 E6.28191
G1 X70.581 Y109.743 E6.28945
G1 X70.301 Y109.303 E6.29438
G1 X54.981 Y82.753 E6.58396
G1 X54.861 Y82.513 E6.58650
G1 X54.571 Y81.773 E6.59401
G1 X54.371 Y81.003 E6.60152
G1 X54.301 Y80.483 E6.60648
G1 X54.261 Y79.953 E6.61150
G1 X54.261 Y79.693 E6.61396
G1 X54.301 Y79.163 E6.61898
G1 X54.371 Y78.643 E6.62393
G1 X54.571 Y77.873 E6.63145
G1 X54.861 Y77.133 E6.63896
G1 X54.981 Y76.893 E6.64149
G1 X64.331 Y60.693 E6.81820
G1 X64.611 Y60.243 E6.82321
G1 X64.931 Y59.823 E6.82820
G1 X65.259 Y59.468 E6.83276
G1 X65.291 Y59.433 E6.83321
G1 F1500.000 E5.33321
G92 E0
G1 X72.069 Y64.772 F15000.000
G1 F1500.000 E1.50000
G1 X97.931 Y64.772 F4800.000 E1.74432
G1 X107.264 Y80.938 E1.92067
G1 X107.491 Y81.331 E1.92496
G1 X94.560 Y103.728 E2.16929
G1 X75.440 Y103.728 E2.34993
G1 X62.509 Y81.331 E2.59425
G1 X72.045 Y64.813 E2.77444
G1 X72.069 Y64.772 E2.77489
G1 X72.252 Y65.089 F15000.000
G1 X97.748 Y65.089 F4800.000 E3.01575
G1 X106.989 Y81.096 E3.19037
G1 X107.125 Y81.331 E3.19293
G1 X94.377 Y103.411 E3.43379
G1 X75.623 Y103.411 E3.61097
G1 X62.875 Y81.331 E3.85183
G1 X72.228 Y65.130 E4.02856
G1 X72.252 Y65.089 E4.02901
G1 X72.527 Y64.931 F15000.000
G1 F1500.000 E2.52901
G92 E0
G1 X75.299 Y104.046 F15000.000
G1 F1500.000 E1.50000
G1 X94.701 Y104.046 F4800.000 E1.68329
G1 X93.856 Y105.508 E1.69925
G1 X76.144 Y105.508 E1.86659
G1 X75.323 Y104.087 E1.88210
G1 X75.299 Y104.046 E1.88255
G1 F1500.000 E0.38255
G92 E0
G1 X62.163 Y81.294 F15000.000
G1 F1500.000 E1.50000
G1 X61.319 Y79.831 F4800.000 E1.51596
G1 X70.175 Y64.492 E1.68329
G1 X71.864 Y64.492 E1.69925
G1 X62.187 Y81.253 E1.88210
G1 X62.163 Y81.294 E1.88255
G1 F1500.000 E0.38255
G92 E0
G1 X98.136 Y64.492 F15000.000
G1 F1500.000 E1.50000
G1 X99.825 Y64.492 F4800.000 E1.51596
G1 X108.681 Y79.831 E1.68329
G1 X107.837 Y81.294 E1.69925
G1 X98.159 Y64.533 E1.88210
G1 X98.136 Y64.492 E1.88255
G1 X100.008 Y64.174 F15000.000
G1 X109.048 Y79.831 F4800.000 E2.05334
G1 X94.040 Y105.826 E2.33691
G1 X75.960 Y105.826 E2.50771
G1 X60.952 Y79.831 E2.79128
G1 X69.992 Y64.174 E2.96208
G1 X99.961 Y64.174 E3.24520
G1 X100.008 Y64.174 E3.24565
G1 X100.279 Y64.009 F15000.000
G1 X109.414 Y79.831 F4800.000 E3.41825
G1 X94.223 Y106.143 E3.70528
G1 X75.777 Y106.143 E3.87954
G1 X60.586 Y79.831 E4.16657
G1 X69.809 Y63.857 E4.34083
G1 X100.191 Y63.857 E4.62787
G1 X100.256 Y63.968 E4.62908
G1 X100.279 Y64.009 E4.62953
G1 X100.279 Y64.331 F15000.000
G1 F1500.000 E3.12953
G92 E0
G1 X76.428 Y105.292 F15000.000
G1 F1500.000 E1.50000
G1 X76.226 Y105.090 F4800.000 E1.50274
G1 X76.883 Y105.292 E1.50933
G1 X75.853 Y104.262 E1.52328
G1 X76.308 Y104.262 E1.52763
G1 X77.338 Y105.292 E1.54158
G1 X77.793 Y105.292 E1.54594
G1 X76.763 Y104.262 E1.55989
G1 X77.217 Y104.262 E1.56425
G1 X78.248 Y105.292 E1.57820
G1 X78.703 Y105.292 E1.58256
G1 X77.672 Y104.262 E1.59651
G1 X78.127 Y104.262 E1.60086
G1 X79.158 Y105.292 E1.61482
G1 X79.613 Y105.292 E1.61917
G1 X78.582 Y104.262 E1.63313
G1 X79.037 Y104.262 E1.63748
G1 X80.068 Y105.292 E1.65143
G1 X80.523 Y105.292 E1.65579
G1 X79.492 Y104.262 E1.66974
G1 X79.947 Y104.262 E1.67410
G1 X80.977 Y105.292 E1.68805
G1 X81.432 Y105.292 E1.69241
G1 X80.402 Y104.262 E1.70636
G1 X80.857 Y104.262 E1.71071
G1 X81.887 Y105.292 E1.72467
G1 X82.342 Y105.292 E1.72902
G1 X81.312 Y104.262 E1.74297
G1 X81.767 Y104.262 E1.74733
G1 X82.797 Y105.292 E1.76128
G1 X83.252 Y105.292 E1.76564
G1 X82.222 Y104.262 E1.77959
G1 X82.677 Y104.262 E1.78395
G1 X83.707 Y105.292 E1.79790
G1 X84.162 Y105.292 E1.80226
G1 X83.132 Y104.262 E1.81621
G1 X83.587 Y104.262 E1.82056
G1 X84.617 Y105.292 E1.83452
G1 X85.072 Y105.292 E1.83887
G1 X84.042 Y104.262 E1.85282
G1 X84.496 Y104.262 E1.85718
G1 X85.527 Y105.292 E1.87113
G1 X85.982 Y105.292 E1.87549
G1 X84.951 Y104.262 E1.88944
G1 X85.406 Y104.262 E1.89379
G1 X86.437 Y105.292 E1.90775
G1 X86.892 Y105.292 E1.91210
G1 X85.861 Y104.262 E1.92605
G1 X86.316 Y104.262 E1.93041
G1 X87.347 Y105.292 E1.94436
G1 X87.801 Y105.292 E1.94872
G1 X86.771 Y104.262 E1.96267
G1 X87.226 Y104.262 E1.96703
G1 X88.256 Y105.292 E1.98098
G1 X88.711 Y105.292 E1.98534
G1 X87.681 Y104.262 E1.99929
G1 X88.136 Y104.262 E2.00364
G1 X89.166 Y105.292 E2.01760
G1 X89.621 Y105.292 E2.02195
G1 X88.591 Y104.262 E2.03590
G1 X89.046 Y104.262 E2.04026
G1 X90.076 Y105.292 E2.05421
G1 X90.531 Y105.292 E2.05857
G1 X89.501 Y104.262 E2.07252
G1 X89.956 Y104.262 E2.07688
G1 X90.986 Y105.292 E2.09083
G1 X91.441 Y105.292 E2.09518
G1 X90.411 Y104.262 E2.10914
G1 X90.866 Y104.262 E2.11349
G1 X91.896 Y105.292 E2.12744
G1 X92.351 Y105.292 E2.13180
G1 X91.320 Y104.262 E2.14575
G1 X91.775 Y104.262 E2.15011
G1 X92.806 Y105.292 E2.16406
G1 X93.261 Y105.292 E2.16842
G1 X92.230 Y104.262 E2.18237
G1 X92.685 Y104.262 E2.18672
G1 X93.716 Y105.292 E2.20068
G1 X93.919 Y105.041 E2.20377
G1 X93.140 Y104.262 E2.21432
G1 X93.595 Y104.262 E2.21868
G1 X94.086 Y104.752 E2.22532
G1 X94.252 Y104.464 E2.22851
G1 X94.050 Y104.262 E2.23124
G1 F1500.000 E0.73124
G92 E0
G1 X75.203 Y103.854 F15000.000
G1 F1500.000 E1.50000
G1 X62.224 Y81.498 F4800.000 E1.75513
G1 F1500.000 E0.25513
G92 E0
G1 X94.985 Y103.854 F15000.000
G1 F1500.000 E1.50000
G1 X94.783 Y103.652 F4800.000 E1.50273
G1 X94.949 Y103.364 E1.50590
G1 X95.160 Y103.576 E1.50876
G1 X95.326 Y103.288 E1.51193
G1 X95.115 Y103.077 E1.51479
G1 X95.281 Y102.789 E1.51797
G1 X95.493 Y103.000 E1.52082
G1 X95.659 Y102.713 E1.52400
G1 X95.447 Y102.501 E1.52685
G1 X95.613 Y102.213 E1.53003
G1 X95.825 Y102.425 E1.53289
G1 X95.991 Y102.137 E1.53606
G1 X95.779 Y101.926 E1.53892
G1 X95.946 Y101.638 E1.54209
G1 X96.157 Y101.849 E1.54495
G1 X96.323 Y101.562 E1.54812
G1 X96.112 Y101.350 E1.55098
G1 X96.278 Y101.063 E1.55415
G1 X96.489 Y101.274 E1.55701
G1 X96.655 Y100.986 E1.56018
G1 X96.444 Y100.775 E1.56304
G1 X96.610 Y100.487 E1.56621
G1 X96.821 Y100.699 E1.56907
G1 X96.988 Y100.411 E1.57224
G1 X96.776 Y100.199 E1.57510
G1 X96.942 Y99.912 E1.57827
G1 X97.154 Y100.123 E1.58113
G1 X97.320 Y99.835 E1.58431
G1 X97.108 Y99.624 E1.58716
G1 X97.274 Y99.336 E1.59034
G1 X97.486 Y99.548 E1.59319
G1 X97.652 Y99.260 E1.59637
G1 X97.441 Y99.048 E1.59922
G1 X97.607 Y98.761 E1.60240
G1 X97.818 Y98.972 E1.60525
G1 X97.984 Y98.685 E1.60843
G1 X97.773 Y98.473 E1.61129
G1 X97.939 Y98.185 E1.61446
G1 X98.150 Y98.397 E1.61732
G1 X98.317 Y98.109 E1.62049
G1 X98.105 Y97.898 E1.62335
G1 X98.271 Y97.610 E1.62652
G1 X98.483 Y97.821 E1.62938
G1 X98.649 Y97.534 E1.63255
G1 X98.437 Y97.322 E1.63541
G1 X98.603 Y97.034 E1.63858
G1 X98.815 Y97.246 E1.64144
G1 X98.981 Y96.958 E1.64461
G1 X98.769 Y96.747 E1.64747
G1 X98.936 Y96.459 E1.65064
G1 X99.147 Y96.670 E1.65350
G1 X99.313 Y96.383 E1.65667
G1 X99.102 Y96.171 E1.65953
G1 X99.268 Y95.884 E1.66271
G1 X99.479 Y96.095 E1.66556
G1 X99.646 Y95.807 E1.66874
G1 X99.434 Y95.596 E1.67159
G1 X99.600 Y95.308 E1.67477
G1 X99.812 Y95.520 E1.67763
G1 X99.978 Y95.232 E1.68080
G1 X99.766 Y95.020 E1.68366
G1 X99.932 Y94.733 E1.68683
G1 X100.144 Y94.944 E1.68969
G1 X100.310 Y94.656 E1.69286
G1 X100.098 Y94.445 E1.69572
G1 X100.265 Y94.157 E1.69889
G1 X100.476 Y94.369 E1.70175
G1 X100.642 Y94.081 E1.70492
G1 X100.431 Y93.870 E1.70778
G1 X100.597 Y93.582 E1.71095
G1 X100.808 Y93.793 E1.71381
G1 X100.974 Y93.506 E1.71698
G1 X100.763 Y93.294 E1.71984
G1 X100.929 Y93.006 E1.72302
G1 X101.141 Y93.218 E1.72587
G1 X101.307 Y92.930 E1.72905
G1 X101.095 Y92.719 E1.73190
G1 X101.261 Y92.431 E1.73508
G1 X101.473 Y92.642 E1.73793
G1 X101.639 Y92.355 E1.74111
G1 X101.427 Y92.143 E1.74397
G1 X101.593 Y91.855 E1.74714
G1 X101.805 Y92.067 E1.75000
G1 X101.971 Y91.779 E1.75317
G1 X101.760 Y91.568 E1.75603
G1 X101.926 Y91.280 E1.75920
G1 X102.137 Y91.492 E1.76206
G1 X102.303 Y91.204 E1.76523
G1 X102.092 Y90.992 E1.76809
G1 X102.258 Y90.704 E1.77126
G1 X102.469 Y90.916 E1.77412
G1 X102.636 Y90.628 E1.77729
G1 X102.424 Y90.417 E1.78015
G1 X102.590 Y90.129 E1.78332
G1 X102.802 Y90.341 E1.78618
G1 X102.968 Y90.053 E1.78935
G1 X102.756 Y89.841 E1.79221
G1 X102.922 Y89.554 E1.79539
G1 X103.134 Y89.765 E1.79824
G1 X103.300 Y89.477 E1.80142
G1 X103.089 Y89.266 E1.80427
G1 X103.255 Y88.978 E1.80745
G1 X103.466 Y89.190 E1.81030
G1 X103.632 Y88.902 E1.81348
G1 X103.421 Y88.690 E1.81634
G1 X103.587 Y88.403 E1.81951
G1 X103.798 Y88.614 E1.82237
G1 X103.965 Y88.327 E1.82554
G1 X103.753 Y88.115 E1.82840
G1 X103.919 Y87.827 E1.83157
G1 X104.131 Y88.039 E1.83443
G1 X104.297 Y87.751 E1.83760
G1 X104.085 Y87.540 E1.84046
G1 X104.251 Y87.252 E1.84363
G1 X104.463 Y87.463 E1.84649
G1 X104.629 Y87.176 E1.84966
G1 X104.417 Y86.964 E1.85252
G1 X104.584 Y86.676 E1.85569
G1 X104.795 Y86.888 E1.85855
G1 X104.961 Y86.600 E1.86173
G1 X104.750 Y86.389 E1.86458
G1 X104.916 Y86.101 E1.86776
G1 X105.127 Y86.312 E1.87061
G1 X105.293 Y86.025 E1.87379
G1 X105.082 Y85.813 E1.87665
G1 X105.248 Y85.526 E1.87982
