; generated by Slic3r 0.9.8 on 2013-09-08 at 20:27:34

; layer_height = 0.25
; perimeters = 3
; top_solid_layers = 3
; bottom_solid_layers = 3
; fill_density = 0.3
; perimeter_speed = 60
; infill_speed = 60
; travel_speed = 120
; scale = 1
; nozzle_diameter = 0.5
; filament_diameter = 2.9
; extrusion_multiplier = 0.81
; perimeters extrusion width = 0.40mm
; infill extrusion width = 0.25mm
; first layer extrusion width = 0.25mm

M107
M190 S70 ; wait for bed temperature to be reached
M104 S225 ; set temperature
G28 ; home all axes
M109 S225 ; wait for temperature to be reached
G90 ; use absolute coordinates
G21 ; set units to millimeters
G92 E0
M82 ; use absolute distances for extrusion
G1 F1800.000 E-1.00000
G92 E0
G1 Z0.250 F7200.000
G1 X98.230 Y98.110
G1 F1800.000 E1.00000
G1 X98.190 Y98.400 F1800.000 E1.00273
G1 X98.070 Y98.960 E1.00806
G1 X97.910 Y99.500 E1.01330
G1 X97.700 Y100.040 E1.01869
G1 X97.450 Y100.550 E1.02398
G1 X97.160 Y101.040 E1.02928
G1 X96.640 Y101.730 E1.03732
G1 X96.260 Y102.150 E1.04260
G1 X93.800 Y104.610 E1.07498
G1 X93.380 Y104.990 E1.08026
G1 X92.930 Y105.340 E1.08556
G1 X92.450 Y105.660 E1.09093
G1 X91.950 Y105.930 E1.09622
G1 X91.150 Y106.260 E1.10428
G1 X90.610 Y106.420 E1.10952
G1 X90.050 Y106.540 E1.11485
G1 X89.200 Y106.630 E1.12281
G1 X73.540 Y106.630 E1.26859
G1 X72.960 Y106.610 E1.27400
G1 X72.670 Y106.580 E1.27671
G1 X72.090 Y106.480 E1.28219
G1 X71.250 Y106.240 E1.29032
G1 X70.710 Y106.030 E1.29572
G1 X70.190 Y105.770 E1.30113
G1 X69.690 Y105.460 E1.30660
G1 X55.320 Y94.930 E1.47245
G1 X54.770 Y94.500 E1.47895
G1 X53.940 Y93.690 E1.48974
G1 X53.750 Y93.470 E1.49245
G1 X53.160 Y92.680 E1.50163
G1 X52.860 Y92.200 E1.50690
G1 X52.490 Y91.480 E1.51443
G1 X52.280 Y90.950 E1.51974
G1 X52.010 Y90.100 E1.52804
G1 X51.880 Y89.580 E1.53303
G1 X51.790 Y89.090 E1.53767
G1 X51.720 Y88.300 E1.54506
G1 X51.710 Y52.150 E1.88158
G1 X51.720 Y51.690 E1.88587
G1 X51.790 Y50.900 E1.89325
G1 X51.880 Y50.410 E1.89789
G1 X52.010 Y49.890 E1.90288
G1 X52.280 Y49.040 E1.91118
G1 X52.600 Y48.270 E1.91894
G1 X52.860 Y47.790 E1.92402
G1 X53.160 Y47.310 E1.92929
G1 X53.750 Y46.520 E1.93847
G1 X53.940 Y46.300 E1.94118
G1 X54.650 Y45.590 E1.95053
G1 X54.870 Y45.400 E1.95323
G1 X55.660 Y44.810 E1.96241
G1 X56.140 Y44.510 E1.96768
G1 X56.860 Y44.140 E1.97522
G1 X57.390 Y43.930 E1.98052
G1 X58.240 Y43.660 E1.98883
G1 X59.010 Y43.480 E1.99619
G1 X59.740 Y43.390 E2.00303
G1 X60.500 Y43.360 E2.01011
G1 X89.200 Y43.360 E2.27729
G1 X89.760 Y43.410 E2.28252
G1 X90.050 Y43.450 E2.28525
G1 X90.610 Y43.570 E2.29058
G1 X91.150 Y43.730 E2.29582
G1 X91.950 Y44.060 E2.30388
G1 X92.690 Y44.480 E2.31180
G1 X93.380 Y45.000 E2.31984
G1 X93.800 Y45.380 E2.32512
G1 X96.260 Y47.840 E2.35750
G1 X96.640 Y48.260 E2.36277
G1 X97.160 Y48.950 E2.37082
G1 X97.450 Y49.440 E2.37612
G1 X97.700 Y49.950 E2.38141
G1 X97.910 Y50.490 E2.38680
G1 X98.070 Y51.030 E2.39204
G1 X98.190 Y51.590 E2.39737
G1 X98.280 Y52.440 E2.40533
G1 X98.280 Y97.550 E2.82527
G1 X98.235 Y98.065 E2.83008
G1 X98.230 Y98.110 E2.83050
G1 X97.930 Y98.080 F7200.000
G1 X97.840 Y98.620 F1800.000 E2.83560
G1 X97.700 Y99.150 E2.84070
G1 X97.530 Y99.660 E2.84571
G1 X97.310 Y100.160 E2.85079
G1 X97.050 Y100.640 E2.85587
G1 X96.750 Y101.100 E2.86099
G1 X96.230 Y101.740 E2.86866
G1 X93.390 Y104.580 E2.90605
G1 X93.180 Y104.760 E2.90863
G1 X92.750 Y105.100 E2.91373
G1 X92.290 Y105.400 E2.91884
G1 X91.810 Y105.660 E2.92393
G1 X91.060 Y105.970 E2.93148
G1 X90.530 Y106.130 E2.93663
G1 X90.000 Y106.240 E2.94167
G1 X89.730 Y106.280 E2.94421
G1 X88.910 Y106.330 E2.95186
G1 X73.540 Y106.330 E3.09494
G1 X72.980 Y106.300 E3.10016
G1 X72.160 Y106.180 E3.10788
G1 X71.890 Y106.120 E3.11045
G1 X71.350 Y105.960 E3.11570
G1 X70.580 Y105.630 E3.12350
G1 X69.860 Y105.210 E3.13126
G1 X55.490 Y94.690 E3.29705
G1 X54.960 Y94.260 E3.30340
G1 X54.170 Y93.490 E3.31367
G1 X53.980 Y93.270 E3.31637
G1 X53.410 Y92.510 E3.32522
G1 X53.250 Y92.260 E3.32798
G1 X52.990 Y91.820 E3.33274
G1 X52.670 Y91.120 E3.33990
G1 X52.560 Y90.840 E3.34270
G1 X52.300 Y90.020 E3.35071
G1 X52.230 Y89.740 E3.35340
G1 X52.130 Y89.280 E3.35778
G1 X52.070 Y88.810 E3.36219
G1 X52.030 Y88.280 E3.36714
G1 X52.010 Y87.840 E3.37124
G1 X52.010 Y52.150 E3.70349
G1 X52.050 Y51.410 E3.71039
G1 X52.130 Y50.710 E3.71694
G1 X52.230 Y50.250 E3.72133
G1 X52.300 Y49.970 E3.72401
G1 X52.560 Y49.150 E3.73202
G1 X52.670 Y48.870 E3.73482
G1 X52.990 Y48.170 E3.74199
G1 X53.250 Y47.730 E3.74675
G1 X53.410 Y47.480 E3.74951
G1 X53.980 Y46.720 E3.75835
G1 X54.170 Y46.500 E3.76106
G1 X54.850 Y45.820 E3.77001
G1 X55.070 Y45.630 E3.77272
G1 X55.830 Y45.060 E3.78156
G1 X56.520 Y44.640 E3.78908
G1 X56.990 Y44.420 E3.79391
G1 X57.500 Y44.210 E3.79905
G1 X58.320 Y43.950 E3.80705
G1 X59.060 Y43.780 E3.81412
G1 X59.760 Y43.700 E3.82068
G1 X60.500 Y43.660 E3.82758
G1 X88.910 Y43.660 E4.09205
G1 X89.730 Y43.710 E4.09970
G1 X90.530 Y43.860 E4.10728
G1 X91.310 Y44.110 E4.11490
G1 X91.810 Y44.330 E4.11999
G1 X92.290 Y44.590 E4.12507
G1 X92.750 Y44.890 E4.13018
G1 X93.390 Y45.410 E4.13786
G1 X96.230 Y48.250 E4.17525
G1 X96.750 Y48.890 E4.18293
G1 X97.050 Y49.350 E4.18804
G1 X97.310 Y49.830 E4.19312
G1 X97.530 Y50.330 E4.19821
G1 X97.700 Y50.840 E4.20321
G1 X97.840 Y51.370 E4.20831
G1 X97.930 Y51.910 E4.21341
G1 X97.980 Y52.730 E4.22106
G1 X97.980 Y97.260 E4.63560
G1 X97.933 Y98.035 E4.64282
G1 X97.930 Y98.080 E4.64324
G1 X97.620 Y98.080 F7200.000
G1 X97.580 Y98.350 F1800.000 E4.64579
G1 X97.460 Y98.890 E4.65094
G1 X97.290 Y99.420 E4.65612
G1 X97.080 Y99.920 E4.66117
G1 X96.690 Y100.650 E4.66887
G1 X96.370 Y101.100 E4.67401
G1 X96.020 Y101.520 E4.67910
G1 X93.370 Y104.180 E4.71405
G1 X92.750 Y104.720 E4.72171
G1 X92.300 Y105.040 E4.72685
G1 X91.820 Y105.310 E4.73197
G1 X91.320 Y105.540 E4.73710
G1 X90.810 Y105.730 E4.74216
G1 X90.540 Y105.810 E4.74479
G1 X90.000 Y105.930 E4.74994
G1 X89.180 Y106.020 E4.75762
G1 X73.260 Y106.020 E4.90582
G1 X72.690 Y105.970 E4.91114
G1 X71.850 Y105.790 E4.91914
G1 X71.310 Y105.620 E4.92441
G1 X70.790 Y105.390 E4.92971
G1 X70.050 Y104.970 E4.93763
G1 X55.670 Y94.440 E5.10355
G1 X55.160 Y94.030 E5.10964
G1 X54.400 Y93.290 E5.11951
G1 X54.210 Y93.070 E5.12222
G1 X53.670 Y92.350 E5.13060
G1 X53.510 Y92.100 E5.13336
G1 X53.150 Y91.460 E5.14020
G1 X52.950 Y91.000 E5.14487
G1 X52.840 Y90.720 E5.14767
G1 X52.590 Y89.950 E5.15520
G1 X52.470 Y89.450 E5.15999
G1 X52.370 Y88.780 E5.16630
G1 X52.330 Y88.260 E5.17115
G1 X52.320 Y52.150 E5.50731
G1 X52.370 Y51.210 E5.51607
G1 X52.470 Y50.540 E5.52238
G1 X52.590 Y50.040 E5.52716
G1 X52.840 Y49.270 E5.53470
G1 X53.150 Y48.530 E5.54217
G1 X53.380 Y48.100 E5.54671
G1 X53.670 Y47.640 E5.55177
G1 X54.210 Y46.920 E5.56015
G1 X54.400 Y46.700 E5.56285
G1 X55.050 Y46.050 E5.57141
G1 X55.270 Y45.860 E5.57412
G1 X55.990 Y45.320 E5.58250
G1 X56.240 Y45.160 E5.58526
G1 X56.880 Y44.800 E5.59209
G1 X57.340 Y44.600 E5.59676
G1 X57.620 Y44.490 E5.59956
G1 X58.390 Y44.240 E5.60710
G1 X58.670 Y44.170 E5.60979
G1 X59.110 Y44.080 E5.61397
G1 X59.780 Y44.000 E5.62025
G1 X60.500 Y43.970 E5.62696
G1 X89.180 Y43.970 E5.89395
G1 X89.730 Y44.020 E5.89909
G1 X90.000 Y44.060 E5.90163
G1 X90.540 Y44.180 E5.90678
G1 X91.070 Y44.350 E5.91196
G1 X91.820 Y44.680 E5.91959
G1 X92.300 Y44.950 E5.92471
G1 X92.530 Y45.110 E5.92732
G1 X92.960 Y45.440 E5.93237
G1 X93.370 Y45.810 E5.93751
G1 X95.830 Y48.270 E5.96990
G1 X96.370 Y48.890 E5.97755
G1 X96.690 Y49.340 E5.98269
G1 X96.960 Y49.820 E5.98782
G1 X97.190 Y50.320 E5.99294
G1 X97.290 Y50.570 E5.99545
G1 X97.460 Y51.100 E6.00063
G1 X97.580 Y51.640 E6.00578
G1 X97.670 Y52.460 E6.01346
G1 X97.670 Y97.530 E6.43302
G1 X97.625 Y98.035 E6.43774
G1 X97.620 Y98.080 E6.43817
M204 S1000
G1 F1800.000 E5.43817
G92 E0
G1 X74.141 Y70.791 F7200.000
G1 F1800.000 E1.00000
G1 X73.695 Y71.171 F1800.000 E1.00546
G1 X73.195 Y71.477 E1.01091
G1 X72.654 Y71.702 E1.01637
G1 X72.084 Y71.839 E1.02182
G1 X71.500 Y71.885 E1.02728
G1 X70.847 Y71.822 E1.03338
G1 X70.346 Y71.702 E1.03818
G1 X69.805 Y71.478 E1.04364
G1 X69.305 Y71.171 E1.04909
G1 X68.859 Y70.791 E1.05455
G1 X68.479 Y70.345 E1.06000
G1 X68.172 Y69.845 E1.06546
G1 X67.948 Y69.304 E1.07091
G1 X67.811 Y68.734 E1.07637
G1 X67.768 Y68.179 E1.08156
G1 X67.768 Y60.121 E1.15657
G1 X67.811 Y59.566 E1.16175
G1 X67.948 Y58.996 E1.16721
G1 X68.172 Y58.455 E1.17266
G1 X68.479 Y57.955 E1.17812
G1 X68.859 Y57.509 E1.18357
G1 X69.305 Y57.129 E1.18903
G1 X69.804 Y56.822 E1.19448
G1 X70.346 Y56.598 E1.19994
G1 X70.916 Y56.461 E1.20540
G1 X71.500 Y56.415 E1.21085
G1 X72.084 Y56.461 E1.21631
G1 X72.654 Y56.598 E1.22176
G1 X73.195 Y56.822 E1.22722
G1 X73.635 Y57.092 E1.23201
G1 X74.141 Y57.509 E1.23812
G1 X74.521 Y57.955 E1.24358
G1 X74.828 Y58.455 E1.24903
G1 X75.052 Y58.996 E1.25449
G1 X75.189 Y59.566 E1.25994
G1 X75.232 Y60.121 E1.26513
G1 X75.232 Y68.179 E1.34014
G1 X75.189 Y68.734 E1.34532
G1 X75.052 Y69.304 E1.35078
G1 X74.828 Y69.845 E1.35623
G1 X74.521 Y70.345 E1.36169
G1 X74.170 Y70.756 E1.36672
G1 X74.141 Y70.791 E1.36715
G1 X73.925 Y70.575 F7200.000
G1 X73.516 Y70.925 F1800.000 E1.37216
G1 X73.057 Y71.206 E1.37717
G1 X72.560 Y71.412 E1.38218
G1 X72.037 Y71.538 E1.38719
G1 X71.500 Y71.580 E1.39220
G1 X70.918 Y71.527 E1.39764
G1 X70.440 Y71.412 E1.40221
G1 X69.943 Y71.206 E1.40722
G1 X69.484 Y70.925 E1.41224
G1 X69.075 Y70.575 E1.41725
G1 X68.725 Y70.166 E1.42226
G1 X68.444 Y69.707 E1.42727
G1 X68.238 Y69.210 E1.43228
G1 X68.112 Y68.687 E1.43729
G1 X68.071 Y68.167 E1.44214
G1 X68.071 Y60.133 E1.51693
G1 X68.112 Y59.613 E1.52178
G1 X68.238 Y59.090 E1.52679
G1 X68.444 Y58.593 E1.53180
G1 X68.725 Y58.134 E1.53681
G1 X69.075 Y57.725 E1.54182
G1 X69.484 Y57.375 E1.54683
G1 X69.943 Y57.094 E1.55184
G1 X70.440 Y56.888 E1.55686
G1 X70.963 Y56.762 E1.56187
G1 X71.500 Y56.720 E1.56688
G1 X72.037 Y56.762 E1.57189
G1 X72.560 Y56.888 E1.57690
G1 X73.057 Y57.094 E1.58191
G1 X73.476 Y57.351 E1.58648
G1 X73.925 Y57.725 E1.59192
G1 X74.275 Y58.134 E1.59693
G1 X74.556 Y58.593 E1.60194
G1 X74.762 Y59.090 E1.60695
G1 X74.888 Y59.613 E1.61196
G1 X74.929 Y60.133 E1.61682
G1 X74.929 Y68.167 E1.69161
G1 X74.888 Y68.687 E1.69646
G1 X74.762 Y69.210 E1.70147
G1 X74.556 Y69.707 E1.70648
G1 X74.275 Y70.166 E1.71149
G1 X73.955 Y70.541 E1.71608
G1 X73.925 Y70.575 E1.71650
G1 X73.710 Y70.360 F7200.000
G1 X73.337 Y70.679 F1800.000 E1.72107
G1 X72.919 Y70.935 E1.72563
G1 X72.466 Y71.122 E1.73020
G1 X71.989 Y71.237 E1.73476
G1 X71.500 Y71.275 E1.73933
G1 X70.989 Y71.232 E1.74410
G1 X70.534 Y71.122 E1.74846
G1 X70.081 Y70.935 E1.75302
G1 X69.663 Y70.679 E1.75759
G1 X69.290 Y70.360 E1.76215
G1 X68.972 Y69.987 E1.76672
G1 X68.715 Y69.569 E1.77128
G1 X68.528 Y69.116 E1.77585
G1 X68.413 Y68.639 E1.78041
G1 X68.375 Y68.155 E1.78493
G1 X68.375 Y60.145 E1.85950
G1 X68.413 Y59.661 E1.86402
G1 X68.528 Y59.184 E1.86859
G1 X68.715 Y58.731 E1.87315
G1 X68.972 Y58.313 E1.87772
G1 X69.290 Y57.940 E1.88228
G1 X69.663 Y57.622 E1.88685
G1 X70.081 Y57.365 E1.89141
G1 X70.534 Y57.178 E1.89598
G1 X71.011 Y57.063 E1.90054
G1 X71.500 Y57.025 E1.90511
G1 X71.989 Y57.063 E1.90967
G1 X72.466 Y57.178 E1.91424
G1 X72.919 Y57.365 E1.91881
G1 X73.318 Y57.610 E1.92316
G1 X73.710 Y57.940 E1.92793
G1 X74.028 Y58.313 E1.93250
G1 X74.285 Y58.731 E1.93707
G1 X74.472 Y59.184 E1.94163
G1 X74.587 Y59.661 E1.94620
G1 X74.625 Y60.145 E1.95072
G1 X74.625 Y68.155 E2.02528
G1 X74.587 Y68.639 E2.02980
G1 X74.472 Y69.116 E2.03437
G1 X74.285 Y69.569 E2.03893
G1 X74.028 Y69.987 E2.04350
G1 X73.740 Y70.325 E2.04764
G1 X73.710 Y70.360 E2.04806
G1 X73.781 Y70.655 F7200.000
G1 F1800.000 E1.04806
G92 E0
G1 X72.585 Y76.582 F7200.000
G1 F1800.000 E1.00000
G1 X73.195 Y76.823 F1800.000 E1.00611
G1 X73.695 Y77.129 E1.01156
G1 X74.141 Y77.509 E1.01702
G1 X74.521 Y77.955 E1.02247
G1 X74.828 Y78.454 E1.02793
G1 X75.052 Y78.996 E1.03338
G1 X75.189 Y79.566 E1.03884
G1 X75.232 Y80.121 E1.04403
G1 X75.232 Y88.179 E1.11904
G1 X75.189 Y88.734 E1.12422
G1 X75.052 Y89.304 E1.12968
G1 X74.828 Y89.845 E1.13513
G1 X74.521 Y90.345 E1.14059
G1 X74.141 Y90.791 E1.14604
G1 X73.695 Y91.171 E1.15150
G1 X73.195 Y91.478 E1.15696
G1 X72.654 Y91.702 E1.16241
G1 X72.084 Y91.839 E1.16787
G1 X71.500 Y91.885 E1.17332
G1 X70.847 Y91.822 E1.17943
G1 X70.346 Y91.702 E1.18422
G1 X69.805 Y91.477 E1.18968
G1 X69.305 Y91.171 E1.19514
G1 X68.859 Y90.791 E1.20059
G1 X68.479 Y90.345 E1.20605
G1 X68.172 Y89.845 E1.21150
G1 X67.948 Y89.304 E1.21696
G1 X67.811 Y88.734 E1.22241
G1 X67.768 Y88.179 E1.22760
G1 X67.768 Y80.121 E1.30261
G1 X67.811 Y79.566 E1.30780
G1 X67.948 Y78.996 E1.31325
G1 X68.172 Y78.455 E1.31871
G1 X68.442 Y78.015 E1.32350
G1 X68.859 Y77.509 E1.32961
G1 X69.305 Y77.129 E1.33507
G1 X69.805 Y76.822 E1.34052
G1 X70.346 Y76.598 E1.34598
G1 X70.916 Y76.461 E1.35143
G1 X71.500 Y76.415 E1.35689
G1 X72.084 Y76.461 E1.36234
G1 X72.541 Y76.571 E1.36672
G1 X72.585 Y76.582 E1.36714
G1 X72.514 Y76.877 F7200.000
G1 X73.057 Y77.094 F1800.000 E1.37258
G1 X73.516 Y77.375 E1.37759
G1 X73.925 Y77.725 E1.38260
G1 X74.275 Y78.134 E1.38761
G1 X74.556 Y78.593 E1.39262
G1 X74.762 Y79.090 E1.39763
G1 X74.888 Y79.613 E1.40264
G1 X74.929 Y80.133 E1.40750
G1 X74.929 Y88.167 E1.48228
G1 X74.888 Y88.687 E1.48714
G1 X74.762 Y89.210 E1.49215
G1 X74.556 Y89.707 E1.49716
G1 X74.275 Y90.166 E1.50217
G1 X73.925 Y90.575 E1.50718
G1 X73.516 Y90.925 E1.51219
G1 X73.057 Y91.206 E1.51720
G1 X72.560 Y91.412 E1.52221
G1 X72.037 Y91.538 E1.52722
G1 X71.500 Y91.580 E1.53223
G1 X70.918 Y91.527 E1.53767
G1 X70.440 Y91.412 E1.54225
G1 X69.943 Y91.206 E1.54726
G1 X69.484 Y90.925 E1.55227
G1 X69.075 Y90.575 E1.55728
G1 X68.725 Y90.166 E1.56229
G1 X68.444 Y89.707 E1.56730
G1 X68.238 Y89.210 E1.57231
G1 X68.112 Y88.687 E1.57732
G1 X68.071 Y88.167 E1.58217
G1 X68.071 Y80.133 E1.65696
G1 X68.112 Y79.613 E1.66181
G1 X68.238 Y79.090 E1.66683
G1 X68.444 Y78.593 E1.67184
G1 X68.701 Y78.174 E1.67641
G1 X69.075 Y77.725 E1.68185
G1 X69.484 Y77.375 E1.68686
G1 X69.943 Y77.094 E1.69187
G1 X70.440 Y76.888 E1.69688
G1 X70.963 Y76.762 E1.70189
G1 X71.500 Y76.720 E1.70690
G1 X72.037 Y76.762 E1.71191
G1 X72.470 Y76.866 E1.71606
G1 X72.514 Y76.877 E1.71649
G1 X72.444 Y77.172 F7200.000
G1 X72.919 Y77.365 F1800.000 E1.72127
G1 X73.337 Y77.621 E1.72583
G1 X73.710 Y77.940 E1.73040
G1 X74.028 Y78.313 E1.73496
G1 X74.285 Y78.731 E1.73953
G1 X74.472 Y79.184 E1.74409
G1 X74.587 Y79.661 E1.74866
G1 X74.625 Y80.145 E1.75318
G1 X74.625 Y88.155 E1.82774
G1 X74.587 Y88.639 E1.83226
G1 X74.472 Y89.116 E1.83683
G1 X74.285 Y89.569 E1.84139
G1 X74.028 Y89.987 E1.84596
G1 X73.710 Y90.360 E1.85052
G1 X73.337 Y90.679 E1.85509
G1 X72.919 Y90.935 E1.85966
G1 X72.466 Y91.122 E1.86422
G1 X71.989 Y91.237 E1.86879
G1 X71.500 Y91.275 E1.87335
G1 X70.989 Y91.232 E1.87813
G1 X70.534 Y91.122 E1.88248
G1 X70.081 Y90.935 E1.88705
G1 X69.663 Y90.679 E1.89161
G1 X69.290 Y90.360 E1.89618
G1 X68.972 Y89.987 E1.90074
G1 X68.715 Y89.569 E1.90531
G1 X68.528 Y89.116 E1.90987
G1 X68.413 Y88.639 E1.91444
G1 X68.375 Y88.155 E1.91896
G1 X68.375 Y80.145 E1.99353
G1 X68.413 Y79.661 E1.99804
G1 X68.528 Y79.184 E2.00261
G1 X68.715 Y78.731 E2.00718
G1 X68.960 Y78.332 E2.01153
G1 X69.290 Y77.940 E2.01630
G1 X69.663 Y77.621 E2.02087
G1 X70.081 Y77.365 E2.02544
G1 X70.534 Y77.178 E2.03000
G1 X71.011 Y77.063 E2.03457
G1 X71.500 Y77.025 E2.03913
G1 X71.989 Y77.063 E2.04370
G1 X72.399 Y77.162 E2.04763
G1 X72.444 Y77.172 E2.04805
G1 X72.674 Y76.974 F7200.000
G1 F1800.000 E1.04805
G92 E0
G1 X77.768 Y90.582 F7200.000
G1 F1800.000 E1.00000
G1 X82.718 Y90.582 F1800.000 E1.04608
G1 X82.718 Y93.379 E1.07211
G1 X82.744 Y93.707 E1.07518
