; generated by Slic3r 0.9.8 on 2013-03-21 at 23:17:05

; layer_height = 0.25
; perimeters = 3
; top_solid_layers = 3
; bottom_solid_layers = 3
; fill_density = 0.3
; perimeter_speed = 60
; infill_speed = 80
; travel_speed = 150
; scale = 1
; nozzle_diameter = 0.5
; filament_diameter = 2.9
; extrusion_multiplier = 0.8148
; perimeters extrusion width = 0.50mm
; infill extrusion width = 0.25mm
; first layer extrusion width = 0.27mm

M107
M190 S65 ; wait for bed temperature to be reached
M104 S210 ; set temperature
G28 ; home all axes
M109 S210 ; wait for temperature to be reached
G90 ; use absolute coordinates
G21 ; set units to millimeters
G92 E0
M82 ; use absolute distances for extrusion
G1 F3600.000 E-1.00000
G92 E0
G1 Z0.250 F9000.000
G1 X110.130 Y89.810
G1 F3600.000 E1.00000
G1 X39.860 Y89.810 F1200.000 E1.68782
G1 X39.040 Y89.730 E1.69588
G1 X38.770 Y89.680 E1.69857
G1 X38.240 Y89.550 E1.70391
G1 X37.720 Y89.380 E1.70927
G1 X37.220 Y89.170 E1.71458
G1 X36.730 Y88.930 E1.71992
G1 X36.040 Y88.480 E1.72798
G1 X35.610 Y88.150 E1.73329
G1 X35.210 Y87.780 E1.73862
G1 X34.840 Y87.380 E1.74395
G1 X34.350 Y86.720 E1.75200
G1 X34.060 Y86.260 E1.75732
G1 X33.940 Y86.020 E1.75995
G1 X33.610 Y85.270 E1.76797
G1 X33.440 Y84.750 E1.77332
G1 X33.260 Y83.950 E1.78135
G1 X33.180 Y83.130 E1.78942
G1 X33.180 Y36.860 E2.24232
G1 X33.200 Y36.580 E2.24507
G1 X33.260 Y36.040 E2.25038
G1 X33.440 Y35.240 E2.25841
G1 X33.610 Y34.720 E2.26376
G1 X33.820 Y34.220 E2.26907
G1 X34.060 Y33.730 E2.27441
G1 X34.350 Y33.270 E2.27974
G1 X34.840 Y32.610 E2.28778
G1 X35.210 Y32.210 E2.29312
G1 X35.610 Y31.840 E2.29845
G1 X36.270 Y31.350 E2.30650
G1 X36.730 Y31.060 E2.31182
G1 X37.470 Y30.710 E2.31983
G1 X37.980 Y30.520 E2.32516
G1 X38.770 Y30.310 E2.33316
G1 X39.040 Y30.260 E2.33585
G1 X39.860 Y30.180 E2.34391
G1 X110.130 Y30.180 E3.03173
G1 X110.950 Y30.260 E3.03980
G1 X111.220 Y30.310 E3.04248
G1 X111.750 Y30.440 E3.04783
G1 X112.270 Y30.610 E3.05318
G1 X112.770 Y30.820 E3.05849
G1 X113.260 Y31.060 E3.06383
G1 X113.950 Y31.510 E3.07189
G1 X114.380 Y31.840 E3.07720
G1 X114.780 Y32.210 E3.08253
G1 X115.150 Y32.610 E3.08787
G1 X115.640 Y33.270 E3.09591
G1 X115.930 Y33.730 E3.10123
G1 X116.050 Y33.970 E3.10386
G1 X116.380 Y34.720 E3.11188
G1 X116.550 Y35.240 E3.11724
G1 X116.730 Y36.040 E3.12526
G1 X116.810 Y36.860 E3.13333
G1 X116.810 Y83.130 E3.58623
G1 X116.790 Y83.410 E3.58898
G1 X116.730 Y83.950 E3.59430
G1 X116.550 Y84.750 E3.60232
G1 X116.380 Y85.270 E3.60768
G1 X116.170 Y85.770 E3.61298
G1 X115.930 Y86.260 E3.61833
G1 X115.640 Y86.720 E3.62365
G1 X115.150 Y87.380 E3.63169
G1 X114.780 Y87.780 E3.63703
G1 X114.380 Y88.150 E3.64236
G1 X113.720 Y88.640 E3.65041
G1 X113.260 Y88.930 E3.65573
G1 X112.770 Y89.170 E3.66107
G1 X112.270 Y89.380 E3.66638
G1 X111.480 Y89.620 E3.67446
G1 X110.950 Y89.730 E3.67976
G1 X110.177 Y89.807 E3.68736
G1 X110.130 Y89.810 E3.68782
G1 X110.130 Y89.490 F9000.000
G1 X39.860 Y89.490 F1200.000 E4.37564
G1 X39.330 Y89.450 E4.38085
G1 X38.800 Y89.360 E4.38611
G1 X38.280 Y89.230 E4.39135
G1 X37.780 Y89.060 E4.39652
G1 X37.290 Y88.850 E4.40174
G1 X36.810 Y88.610 E4.40700
G1 X36.360 Y88.320 E4.41224
G1 X35.930 Y88.000 E4.41748
G1 X35.530 Y87.650 E4.42268
G1 X34.990 Y87.060 E4.43051
G1 X34.520 Y86.410 E4.43836
G1 X34.380 Y86.180 E4.44100
G1 X34.140 Y85.700 E4.44625
G1 X33.930 Y85.210 E4.45147
G1 X33.690 Y84.450 E4.45927
G1 X33.540 Y83.660 E4.46714
G1 X33.500 Y83.130 E4.47235
G1 X33.500 Y36.860 E4.92525
G1 X33.540 Y36.330 E4.93045
G1 X33.630 Y35.800 E4.93571
G1 X33.760 Y35.280 E4.94096
G1 X34.030 Y34.530 E4.94876
G1 X34.380 Y33.810 E4.95660
G1 X34.520 Y33.580 E4.95923
G1 X34.990 Y32.930 E4.96708
G1 X35.340 Y32.530 E4.97229
G1 X35.930 Y31.990 E4.98012
G1 X36.360 Y31.670 E4.98536
G1 X36.810 Y31.380 E4.99060
G1 X37.290 Y31.140 E4.99586
G1 X37.780 Y30.930 E5.00107
G1 X38.280 Y30.760 E5.00624
G1 X38.800 Y30.630 E5.01149
G1 X39.330 Y30.540 E5.01675
G1 X39.860 Y30.500 E5.02195
G1 X110.130 Y30.500 E5.70977
G1 X110.660 Y30.540 E5.71498
G1 X111.190 Y30.630 E5.72024
G1 X111.710 Y30.760 E5.72549
G1 X112.210 Y30.930 E5.73066
G1 X112.700 Y31.140 E5.73587
G1 X113.180 Y31.380 E5.74113
G1 X113.630 Y31.670 E5.74637
G1 X114.060 Y31.990 E5.75161
G1 X114.460 Y32.340 E5.75682
G1 X115.000 Y32.930 E5.76464
G1 X115.470 Y33.580 E5.77250
G1 X115.610 Y33.810 E5.77513
G1 X115.850 Y34.290 E5.78038
G1 X116.060 Y34.780 E5.78560
G1 X116.300 Y35.540 E5.79340
G1 X116.450 Y36.330 E5.80127
G1 X116.490 Y36.860 E5.80648
G1 X116.490 Y83.130 E6.25938
G1 X116.450 Y83.660 E6.26458
G1 X116.360 Y84.190 E6.26984
G1 X116.230 Y84.710 E6.27509
G1 X115.960 Y85.460 E6.28289
G1 X115.610 Y86.180 E6.29073
G1 X115.470 Y86.410 E6.29336
G1 X115.000 Y87.060 E6.30122
G1 X114.650 Y87.460 E6.30642
G1 X114.060 Y88.000 E6.31425
G1 X113.630 Y88.320 E6.31949
G1 X113.180 Y88.610 E6.32473
G1 X112.460 Y88.960 E6.33257
G1 X111.710 Y89.230 E6.34037
G1 X111.190 Y89.360 E6.34562
G1 X110.660 Y89.450 E6.35088
G1 X110.177 Y89.486 E6.35562
G1 X110.130 Y89.490 E6.35608
G1 X109.860 Y89.180 F9000.000
G1 X40.130 Y89.180 F1200.000 E7.03862
G1 X39.610 Y89.160 E7.04371
G1 X39.090 Y89.090 E7.04885
G1 X38.580 Y88.980 E7.05395
G1 X38.080 Y88.840 E7.05904
G1 X37.590 Y88.650 E7.06418
G1 X37.120 Y88.420 E7.06930
G1 X36.670 Y88.150 E7.07444
G1 X36.250 Y87.850 E7.07949
G1 X35.660 Y87.330 E7.08719
G1 X35.140 Y86.740 E7.09489
G1 X34.840 Y86.320 E7.09994
G1 X34.570 Y85.870 E7.10508
G1 X34.340 Y85.400 E7.11020
G1 X34.150 Y84.910 E7.11534
G1 X33.950 Y84.160 E7.12294
G1 X33.830 Y83.380 E7.13066
G1 X33.810 Y82.860 E7.13576
G1 X33.810 Y37.130 E7.58337
G1 X33.830 Y36.610 E7.58847
G1 X33.900 Y36.090 E7.59360
G1 X34.010 Y35.580 E7.59871
G1 X34.150 Y35.080 E7.60379
G1 X34.340 Y34.590 E7.60894
G1 X34.570 Y34.120 E7.61406
G1 X34.840 Y33.670 E7.61920
G1 X35.140 Y33.250 E7.62425
G1 X35.660 Y32.660 E7.63195
G1 X36.250 Y32.140 E7.63964
G1 X36.670 Y31.840 E7.64470
G1 X37.120 Y31.570 E7.64983
G1 X37.590 Y31.340 E7.65495
G1 X38.080 Y31.150 E7.66010
G1 X38.580 Y31.010 E7.66518
G1 X39.090 Y30.900 E7.67029
G1 X39.610 Y30.830 E7.67542
G1 X40.130 Y30.810 E7.68052
G1 X109.860 Y30.810 E8.36305
G1 X110.380 Y30.830 E8.36815
G1 X110.900 Y30.900 E8.37328
G1 X111.410 Y31.010 E8.37839
G1 X111.910 Y31.150 E8.38347
G1 X112.400 Y31.340 E8.38862
G1 X112.870 Y31.570 E8.39374
G1 X113.320 Y31.840 E8.39887
G1 X113.740 Y32.140 E8.40393
G1 X114.330 Y32.660 E8.41162
G1 X114.850 Y33.250 E8.41932
G1 X115.150 Y33.670 E8.42437
G1 X115.420 Y34.120 E8.42951
G1 X115.650 Y34.590 E8.43463
G1 X115.840 Y35.080 E8.43978
G1 X116.040 Y35.830 E8.44737
G1 X116.160 Y36.610 E8.45510
G1 X116.180 Y37.130 E8.46019
G1 X116.180 Y82.860 E8.90781
G1 X116.160 Y83.380 E8.91290
G1 X116.090 Y83.900 E8.91804
G1 X115.980 Y84.410 E8.92315
G1 X115.840 Y84.910 E8.92823
G1 X115.750 Y85.160 E8.93083
G1 X115.540 Y85.630 E8.93587
G1 X115.420 Y85.870 E8.93849
G1 X115.150 Y86.320 E8.94363
G1 X114.850 Y86.740 E8.94868
G1 X114.510 Y87.140 E8.95382
G1 X114.140 Y87.510 E8.95894
G1 X113.740 Y87.850 E8.96408
G1 X113.320 Y88.150 E8.96913
G1 X112.870 Y88.420 E8.97427
G1 X112.160 Y88.750 E8.98193
G1 X111.910 Y88.840 E8.98454
G1 X111.410 Y88.980 E8.98962
G1 X110.900 Y89.090 E8.99472
G1 X110.380 Y89.160 E8.99986
G1 X109.908 Y89.178 E9.00449
G1 X109.860 Y89.180 E9.00495
M204 S1000
G1 F3600.000 E8.00495
G92 E0
G1 X61.188 Y75.057 F9000.000
G1 F3600.000 E1.00000
G1 X60.615 Y75.294 F1200.000 E1.00607
G1 X60.000 Y75.375 E1.01214
G1 X59.385 Y75.294 E1.01821
G1 X58.812 Y75.057 E1.02428
G1 X58.321 Y74.680 E1.03034
G1 X57.943 Y74.188 E1.03641
G1 X57.706 Y73.615 E1.04248
G1 X57.625 Y73.000 E1.04855
G1 X57.706 Y72.385 E1.05462
G1 X57.943 Y71.812 E1.06069
G1 X58.320 Y71.321 E1.06676
G1 X58.812 Y70.943 E1.07283
G1 X59.385 Y70.706 E1.07890
G1 X60.000 Y70.625 E1.08497
G1 X60.615 Y70.706 E1.09104
G1 X61.188 Y70.943 E1.09711
G1 X61.282 Y71.015 E1.09827
G1 X61.679 Y71.320 E1.10317
G1 X62.057 Y71.812 E1.10924
G1 X62.294 Y72.385 E1.11531
G1 X62.375 Y73.000 E1.12138
G1 X62.294 Y73.615 E1.12745
G1 X62.057 Y74.188 E1.13352
G1 X61.680 Y74.679 E1.13959
G1 X61.225 Y75.028 E1.14519
G1 X61.188 Y75.057 E1.14566
G1 X61.028 Y74.780 F9000.000
G1 X60.532 Y74.985 F1200.000 E1.15091
G1 X60.000 Y75.055 E1.15616
G1 X59.468 Y74.985 E1.16141
G1 X58.972 Y74.780 E1.16666
G1 X58.547 Y74.453 E1.17191
G1 X58.220 Y74.028 E1.17717
G1 X58.015 Y73.532 E1.18242
G1 X57.945 Y73.000 E1.18767
G1 X58.015 Y72.468 E1.19292
G1 X58.220 Y71.972 E1.19817
G1 X58.547 Y71.547 E1.20342
G1 X58.972 Y71.220 E1.20867
G1 X59.468 Y71.015 E1.21392
G1 X60.000 Y70.945 E1.21918
G1 X60.532 Y71.015 E1.22443
G1 X61.028 Y71.220 E1.22968
G1 X61.088 Y71.267 E1.23043
G1 X61.453 Y71.547 E1.23493
G1 X61.780 Y71.972 E1.24018
G1 X61.985 Y72.468 E1.24543
G1 X62.055 Y73.000 E1.25068
G1 X61.985 Y73.532 E1.25593
G1 X61.780 Y74.028 E1.26118
G1 X61.453 Y74.453 E1.26644
G1 X61.065 Y74.751 E1.27122
G1 X61.028 Y74.780 E1.27169
G1 X60.867 Y74.502 F9000.000
G1 X60.449 Y74.676 F1200.000 E1.27612
G1 X60.000 Y74.735 E1.28055
G1 X59.551 Y74.676 E1.28499
G1 X59.133 Y74.502 E1.28942
G1 X58.773 Y74.227 E1.29385
G1 X58.498 Y73.867 E1.29828
G1 X58.324 Y73.449 E1.30272
G1 X58.265 Y73.000 E1.30715
G1 X58.324 Y72.551 E1.31158
G1 X58.498 Y72.133 E1.31602
G1 X58.773 Y71.773 E1.32045
G1 X59.133 Y71.498 E1.32488
G1 X59.551 Y71.324 E1.32932
G1 X60.000 Y71.265 E1.33375
G1 X60.449 Y71.324 E1.33818
G1 X60.895 Y71.519 E1.34295
G1 X61.227 Y71.773 E1.34704
G1 X61.502 Y72.133 E1.35147
G1 X61.676 Y72.551 E1.35590
G1 X61.735 Y73.000 E1.36034
G1 X61.676 Y73.449 E1.36477
G1 X61.502 Y73.867 E1.36920
G1 X61.227 Y74.227 E1.37364
G1 X60.905 Y74.473 E1.37760
G1 X60.867 Y74.502 E1.37807
G1 X60.854 Y74.820 F9000.000
G1 F3600.000 E0.37807
G92 E0
G1 X82.625 Y73.000 F9000.000
G1 F3600.000 E1.00000
G1 X82.706 Y72.385 F1200.000 E1.00607
G1 X82.943 Y71.812 E1.01214
G1 X83.321 Y71.320 E1.01821
G1 X83.812 Y70.943 E1.02428
G1 X84.385 Y70.706 E1.03035
G1 X85.000 Y70.625 E1.03642
G1 X85.615 Y70.706 E1.04248
G1 X86.188 Y70.943 E1.04855
G1 X86.679 Y71.320 E1.05462
G1 X87.057 Y71.812 E1.06069
G1 X87.294 Y72.385 E1.06676
G1 X87.375 Y73.000 E1.07283
G1 X87.294 Y73.615 E1.07890
G1 X87.057 Y74.188 E1.08497
G1 X86.680 Y74.680 E1.09104
G1 X86.188 Y75.057 E1.09711
G1 X85.615 Y75.294 E1.10318
G1 X85.000 Y75.375 E1.10925
G1 X84.385 Y75.294 E1.11531
G1 X83.812 Y75.057 E1.12138
G1 X83.321 Y74.680 E1.12745
G1 X82.943 Y74.188 E1.13352
G1 X82.706 Y73.615 E1.13959
G1 X82.631 Y73.047 E1.14519
G1 X82.625 Y73.000 E1.14566
G1 X82.945 Y73.000 F9000.000
G1 X83.015 Y72.468 F1200.000 E1.15091
G1 X83.220 Y71.972 E1.15616
G1 X83.547 Y71.547 E1.16141
G1 X83.973 Y71.220 E1.16666
G1 X84.468 Y71.015 E1.17192
G1 X85.000 Y70.945 E1.17717
G1 X85.532 Y71.015 E1.18242
G1 X86.028 Y71.220 E1.18767
G1 X86.453 Y71.547 E1.19292
G1 X86.780 Y71.972 E1.19817
G1 X86.985 Y72.468 E1.20342
G1 X87.055 Y73.000 E1.20867
G1 X86.985 Y73.532 E1.21392
G1 X86.780 Y74.028 E1.21918
G1 X86.453 Y74.453 E1.22443
G1 X86.027 Y74.780 E1.22968
G1 X85.532 Y74.985 E1.23493
G1 X85.000 Y75.055 E1.24018
G1 X84.468 Y74.985 E1.24543
G1 X83.972 Y74.780 E1.25068
G1 X83.547 Y74.453 E1.25593
G1 X83.220 Y74.028 E1.26118
G1 X83.015 Y73.532 E1.26644
G1 X82.951 Y73.047 E1.27122
G1 X82.945 Y73.000 E1.27169
G1 X83.265 Y73.000 F9000.000
G1 X83.324 Y72.551 F1200.000 E1.27612
G1 X83.498 Y72.133 E1.28055
G1 X83.773 Y71.773 E1.28499
G1 X84.133 Y71.498 E1.28942
G1 X84.551 Y71.324 E1.29385
G1 X85.000 Y71.265 E1.29829
G1 X85.449 Y71.324 E1.30272
G1 X85.867 Y71.498 E1.30715
G1 X86.227 Y71.773 E1.31158
G1 X86.502 Y72.133 E1.31602
G1 X86.676 Y72.551 E1.32045
G1 X86.735 Y73.000 E1.32488
G1 X86.676 Y73.449 E1.32932
G1 X86.502 Y73.867 E1.33375
G1 X86.227 Y74.227 E1.33818
G1 X85.867 Y74.502 E1.34262
G1 X85.449 Y74.676 E1.34705
G1 X85.000 Y74.735 E1.35148
G1 X84.551 Y74.676 E1.35592
G1 X84.133 Y74.502 E1.36035
G1 X83.773 Y74.227 E1.36478
G1 X83.498 Y73.867 E1.36922
G1 X83.324 Y73.449 E1.37365
G1 X83.271 Y73.047 E1.37762
G1 X83.265 Y73.000 E1.37808
G1 X82.997 Y72.829 F9000.000
G1 F3600.000 E0.37808
G92 E0
G1 X109.231 Y63.769 F9000.000
G1 F3600.000 E1.00000
G1 X109.231 Y82.231 F1200.000 E1.18072
G1 X40.769 Y82.231 E1.85085
G1 X40.769 Y63.769 E2.03157
G1 X109.184 Y63.769 E2.70124
G1 X109.231 Y63.769 E2.70170
G1 X109.549 Y63.451 F9000.000
G1 X109.549 Y82.549 F1200.000 E2.88864
G1 X40.451 Y82.549 E3.56498
G1 X40.451 Y63.451 E3.75192
G1 X109.501 Y63.451 E4.42780
G1 X109.549 Y63.451 E4.42826
G1 X109.866 Y63.134 F9000.000
G1 X109.866 Y82.866 F1200.000 E4.62141
G1 X40.134 Y82.866 E5.30397
G1 X40.134 Y63.134 E5.49711
G1 X109.819 Y63.134 E6.17921
G1 X109.866 Y63.134 E6.17967
G1 X109.708 Y63.409 F9000.000
M204 S2000
M204 S3000
G1 X109.015 Y64.638
G1 X108.362 Y63.985 F1200.000 E6.18875
G1 X107.912 Y63.985 E6.19318
G1 X109.015 Y65.088 E6.20853
G1 X109.015 Y65.539 E6.21296
G1 X107.461 Y63.985 E6.23457
G1 X107.010 Y63.985 E6.23900
G1 X109.015 Y65.990 E6.26688
G1 X109.015 Y66.441 E6.27131
G1 X106.559 Y63.985 E6.30546
G1 X106.108 Y63.985 E6.30989
G1 X109.015 Y66.892 E6.35030
G1 X109.015 Y67.343 E6.35474
G1 X105.657 Y63.985 E6.40142
G1 X105.207 Y63.985 E6.40585
G1 X109.015 Y67.793 E6.45880
G1 X109.015 Y68.244 E6.46323
G1 X104.756 Y63.985 E6.52245
G1 X104.305 Y63.985 E6.52689
G1 X109.015 Y68.695 E6.59237
G1 X109.015 Y69.146 E6.59680
G1 X103.854 Y63.985 E6.66856
G1 X103.403 Y63.985 E6.67299
G1 X109.015 Y69.597 E6.75101
G1 X109.015 Y70.047 E6.75544
G1 X102.953 Y63.985 E6.83973
G1 X102.502 Y63.985 E6.84417
G1 X109.015 Y70.498 E6.93472
G1 X109.015 Y70.949 E6.93915
G1 X102.051 Y63.985 E7.03598
G1 X101.600 Y63.985 E7.04041
G1 X109.015 Y71.400 E7.14350
G1 X109.015 Y71.851 E7.14794
G1 X101.149 Y63.985 E7.25730
G1 X100.698 Y63.985 E7.26173
G1 X109.015 Y72.302 E7.37736
G1 X109.015 Y72.752 E7.38179
G1 X100.248 Y63.985 E7.50369
G1 X99.797 Y63.985 E7.50812
G1 X109.015 Y73.203 E7.63629
G1 X109.015 Y73.654 E7.64072
G1 X99.346 Y63.985 E7.77515
G1 X98.895 Y63.985 E7.77958
G1 X109.015 Y74.105 E7.92028
G1 X109.015 Y74.556 E7.92472
G1 X98.444 Y63.985 E8.07168
G1 X97.993 Y63.985 E8.07612
G1 X109.015 Y75.007 E8.22935
G1 X109.015 Y75.457 E8.23378
G1 X97.543 Y63.985 E8.39329
G1 X97.092 Y63.985 E8.39772
G1 X109.015 Y75.908 E8.56349
G1 X109.015 Y76.359 E8.56792
G1 X96.641 Y63.985 E8.73996
G1 X96.190 Y63.985 E8.74439
G1 X109.015 Y76.810 E8.92270
G1 X109.015 Y77.261 E8.92713
G1 X95.739 Y63.985 E9.11171
G1 X95.289 Y63.985 E9.11614
G1 X109.015 Y77.712 E9.30699
G1 X109.015 Y78.162 E9.31142
G1 X94.838 Y63.985 E9.50853
G1 X94.387 Y63.985 E9.51296
G1 X109.015 Y78.613 E9.71634
G1 X109.015 Y79.064 E9.72077
G1 X93.936 Y63.985 E9.93042
G1 X93.485 Y63.985 E9.93485
G1 X109.015 Y79.515 E10.15077
G1 X109.015 Y79.966 E10.15520
G1 X93.034 Y63.985 E10.37738
G1 X92.584 Y63.985 E10.38181
G1 X109.015 Y80.416 E10.61026
G1 X109.015 Y80.867 E10.61469
G1 X92.133 Y63.985 E10.84941
G1 X91.682 Y63.985 E10.85385
G1 X109.015 Y81.318 E11.09483
G1 X109.015 Y81.769 E11.09926
G1 X91.231 Y63.985 E11.34652
G1 X90.780 Y63.985 E11.35095
G1 X108.811 Y82.015 E11.60163
G1 X108.360 Y82.015 E11.60606
G1 X90.329 Y63.985 E11.85674
G1 X89.879 Y63.985 E11.86117
G1 X107.909 Y82.015 E12.11185
G1 X107.458 Y82.015 E12.11628
G1 X89.428 Y63.985 E12.36696
G1 X88.977 Y63.985 E12.37139
G1 X107.007 Y82.015 E12.62207
G1 X106.557 Y82.015 E12.62650
G1 X88.526 Y63.985 E12.87718
G1 X88.075 Y63.985 E12.88161
G1 X106.106 Y82.015 E13.13229
G1 X105.655 Y82.015 E13.13672
G1 X87.625 Y63.985 E13.38740
G1 X87.174 Y63.985 E13.39183
G1 X105.204 Y82.015 E13.64251
G1 X104.753 Y82.015 E13.64694
G1 X86.723 Y63.985 E13.89762
G1 X86.272 Y63.985 E13.90205
G1 X104.302 Y82.015 E14.15273
