; generated by Slic3r 0.9.8 on 2013-03-22 at 22:44:03

; layer_height = 0.25
; perimeters = 3
; top_solid_layers = 3
; bottom_solid_layers = 3
; fill_density = 0.3
; perimeter_speed = 70
; infill_speed = 80
; travel_speed = 150
; scale = 1
; nozzle_diameter = 0.5
; filament_diameter = 2.9
; extrusion_multiplier = 0.8148
; perimeters extrusion width = 0.50mm
; infill extrusion width = 0.25mm
; first layer extrusion width = 0.27mm

M107
M190 S65 ; wait for bed temperature to be reached
M104 S210 ; set temperature
G28 ; home all axes
M109 S210 ; wait for temperature to be reached
G90 ; use absolute coordinates
G21 ; set units to millimeters
G92 E0
M82 ; use absolute distances for extrusion
G1 F3600.000 E-1.00000
G92 E0
G1 Z0.250 F9000.000
G1 X88.440 Y91.484
G1 F3600.000 E1.00000
G1 X88.300 Y91.724 F900.000 E1.00272
G1 X87.980 Y92.184 E1.00820
G1 X87.810 Y92.404 E1.01093
G1 X87.430 Y92.824 E1.01647
G1 X86.820 Y93.394 E1.02464
G1 X86.140 Y93.884 E1.03285
G1 X85.650 Y94.164 E1.03837
G1 X85.140 Y94.404 E1.04389
G1 X84.350 Y94.684 E1.05209
G1 X83.540 Y94.864 E1.06021
G1 X82.700 Y94.954 E1.06848
G1 X67.290 Y94.954 E1.21932
G1 X66.730 Y94.904 E1.22482
G1 X66.180 Y94.814 E1.23028
G1 X65.640 Y94.684 E1.23571
G1 X64.850 Y94.404 E1.24392
G1 X64.340 Y94.164 E1.24944
G1 X64.090 Y94.024 E1.25224
G1 X63.850 Y93.884 E1.25496
G1 X63.170 Y93.394 E1.26316
G1 X62.560 Y92.824 E1.27134
G1 X62.180 Y92.404 E1.27688
G1 X62.010 Y92.184 E1.27960
G1 X61.690 Y91.724 E1.28509
G1 X61.550 Y91.484 E1.28781
G1 X36.630 Y48.324 E1.77563
G1 X36.250 Y47.574 E1.78386
G1 X35.970 Y46.774 E1.79216
G1 X35.840 Y46.234 E1.79759
G1 X35.750 Y45.684 E1.80305
G1 X35.700 Y45.124 E1.80855
G1 X35.700 Y44.564 E1.81403
G1 X35.750 Y44.004 E1.81953
G1 X35.900 Y43.184 E1.82769
G1 X35.970 Y42.914 E1.83042
G1 X36.250 Y42.124 E1.83863
G1 X36.490 Y41.614 E1.84415
G1 X44.050 Y28.514 E1.99219
G1 X44.350 Y28.034 E1.99773
G1 X44.680 Y27.584 E2.00320
G1 X45.250 Y26.974 E2.01137
G1 X45.890 Y26.424 E2.01963
G1 X46.350 Y26.104 E2.02511
G1 X46.840 Y25.824 E2.03064
G1 X47.340 Y25.584 E2.03606
G1 X48.140 Y25.304 E2.04436
G1 X48.950 Y25.124 E2.05248
G1 X49.790 Y25.034 E2.06075
G1 X100.200 Y25.034 E2.55418
G1 X101.040 Y25.124 E2.56245
G1 X101.860 Y25.304 E2.57066
G1 X102.390 Y25.484 E2.57614
G1 X102.910 Y25.704 E2.58167
G1 X103.160 Y25.834 E2.58443
G1 X103.880 Y26.264 E2.59264
G1 X104.540 Y26.784 E2.60086
G1 X104.940 Y27.174 E2.60633
G1 X105.490 Y27.814 E2.61459
G1 X105.950 Y28.524 E2.62287
G1 X113.500 Y41.614 E2.77078
G1 X113.740 Y42.124 E2.77630
G1 X114.020 Y42.914 E2.78450
G1 X114.090 Y43.184 E2.78723
G1 X114.240 Y44.004 E2.79539
G1 X114.290 Y44.564 E2.80090
G1 X114.290 Y45.124 E2.80638
G1 X114.240 Y45.684 E2.81188
G1 X114.150 Y46.234 E2.81734
G1 X114.020 Y46.774 E2.82277
G1 X113.740 Y47.574 E2.83107
G1 X113.360 Y48.324 E2.83930
G1 X88.464 Y91.443 E3.32666
G1 X88.440 Y91.484 E3.32712
G1 X88.170 Y91.324 F9000.000
G1 X87.870 Y91.794 F900.000 E3.33258
G1 X87.530 Y92.234 E3.33802
G1 X87.160 Y92.644 E3.34343
G1 X86.960 Y92.844 E3.34620
G1 X86.540 Y93.204 E3.35161
G1 X85.860 Y93.684 E3.35976
G1 X85.120 Y94.064 E3.36790
G1 X84.600 Y94.274 E3.37339
G1 X84.340 Y94.354 E3.37605
G1 X84.070 Y94.434 E3.37881
G1 X83.530 Y94.544 E3.38421
G1 X82.700 Y94.634 E3.39238
G1 X67.290 Y94.634 E3.54321
G1 X66.740 Y94.584 E3.54862
G1 X65.920 Y94.434 E3.55678
G1 X65.390 Y94.274 E3.56220
G1 X64.870 Y94.064 E3.56769
G1 X64.130 Y93.684 E3.57583
G1 X63.670 Y93.374 E3.58126
G1 X63.030 Y92.844 E3.58939
G1 X62.640 Y92.444 E3.59486
G1 X62.120 Y91.794 E3.60301
G1 X61.820 Y91.324 E3.60847
G1 X36.900 Y48.164 E4.09629
G1 X36.530 Y47.414 E4.10448
G1 X36.260 Y46.624 E4.11265
G1 X36.130 Y46.084 E4.11809
G1 X36.050 Y45.534 E4.12353
G1 X36.020 Y44.984 E4.12892
G1 X36.030 Y44.424 E4.13440
G1 X36.090 Y43.874 E4.13981
G1 X36.190 Y43.334 E4.14519
G1 X36.340 Y42.794 E4.15068
G1 X36.530 Y42.274 E4.15610
G1 X36.900 Y41.524 E4.16428
G1 X44.320 Y28.664 E4.30961
G1 X44.780 Y27.974 E4.31773
G1 X45.330 Y27.344 E4.32591
G1 X45.530 Y27.144 E4.32868
G1 X45.950 Y26.784 E4.33409
G1 X46.400 Y26.454 E4.33956
G1 X46.630 Y26.314 E4.34219
G1 X47.370 Y25.924 E4.35038
G1 X47.890 Y25.714 E4.35587
G1 X48.150 Y25.634 E4.35853
G1 X48.420 Y25.554 E4.36129
G1 X48.960 Y25.444 E4.36668
G1 X49.790 Y25.354 E4.37485
G1 X100.190 Y25.354 E4.86818
G1 X100.720 Y25.394 E4.87338
G1 X100.990 Y25.434 E4.87606
G1 X101.770 Y25.614 E4.88389
G1 X102.530 Y25.884 E4.89179
G1 X103.010 Y26.114 E4.89700
G1 X103.700 Y26.524 E4.90485
G1 X104.330 Y27.024 E4.91273
G1 X104.710 Y27.394 E4.91792
G1 X105.070 Y27.794 E4.92318
G1 X105.390 Y28.224 E4.92843
G1 X105.940 Y29.134 E4.93884
G1 X113.090 Y41.524 E5.07886
G1 X113.460 Y42.274 E5.08705
G1 X113.650 Y42.794 E5.09246
G1 X113.800 Y43.334 E5.09795
G1 X113.900 Y43.874 E5.10333
G1 X113.960 Y44.424 E5.10874
G1 X113.970 Y44.984 E5.11422
G1 X113.940 Y45.534 E5.11962
G1 X113.860 Y46.084 E5.12506
G1 X113.730 Y46.624 E5.13049
G1 X113.460 Y47.414 E5.13866
G1 X113.090 Y48.164 E5.14685
G1 X88.194 Y91.283 E5.63421
G1 X88.170 Y91.324 E5.63467
G1 X87.890 Y91.164 F9000.000
G1 X87.610 Y91.614 F900.000 E5.63986
G1 X87.290 Y92.034 E5.64503
G1 X86.740 Y92.614 E5.65285
G1 X86.130 Y93.114 E5.66057
G1 X85.920 Y93.264 E5.66310
G1 X85.460 Y93.544 E5.66837
G1 X84.990 Y93.774 E5.67349
G1 X84.500 Y93.974 E5.67867
G1 X83.990 Y94.124 E5.68388
G1 X83.210 Y94.274 E5.69165
G1 X82.950 Y94.304 E5.69421
G1 X82.420 Y94.324 E5.69940
G1 X67.570 Y94.324 E5.84476
G1 X67.040 Y94.304 E5.84995
G1 X66.780 Y94.274 E5.85251
G1 X66.000 Y94.124 E5.86029
G1 X65.490 Y93.974 E5.86549
G1 X65.000 Y93.774 E5.87067
G1 X64.530 Y93.544 E5.87579
G1 X64.070 Y93.264 E5.88107
G1 X63.860 Y93.114 E5.88359
G1 X63.250 Y92.614 E5.89131
G1 X62.700 Y92.034 E5.89914
G1 X62.380 Y91.614 E5.90430
G1 X62.100 Y91.164 E5.90949
G1 X37.180 Y48.004 E6.39731
G1 X36.930 Y47.534 E6.40253
G1 X36.640 Y46.794 E6.41031
G1 X36.500 Y46.284 E6.41548
G1 X36.400 Y45.764 E6.42067
G1 X36.330 Y44.974 E6.42843
G1 X36.330 Y44.714 E6.43097
G1 X36.400 Y43.924 E6.43874
G1 X36.440 Y43.664 E6.44131
G1 X36.560 Y43.144 E6.44653
G1 X36.730 Y42.644 E6.45170
G1 X36.930 Y42.154 E6.45688
G1 X37.180 Y41.684 E6.46210
G1 X44.600 Y28.824 E6.60742
G1 X44.880 Y28.384 E6.61253
G1 X45.200 Y27.954 E6.61777
G1 X45.370 Y27.754 E6.62034
G1 X45.740 Y27.384 E6.62546
G1 X46.360 Y26.874 E6.63332
G1 X46.570 Y26.724 E6.63585
G1 X47.030 Y26.444 E6.64112
G1 X47.500 Y26.214 E6.64624
G1 X47.990 Y26.014 E6.65142
G1 X48.500 Y25.864 E6.65663
G1 X49.280 Y25.714 E6.66440
G1 X49.540 Y25.684 E6.66696
G1 X50.070 Y25.664 E6.67215
G1 X99.920 Y25.664 E7.16010
G1 X100.450 Y25.684 E7.16529
G1 X100.980 Y25.754 E7.17052
G1 X101.750 Y25.934 E7.17826
G1 X102.490 Y26.214 E7.18601
G1 X102.730 Y26.324 E7.18859
G1 X103.200 Y26.584 E7.19385
G1 X103.640 Y26.874 E7.19901
G1 X104.250 Y27.384 E7.20679
G1 X104.620 Y27.764 E7.21198
G1 X104.960 Y28.174 E7.21719
G1 X105.110 Y28.384 E7.21972
G1 X105.400 Y28.834 E7.22496
G1 X112.810 Y41.684 E7.37015
G1 X113.060 Y42.154 E7.37536
G1 X113.260 Y42.644 E7.38055
G1 X113.420 Y43.144 E7.38568
G1 X113.550 Y43.664 E7.39093
G1 X113.620 Y44.184 E7.39607
G1 X113.660 Y44.714 E7.40127
G1 X113.660 Y44.974 E7.40381
G1 X113.620 Y45.504 E7.40902
G1 X113.550 Y46.024 E7.41415
G1 X113.420 Y46.544 E7.41940
G1 X113.260 Y47.044 E7.42454
G1 X113.060 Y47.534 E7.42972
G1 X112.810 Y48.004 E7.43493
G1 X87.914 Y91.123 E7.92229
G1 X87.890 Y91.164 E7.92275
M204 S1000
G1 F3600.000 E6.92275
G92 E0
G1 X77.468 Y62.311 F9000.000
G1 F3600.000 E1.00000
G1 X76.466 Y62.578 F900.000 E1.01015
G1 X75.464 Y62.703 E1.02003
G1 X74.536 Y62.703 E1.02912
G1 X73.534 Y62.578 E1.03900
G1 X72.639 Y62.349 E1.04804
G1 X71.689 Y61.978 E1.05803
G1 X70.793 Y61.477 E1.06808
G1 X70.051 Y60.938 E1.07705
G1 X69.313 Y60.240 E1.08700
G1 X68.722 Y59.526 E1.09607
G1 X68.183 Y58.676 E1.10592
G1 X67.750 Y57.728 E1.11612
G1 X67.472 Y56.873 E1.12492
G1 X67.300 Y55.969 E1.13393
G1 X67.230 Y54.948 E1.14394
G1 X67.287 Y54.040 E1.15285
G1 X67.472 Y53.023 E1.16297
G1 X67.788 Y52.061 E1.17288
G1 X68.183 Y51.220 E1.18197
G1 X68.722 Y50.371 E1.19182
G1 X69.313 Y49.656 E1.20090
G1 X70.051 Y48.958 E1.21084
G1 X70.889 Y48.359 E1.22093
G1 X71.689 Y47.919 E1.22987
G1 X72.532 Y47.585 E1.23874
G1 X73.534 Y47.318 E1.24889
G1 X74.536 Y47.193 E1.25877
G1 X75.464 Y47.193 E1.26786
G1 X76.466 Y47.318 E1.27774
G1 X77.361 Y47.548 E1.28678
G1 X78.311 Y47.919 E1.29676
G1 X79.207 Y48.419 E1.30681
G1 X79.949 Y48.958 E1.31579
G1 X80.687 Y49.656 E1.32573
G1 X81.278 Y50.371 E1.33481
G1 X81.817 Y51.220 E1.34466
G1 X82.250 Y52.168 E1.35486
G1 X82.528 Y53.023 E1.36366
G1 X82.700 Y53.927 E1.37267
G1 X82.770 Y54.948 E1.38268
G1 X82.700 Y55.969 E1.39270
G1 X82.528 Y56.873 E1.40170
G1 X82.212 Y57.836 E1.41162
G1 X81.817 Y58.676 E1.42071
G1 X81.278 Y59.526 E1.43056
G1 X80.607 Y60.320 E1.44074
G1 X79.949 Y60.938 E1.44958
G1 X79.207 Y61.477 E1.45855
G1 X78.311 Y61.978 E1.46860
G1 X77.512 Y62.294 E1.47701
G1 X77.468 Y62.311 E1.47747
G1 X77.357 Y62.014 F9000.000
G1 X76.407 Y62.266 F900.000 E1.48710
G1 X75.447 Y62.386 E1.49657
G1 X74.553 Y62.386 E1.50531
G1 X73.593 Y62.266 E1.51478
G1 X72.731 Y62.045 E1.52349
G1 X71.825 Y61.690 E1.53302
G1 X70.971 Y61.214 E1.54259
G1 X70.254 Y60.693 E1.55126
G1 X69.548 Y60.026 E1.56077
G1 X68.979 Y59.339 E1.56950
G1 X68.462 Y58.523 E1.57896
G1 X68.051 Y57.627 E1.58861
G1 X67.780 Y56.794 E1.59718
G1 X67.614 Y55.921 E1.60588
G1 X67.548 Y54.948 E1.61542
G1 X67.603 Y54.068 E1.62406
G1 X67.780 Y53.103 E1.63366
G1 X68.082 Y52.181 E1.64315
G1 X68.462 Y51.373 E1.65190
G1 X68.979 Y50.558 E1.66135
G1 X69.548 Y49.870 E1.67008
G1 X70.254 Y49.203 E1.67959
G1 X71.050 Y48.632 E1.68918
G1 X71.825 Y48.207 E1.69783
G1 X72.643 Y47.883 E1.70644
G1 X73.593 Y47.630 E1.71607
G1 X74.553 Y47.510 E1.72554
G1 X75.447 Y47.510 E1.73428
G1 X76.407 Y47.630 E1.74375
G1 X77.269 Y47.852 E1.75246
G1 X78.175 Y48.207 E1.76199
G1 X79.029 Y48.682 E1.77156
G1 X79.746 Y49.203 E1.78023
G1 X80.452 Y49.870 E1.78974
G1 X81.021 Y50.558 E1.79848
G1 X81.538 Y51.373 E1.80793
G1 X81.949 Y52.270 E1.81758
G1 X82.220 Y53.103 E1.82615
G1 X82.386 Y53.975 E1.83485
G1 X82.452 Y54.948 E1.84440
G1 X82.386 Y55.921 E1.85394
G1 X82.220 Y56.794 E1.86264
G1 X81.918 Y57.715 E1.87213
G1 X81.538 Y58.523 E1.88087
G1 X81.021 Y59.339 E1.89032
G1 X80.386 Y60.092 E1.89996
G1 X79.746 Y60.693 E1.90856
G1 X79.029 Y61.214 E1.91723
G1 X78.175 Y61.690 E1.92680
G1 X77.401 Y61.996 E1.93495
G1 X77.357 Y62.014 E1.93541
G1 X77.246 Y61.716 F9000.000
G1 X76.347 Y61.954 F900.000 E1.94451
G1 X75.429 Y62.069 E1.95357
G1 X74.571 Y62.069 E1.96197
G1 X73.653 Y61.954 E1.97103
G1 X72.823 Y61.741 E1.97941
G1 X71.960 Y61.402 E1.98849
G1 X71.149 Y60.951 E1.99757
G1 X70.457 Y60.448 E2.00595
G1 X69.783 Y59.812 E2.01502
G1 X69.236 Y59.152 E2.02341
G1 X68.741 Y58.371 E2.03246
G1 X68.352 Y57.525 E2.04157
G1 X68.088 Y56.715 E2.04991
G1 X67.928 Y55.874 E2.05829
G1 X67.866 Y54.948 E2.06737
G1 X67.920 Y54.096 E2.07573
G1 X68.088 Y53.182 E2.08483
G1 X68.376 Y52.301 E2.09390
G1 X68.741 Y51.526 E2.10229
G1 X69.236 Y50.745 E2.11134
G1 X69.783 Y50.084 E2.11973
G1 X70.457 Y49.448 E2.12880
G1 X71.211 Y48.906 E2.13789
G1 X71.960 Y48.494 E2.14626
G1 X72.754 Y48.180 E2.15462
G1 X73.653 Y47.943 E2.16372
G1 X74.571 Y47.828 E2.17278
G1 X75.429 Y47.828 E2.18117
G1 X76.347 Y47.943 E2.19023
G1 X77.177 Y48.156 E2.19861
G1 X78.040 Y48.494 E2.20769
G1 X78.851 Y48.945 E2.21678
G1 X79.543 Y49.448 E2.22515
G1 X80.217 Y50.084 E2.23422
G1 X80.764 Y50.745 E2.24261
G1 X81.259 Y51.526 E2.25166
G1 X81.648 Y52.371 E2.26077
G1 X81.912 Y53.182 E2.26912
G1 X82.072 Y54.022 E2.27750
G1 X82.134 Y54.948 E2.28658
G1 X82.072 Y55.874 E2.29566
G1 X81.912 Y56.715 E2.30404
G1 X81.624 Y57.595 E2.31310
G1 X81.259 Y58.371 E2.32149
G1 X80.764 Y59.152 E2.33055
G1 X80.165 Y59.864 E2.33966
G1 X79.543 Y60.448 E2.34800
G1 X78.851 Y60.951 E2.35638
G1 X78.040 Y61.402 E2.36546
G1 X77.291 Y61.699 E2.37335
G1 X77.246 Y61.716 E2.37382
G1 X77.175 Y62.026 F9000.000
G1 F3600.000 E1.37382
G92 E0
G1 X67.179 Y66.694 F9000.000
G1 F3600.000 E1.00000
G1 X67.320 Y67.110 F900.000 E1.00430
G1 X67.377 Y67.518 E1.00834
G1 X67.367 Y67.879 E1.01187
G1 X67.287 Y68.305 E1.01611
G1 X67.135 Y68.694 E1.02020
G1 X66.900 Y69.070 E1.02454
G1 X66.675 Y69.333 E1.02793
G1 X66.413 Y69.550 E1.03126
G1 X66.035 Y69.781 E1.03559
G1 X65.639 Y69.931 E1.03974
G1 X65.217 Y70.005 E1.04393
G1 X64.856 Y70.010 E1.04746
G1 X64.443 Y69.947 E1.05155
G1 X64.034 Y69.803 E1.05580
G1 X63.651 Y69.581 E1.06013
G1 X63.391 Y69.378 E1.06336
G1 X63.152 Y69.113 E1.06685
G1 X62.909 Y68.744 E1.07118
G1 X62.751 Y68.366 E1.07519
G1 X62.670 Y68.015 E1.07872
G1 X62.639 Y67.579 E1.08299
G1 X62.688 Y67.167 E1.08705
G1 X62.820 Y66.744 E1.09139
G1 X62.972 Y66.431 E1.09480
G1 X63.169 Y66.156 E1.09811
G1 X63.477 Y65.837 E1.10244
G1 X63.824 Y65.591 E1.10661
G1 X64.211 Y65.413 E1.11078
G1 X64.641 Y65.307 E1.11511
G1 X64.977 Y65.273 E1.11842
G1 X65.325 Y65.298 E1.12183
G1 X65.757 Y65.395 E1.12617
G1 X66.138 Y65.559 E1.13023
G1 X66.500 Y65.803 E1.13451
G1 X66.764 Y66.049 E1.13804
G1 X67.013 Y66.375 E1.14205
G1 X67.157 Y66.651 E1.14510
G1 X67.179 Y66.694 E1.14557
G1 X66.891 Y66.828 F9000.000
G1 X67.009 Y67.181 F900.000 E1.14921
G1 X67.059 Y67.534 E1.15270
G1 X67.050 Y67.853 E1.15583
G1 X66.981 Y68.216 E1.15944
G1 X66.850 Y68.551 E1.16296
G1 X66.653 Y68.870 E1.16663
G1 X66.451 Y69.106 E1.16967
G1 X66.215 Y69.302 E1.17268
G1 X65.894 Y69.496 E1.17634
G1 X65.554 Y69.623 E1.17990
G1 X65.194 Y69.688 E1.18348
G1 X64.875 Y69.692 E1.18660
G1 X64.519 Y69.638 E1.19013
G1 X64.171 Y69.516 E1.19374
G1 X63.845 Y69.330 E1.19741
G1 X63.609 Y69.145 E1.20035
G1 X63.396 Y68.910 E1.20345
G1 X63.191 Y68.597 E1.20711
G1 X63.054 Y68.269 E1.21059
G1 X62.983 Y67.958 E1.21371
G1 X62.958 Y67.588 E1.21734
G1 X62.999 Y67.232 E1.22085
G1 X63.110 Y66.874 E1.22452
G1 X63.246 Y66.594 E1.22757
G1 X63.424 Y66.345 E1.23056
G1 X63.686 Y66.077 E1.23423
G1 X63.983 Y65.867 E1.23780
G1 X64.314 Y65.714 E1.24136
G1 X64.677 Y65.622 E1.24503
G1 X64.981 Y65.592 E1.24802
G1 X65.293 Y65.614 E1.25108
G1 X65.658 Y65.697 E1.25474
G1 X65.987 Y65.839 E1.25825
G1 X66.295 Y66.046 E1.26188
G1 X66.528 Y66.264 E1.26501
G1 X66.744 Y66.546 E1.26848
G1 X66.869 Y66.786 E1.27113
G1 X66.891 Y66.828 E1.27160
G1 X66.603 Y66.963 F9000.000
G1 X66.699 Y67.253 F900.000 E1.27459
G1 X66.741 Y67.551 E1.27753
G1 X66.733 Y67.828 E1.28025
G1 X66.675 Y68.127 E1.28323
G1 X66.566 Y68.409 E1.28619
G1 X66.406 Y68.670 E1.28919
G1 X66.228 Y68.879 E1.29188
G1 X66.017 Y69.054 E1.29456
G1 X65.754 Y69.210 E1.29756
G1 X65.470 Y69.316 E1.30052
G1 X65.171 Y69.370 E1.30349
G1 X64.893 Y69.374 E1.30621
G1 X64.595 Y69.328 E1.30917
G1 X64.307 Y69.229 E1.31215
G1 X64.040 Y69.080 E1.31514
G1 X63.826 Y68.912 E1.31781
G1 X63.640 Y68.706 E1.32052
G1 X63.474 Y68.449 E1.32351
G1 X63.358 Y68.172 E1.32645
G1 X63.295 Y67.902 E1.32917
G1 X63.276 Y67.597 E1.33216
G1 X63.311 Y67.298 E1.33511
G1 X63.399 Y67.005 E1.33811
G1 X63.520 Y66.757 E1.34080
G1 X63.679 Y66.535 E1.34348
G1 X63.894 Y66.317 E1.34648
G1 X64.142 Y66.142 E1.34945
G1 X64.418 Y66.015 E1.35241
G1 X64.714 Y65.937 E1.35541
G1 X64.986 Y65.910 E1.35809
G1 X65.261 Y65.930 E1.36079
G1 X65.559 Y66.000 E1.36378
G1 X65.836 Y66.119 E1.36673
G1 X66.090 Y66.288 E1.36972
G1 X66.293 Y66.478 E1.37244
G1 X66.475 Y66.717 E1.37538
G1 X66.581 Y66.920 E1.37763
G1 X66.603 Y66.963 E1.37809
G1 X66.917 Y67.010 F9000.000
G1 F3600.000 E0.37809
G92 E0
G1 X60.413 Y59.158 F9000.000
G1 F3600.000 E1.00000
G1 X60.035 Y59.389 F900.000 E1.00434
G1 X59.639 Y59.538 E1.00848
G1 X59.217 Y59.612 E1.01267
G1 X58.774 Y59.607 E1.01701
G1 X58.443 Y59.555 E1.02029
