; generated by Slic3r 0.9.10b on 2013-12-05 at 01:39:25

; layer_height = 0.25
; perimeters = 3
; top_solid_layers = 3
; bottom_solid_layers = 3
; fill_density = 0.1
; perimeter_speed = 15
; infill_speed = 15
; travel_speed = 150
; nozzle_diameter = 0.35
; filament_diameter = 1.69
; extrusion_multiplier = 1
; perimeters extrusion width = 0.35mm
; infill extrusion width = 0.35mm
; solid infill extrusion width = 0.35mm
; top infill extrusion width = 0.35mm
; first layer extrusion width = 0.28mm

G21 ; set units to millimeters
M107
M190 S60 ; wait for bed temperature to be reached
M104 S200 ; set temperature
G28 ; home all axes
G1 Z5 F5000 ; lift nozzle
M109 S200 ; wait for temperature to be reached
G90 ; use absolute coordinates
G92 E0
M82 ; use absolute distances for extrusion
G1 F1800.000 E-1.00000
G92 E0
G1 Z0.250 F9000.000
G1 X52.337 Y42.156
G1 F1800.000 E1.00000
G1 X52.977 Y41.416 F900.000 E1.03174
G1 X53.717 Y40.766 E1.06369
G1 X54.327 Y40.296 E1.08868
G1 X55.147 Y39.746 E1.12071
G1 X56.047 Y39.306 E1.15321
G1 X56.777 Y39.006 E1.17881
G1 X57.697 Y38.696 E1.21031
G1 X58.647 Y38.516 E1.24168
G1 X59.417 Y38.416 E1.26687
G1 X60.377 Y38.346 E1.29810
G1 X139.607 Y38.346 E3.86850
G1 X140.557 Y38.416 E3.89940
G1 X141.337 Y38.516 E3.92492
G1 X142.307 Y38.706 E3.95698
G1 X143.257 Y39.026 E3.98950
G1 X143.977 Y39.326 E4.01481
G1 X144.827 Y39.746 E4.04557
G1 X145.607 Y40.266 E4.07598
G1 X146.227 Y40.736 E4.10122
G1 X146.967 Y41.376 E4.13296
G1 X147.627 Y42.116 E4.16513
G1 X148.107 Y42.736 E4.19057
G1 X148.667 Y43.566 E4.22305
G1 X168.167 Y77.346 E5.48844
G1 X168.587 Y78.206 E5.51949
G1 X168.887 Y78.926 E5.54480
G1 X169.207 Y79.876 E5.57732
G1 X169.397 Y80.846 E5.60939
G1 X169.497 Y81.626 E5.63490
G1 X169.567 Y82.586 E5.66612
G1 X169.497 Y83.546 E5.69735
G1 X169.397 Y84.306 E5.72222
G1 X169.217 Y85.236 E5.75295
G1 X168.917 Y86.136 E5.78373
G1 X168.617 Y86.876 E5.80963
G1 X168.167 Y87.806 E5.84315
G1 X128.557 Y156.416 E8.41333
G1 X127.997 Y157.246 E8.44581
G1 X127.517 Y157.866 E8.47125
G1 X126.887 Y158.576 E8.50204
G1 X126.177 Y159.206 E8.53284
G1 X125.557 Y159.686 E8.55828
G1 X124.727 Y160.236 E8.59058
G1 X123.827 Y160.686 E8.62322
G1 X123.097 Y160.986 E8.64883
G1 X122.177 Y161.296 E8.68032
G1 X121.227 Y161.476 E8.71169
G1 X120.457 Y161.576 E8.73688
G1 X119.497 Y161.646 E8.76811
G1 X80.497 Y161.646 E10.03336
G1 X79.547 Y161.576 E10.06426
G1 X78.767 Y161.476 E10.08978
G1 X77.797 Y161.286 E10.12184
G1 X76.847 Y160.966 E10.15436
G1 X76.127 Y160.666 E10.17967
G1 X75.247 Y160.226 E10.21159
G1 X74.437 Y159.686 E10.24317
G1 X73.817 Y159.206 E10.26861
G1 X73.107 Y158.576 E10.29940
G1 X72.477 Y157.866 E10.33020
G1 X71.997 Y157.246 E10.35564
G1 X71.437 Y156.416 E10.38812
G1 X31.827 Y87.806 E12.95830
G1 X31.407 Y86.946 E12.98935
G1 X31.107 Y86.226 E13.01465
G1 X30.787 Y85.276 E13.04717
G1 X30.597 Y84.306 E13.07924
G1 X30.497 Y83.526 E13.10475
G1 X30.427 Y82.576 E13.13565
G1 X30.497 Y81.626 E13.16656
G1 X30.597 Y80.846 E13.19207
G1 X30.787 Y79.876 E13.22414
G1 X31.107 Y78.926 E13.25666
G1 X31.407 Y78.206 E13.28196
G1 X31.827 Y77.346 E13.31301
G1 X51.327 Y43.576 E14.57812
G1 X51.857 Y42.786 E14.60899
G1 X52.310 Y42.191 E14.63327
G1 X52.567 Y42.336 F9000.000
G1 X53.187 Y41.626 F900.000 E14.66385
G1 X53.897 Y40.996 E14.69464
G1 X54.507 Y40.526 E14.71962
G1 X55.297 Y39.996 E14.75049
G1 X56.157 Y39.576 E14.78154
G1 X56.887 Y39.276 E14.80714
G1 X57.767 Y38.986 E14.83720
G1 X58.687 Y38.806 E14.86761
G1 X59.457 Y38.706 E14.89280
G1 X60.377 Y38.646 E14.92271
G1 X139.607 Y38.646 E17.49312
G1 X140.517 Y38.696 E17.52268
G1 X141.297 Y38.796 E17.54820
G1 X142.237 Y38.986 E17.57931
G1 X143.147 Y39.296 E17.61050
G1 X143.867 Y39.596 E17.63580
G1 X144.677 Y39.996 E17.66511
G1 X145.437 Y40.496 E17.69462
G1 X146.057 Y40.966 E17.71986
G1 X146.767 Y41.586 E17.75044
G1 X147.397 Y42.286 E17.78100
G1 X147.877 Y42.906 E17.80643
G1 X148.407 Y43.716 E17.83784
G1 X167.907 Y77.496 E19.10323
G1 X168.317 Y78.316 E19.13297
G1 X168.617 Y79.036 E19.15828
G1 X168.927 Y79.946 E19.18946
G1 X169.117 Y80.886 E19.22058
G1 X169.217 Y81.666 E19.24609
G1 X169.267 Y82.586 E19.27598
G1 X169.207 Y83.506 E19.30589
G1 X169.107 Y84.266 E19.33076
G1 X168.937 Y85.166 E19.36047
G1 X168.647 Y86.026 E19.38992
G1 X168.347 Y86.766 E19.41582
G1 X167.907 Y87.656 E19.44803
G1 X128.297 Y156.266 E22.01821
G1 X127.767 Y157.076 E22.04961
G1 X127.287 Y157.696 E22.07505
G1 X126.687 Y158.376 E22.10447
G1 X126.007 Y158.976 E22.13389
G1 X125.387 Y159.456 E22.15933
G1 X124.587 Y159.986 E22.19046
G1 X123.717 Y160.416 E22.22195
G1 X122.987 Y160.716 E22.24755
G1 X122.107 Y161.006 E22.27761
G1 X121.187 Y161.186 E22.30802
G1 X120.417 Y161.286 E22.33321
G1 X119.497 Y161.346 E22.36312
G1 X80.497 Y161.346 E23.62837
G1 X79.587 Y161.296 E23.65794
G1 X78.807 Y161.196 E23.68345
G1 X77.867 Y161.006 E23.71457
G1 X76.957 Y160.696 E23.74575
G1 X76.237 Y160.396 E23.77106
G1 X75.397 Y159.976 E23.80153
G1 X74.607 Y159.456 E23.83221
G1 X73.987 Y158.976 E23.85765
G1 X73.307 Y158.376 E23.88707
G1 X72.707 Y157.696 E23.91649
G1 X72.227 Y157.076 E23.94193
G1 X71.697 Y156.266 E23.97333
G1 X32.087 Y87.656 E26.54351
G1 X31.677 Y86.836 E26.57325
G1 X31.377 Y86.116 E26.59856
G1 X31.067 Y85.206 E26.62974
G1 X30.877 Y84.266 E26.66086
G1 X30.777 Y83.486 E26.68637
G1 X30.727 Y82.576 E26.71594
G1 X30.777 Y81.666 E26.74550
G1 X30.877 Y80.886 E26.77101
G1 X31.067 Y79.946 E26.80213
G1 X31.377 Y79.036 E26.83332
G1 X31.677 Y78.316 E26.85862
G1 X32.087 Y77.496 E26.88836
G1 X51.587 Y43.726 E28.15347
G1 X52.087 Y42.966 E28.18299
G1 X52.540 Y42.371 E28.20727
G1 X52.797 Y42.506 F9000.000
G1 X53.397 Y41.826 F900.000 E28.23669
G1 X54.067 Y41.236 E28.26565
G1 X54.677 Y40.766 E28.29063
G1 X55.447 Y40.256 E28.32059
G1 X56.267 Y39.846 E28.35034
G1 X56.997 Y39.546 E28.37594
G1 X57.847 Y39.266 E28.40498
G1 X58.717 Y39.086 E28.43380
G1 X59.487 Y38.986 E28.45899
G1 X60.377 Y38.936 E28.48791
G1 X139.607 Y38.936 E31.05831
G1 X140.477 Y38.986 E31.08658
G1 X141.257 Y39.086 E31.11209
G1 X142.157 Y39.266 E31.14187
G1 X143.027 Y39.566 E31.17173
G1 X143.747 Y39.866 E31.19703
G1 X144.537 Y40.246 E31.22547
G1 X145.257 Y40.726 E31.25355
G1 X145.877 Y41.196 E31.27879
G1 X146.567 Y41.796 E31.30845
G1 X147.157 Y42.466 E31.33741
G1 X147.637 Y43.086 E31.36285
G1 X148.157 Y43.856 E31.39299
G1 X167.657 Y77.636 E32.65839
G1 X168.047 Y78.436 E32.68726
G1 X168.347 Y79.156 E32.71256
G1 X168.647 Y80.026 E32.74242
G1 X168.827 Y80.926 E32.77220
G1 X168.927 Y81.706 E32.79771
G1 X168.977 Y82.586 E32.82630
G1 X168.917 Y83.476 E32.85524
G1 X168.817 Y84.236 E32.88011
G1 X168.657 Y85.086 E32.90817
G1 X168.377 Y85.916 E32.93659
G1 X168.077 Y86.656 E32.96249
G1 X167.657 Y87.516 E32.99354
G1 X128.047 Y156.126 E35.56372
G1 X127.527 Y156.896 E35.59386
G1 X127.047 Y157.516 E35.61930
G1 X126.477 Y158.166 E35.64735
G1 X125.827 Y158.736 E35.67540
G1 X125.207 Y159.216 E35.70083
G1 X124.437 Y159.736 E35.73098
G1 X123.607 Y160.146 E35.76101
G1 X122.877 Y160.446 E35.78662
G1 X122.027 Y160.726 E35.81565
G1 X121.157 Y160.906 E35.84447
G1 X120.387 Y161.006 E35.86966
G1 X119.497 Y161.056 E35.89858
G1 X80.497 Y161.056 E37.16383
G1 X79.627 Y161.006 E37.19210
G1 X78.847 Y160.906 E37.21761
G1 X77.947 Y160.726 E37.24739
G1 X77.077 Y160.426 E37.27725
G1 X76.357 Y160.126 E37.30255
G1 X75.537 Y159.726 E37.33215
G1 X74.787 Y159.216 E37.36157
G1 X74.167 Y158.736 E37.38701
G1 X73.517 Y158.166 E37.41506
G1 X72.947 Y157.516 E37.44311
G1 X72.467 Y156.896 E37.46854
G1 X71.947 Y156.126 E37.49869
G1 X32.337 Y87.516 E40.06886
G1 X31.947 Y86.716 E40.09774
G1 X31.647 Y85.996 E40.12304
G1 X31.347 Y85.126 E40.15290
G1 X31.167 Y84.226 E40.18268
G1 X31.067 Y83.446 E40.20819
G1 X31.017 Y82.576 E40.23646
G1 X31.067 Y81.706 E40.26473
G1 X31.167 Y80.926 E40.29024
G1 X31.347 Y80.026 E40.32002
G1 X31.647 Y79.156 E40.34987
G1 X31.947 Y78.436 E40.37518
G1 X32.337 Y77.636 E40.40405
G1 X51.837 Y43.866 E41.66916
G1 X52.317 Y43.136 E41.69751
G1 X52.770 Y42.541 E41.72178
G1 X53.027 Y42.686 F9000.000
G1 X53.597 Y42.036 F900.000 E41.74983
G1 X54.247 Y41.466 E41.77788
G1 X54.857 Y40.996 E41.80286
G1 X55.587 Y40.506 E41.83139
G1 X56.377 Y40.116 E41.85997
G1 X57.107 Y39.816 E41.88557
G1 X57.917 Y39.546 E41.91327
G1 X58.757 Y39.376 E41.94108
G1 X59.527 Y39.276 E41.96627
G1 X60.377 Y39.226 E41.99389
G1 X139.607 Y39.226 E44.56429
G1 X140.447 Y39.276 E44.59159
G1 X141.227 Y39.376 E44.61711
G1 X142.087 Y39.546 E44.64555
G1 X142.917 Y39.826 E44.67396
G1 X143.637 Y40.126 E44.69927
G1 X144.387 Y40.496 E44.72640
G1 X145.087 Y40.956 E44.75357
G1 X145.707 Y41.426 E44.77882
G1 X146.357 Y41.996 E44.80686
G1 X146.927 Y42.646 E44.83491
G1 X147.407 Y43.266 E44.86035
G1 X147.907 Y44.006 E44.88932
G1 X167.407 Y77.786 E46.15471
G1 X167.787 Y78.546 E46.18228
G1 X168.087 Y79.266 E46.20758
G1 X168.367 Y80.096 E46.23600
G1 X168.537 Y80.956 E46.26444
G1 X168.637 Y81.736 E46.28995
G1 X168.687 Y82.586 E46.31758
G1 X168.637 Y83.436 E46.34520
G1 X168.537 Y84.196 E46.37007
G1 X168.367 Y85.016 E46.39724
G1 X168.107 Y85.806 E46.42422
G1 X167.807 Y86.546 E46.45012
G1 X167.407 Y87.366 E46.47972
G1 X127.797 Y155.976 E49.04990
G1 X127.297 Y156.716 E49.07887
G1 X126.817 Y157.336 E49.10431
G1 X126.267 Y157.956 E49.13120
G1 X125.647 Y158.506 E49.15809
G1 X125.027 Y158.986 E49.18353
G1 X124.297 Y159.486 E49.21223
G1 X123.497 Y159.876 E49.24110
G1 X122.767 Y160.176 E49.26671
G1 X121.957 Y160.446 E49.29441
G1 X121.117 Y160.616 E49.32221
G1 X120.347 Y160.716 E49.34740
G1 X119.497 Y160.766 E49.37503
G1 X80.497 Y160.766 E50.64028
G1 X79.657 Y160.716 E50.66758
G1 X78.877 Y160.616 E50.69309
G1 X78.017 Y160.446 E50.72153
G1 X77.187 Y160.166 E50.74995
G1 X76.467 Y159.866 E50.77525
G1 X75.687 Y159.476 E50.80354
G1 X74.967 Y158.986 E50.83180
G1 X74.347 Y158.506 E50.85724
G1 X73.727 Y157.956 E50.88412
G1 X73.177 Y157.336 E50.91101
G1 X72.697 Y156.716 E50.93645
G1 X72.197 Y155.976 E50.96542
G1 X32.587 Y87.366 E53.53560
G1 X32.207 Y86.606 E53.56317
G1 X31.907 Y85.886 E53.58847
G1 X31.627 Y85.056 E53.61689
G1 X31.457 Y84.196 E53.64533
G1 X31.357 Y83.416 E53.67084
G1 X31.307 Y82.576 E53.69814
G1 X31.357 Y81.736 E53.72544
G1 X31.457 Y80.956 E53.75095
G1 X31.627 Y80.096 E53.77939
G1 X31.907 Y79.266 E53.80781
G1 X32.207 Y78.546 E53.83312
G1 X32.587 Y77.786 E53.86068
G1 X52.087 Y44.016 E55.12579
G1 X52.547 Y43.316 E55.15297
G1 X53.000 Y42.721 E55.17725
G1 X53.267 Y42.866 F9000.000
G1 X53.807 Y42.236 F900.000 E55.20416
G1 X54.427 Y41.696 E55.23084
G1 X55.037 Y41.226 E55.25582
G1 X55.737 Y40.756 E55.28318
G1 X56.487 Y40.386 E55.31031
G1 X57.217 Y40.086 E55.33591
G1 X57.997 Y39.826 E55.36259
G1 X58.797 Y39.666 E55.38905
G1 X59.567 Y39.566 E55.41424
G1 X60.377 Y39.516 E55.44057
G1 X139.607 Y39.516 E58.01098
G1 X140.407 Y39.566 E58.03698
G1 X141.187 Y39.666 E58.06249
G1 X142.007 Y39.826 E58.08960
G1 X142.807 Y40.096 E58.11699
G1 X143.527 Y40.396 E58.14229
G1 X144.247 Y40.756 E58.16841
G1 X144.907 Y41.196 E58.19414
G1 X145.527 Y41.666 E58.21938
G1 X146.157 Y42.206 E58.24630
G1 X146.697 Y42.826 E58.27298
G1 X147.177 Y43.446 E58.29841
G1 X147.657 Y44.146 E58.32595
G1 X167.157 Y77.926 E59.59134
G1 X167.517 Y78.656 E59.61775
G1 X167.817 Y79.376 E59.64305
G1 X168.087 Y80.176 E59.67044
G1 X168.247 Y80.996 E59.69755
G1 X168.347 Y81.776 E59.72306
G1 X168.397 Y82.586 E59.74939
G1 X168.347 Y83.396 E59.77572
G1 X168.247 Y84.156 E59.80059
G1 X168.087 Y84.946 E59.82674
G1 X167.837 Y85.696 E59.85238
G1 X167.537 Y86.436 E59.87829
G1 X167.157 Y87.226 E59.90673
G1 X127.547 Y155.836 E62.47691
G1 X127.067 Y156.536 E62.50444
G1 X126.587 Y157.156 E62.52988
G1 X126.067 Y157.756 E62.55564
G1 X125.467 Y158.276 E62.58140
G1 X124.847 Y158.756 E62.60683
G1 X124.147 Y159.236 E62.63437
G1 X123.387 Y159.606 E62.66179
G1 X122.657 Y159.906 E62.68740
G1 X121.877 Y160.166 E62.71407
G1 X121.077 Y160.326 E62.74054
G1 X120.307 Y160.426 E62.76573
G1 X119.497 Y160.476 E62.79206
G1 X80.497 Y160.476 E64.05731
G1 X79.697 Y160.426 E64.08331
G1 X78.917 Y160.326 E64.10882
G1 X78.097 Y160.166 E64.13593
G1 X77.297 Y159.896 E64.16332
G1 X76.577 Y159.596 E64.18863
G1 X75.837 Y159.226 E64.21547
G1 X75.147 Y158.756 E64.24255
G1 X74.527 Y158.276 E64.26799
G1 X73.927 Y157.756 E64.29375
G1 X73.407 Y157.156 E64.31951
G1 X72.927 Y156.536 E64.34494
G1 X72.447 Y155.836 E64.37248
G1 X32.837 Y87.226 E66.94266
G1 X32.477 Y86.496 E66.96906
G1 X32.177 Y85.776 E66.99437
G1 X31.907 Y84.976 E67.02176
G1 X31.747 Y84.156 E67.04886
G1 X31.647 Y83.376 E67.07438
G1 X31.597 Y82.576 E67.10038
G1 X31.647 Y81.776 E67.12638
G1 X31.747 Y80.996 E67.15190
G1 X31.907 Y80.176 E67.17900
G1 X32.177 Y79.376 E67.20639
G1 X32.477 Y78.656 E67.23170
G1 X32.837 Y77.926 E67.25810
G1 X52.337 Y44.156 E68.52321
G1 X52.787 Y43.496 E68.54913
G1 X53.240 Y42.901 E68.57341
G1 F1800.000 E67.57341
G92 E0
G1 X56.849 Y45.429 F9000.000
G1 F1800.000 E1.00000
G1 X57.035 Y45.244 F900.000 E1.00851
G1 X57.825 Y44.637 E1.04083
G1 X58.040 Y44.512 E1.04887
G1 X58.992 Y44.117 E1.08232
G1 X59.250 Y44.047 E1.09098
G1 X60.253 Y43.915 E1.12382
G1 X60.520 Y43.915 E1.13248
G1 X61.542 Y44.051 E1.16593
G1 X61.781 Y44.117 E1.17397
G1 X62.663 Y44.482 E1.20495
G1 X93.375 Y62.203 E2.35526
G1 X95.519 Y63.203 E2.43203
G1 X97.683 Y63.783 E2.50470
G1 X100.003 Y63.993 E2.58028
G1 X102.275 Y63.794 E2.65427
G1 X104.481 Y63.203 E2.72835
G1 X106.625 Y62.203 E2.80513
G1 X137.219 Y44.540 E3.95118
G1 X138.239 Y44.113 E3.98707
G1 X138.492 Y44.045 E3.99558
G1 X139.480 Y43.915 E4.02789
G1 X139.728 Y43.914 E4.03594
G1 X140.750 Y44.047 E4.06939
G1 X141.008 Y44.117 E4.07805
G1 X141.960 Y44.512 E4.11150
G1 X142.175 Y44.637 E4.11954
G1 X142.977 Y45.254 E4.15238
G1 X143.166 Y45.442 E4.16104
G1 X143.822 Y46.311 E4.19634
G1 X147.317 Y52.366 E4.42317
G1 X147.337 Y52.451 E4.42600
G1 X147.261 Y53.517 E4.46069
G1 X147.229 Y53.599 E4.46352
G1 X138.366 Y64.862 E4.92848
G1 X144.585 Y75.633 E5.33200
G1 X158.771 Y73.590 E5.79696
G1 X158.857 Y73.603 E5.79979
G1 X159.819 Y74.070 E5.83448
G1 X159.883 Y74.130 E5.83731
G1 X163.438 Y80.304 E6.06846
G1 X163.803 Y81.186 E6.09944
G1 X163.868 Y81.426 E6.10748
G1 X164.004 Y82.448 E6.14094
G1 X164.004 Y82.715 E6.14960
G1 X163.871 Y83.721 E6.18252
G1 X163.807 Y83.956 E6.19042
G1 X163.419 Y84.905 E6.22370
G1 X163.284 Y85.141 E6.23251
G1 X162.666 Y85.945 E6.26541
G1 X162.492 Y86.121 E6.27345
G1 X161.617 Y86.784 E6.30906
G1 X131.018 Y104.451 E7.45535
G1 X129.079 Y105.809 E7.53213
G1 X127.464 Y107.423 E7.60621
G1 X126.154 Y109.294 E7.68030
G1 X125.189 Y111.364 E7.75438
G1 X124.598 Y113.569 E7.82847
G1 X124.392 Y115.927 E7.90524
G1 X124.384 Y151.375 E9.05525
G1 X124.259 Y152.331 E9.08653
G1 X124.196 Y152.570 E9.09457
G1 X123.802 Y153.524 E9.12803
G1 X123.679 Y153.739 E9.13607
G1 X123.040 Y154.572 E9.17014
G1 X122.864 Y154.746 E9.17818
G1 X122.045 Y155.373 E9.21163
G1 X121.830 Y155.496 E9.21968
G1 X120.877 Y155.890 E9.25313
G1 X120.637 Y155.953 E9.26117
G1 X119.557 Y156.086 E9.29647
G1 X112.565 Y156.086 E9.52330
G1 X112.482 Y156.060 E9.52613
G1 X111.597 Y155.461 E9.56082
G1 X111.542 Y155.393 E9.56365
G1 X106.219 Y142.086 E10.02862
G1 X93.781 Y142.086 E10.43213
G1 X88.458 Y155.393 E10.89710
G1 X88.403 Y155.461 E10.89993
G1 X87.518 Y156.060 E10.93462
G1 X87.435 Y156.086 E10.93745
G1 X80.443 Y156.086 E11.16428
G1 X79.344 Y155.949 E11.20019
G1 X79.105 Y155.883 E11.20824
G1 X78.170 Y155.496 E11.24107
G1 X77.939 Y155.363 E11.24973
G1 X77.136 Y154.746 E11.28257
G1 X76.960 Y154.572 E11.29061
G1 X76.321 Y153.739 E11.32468
G1 X76.198 Y153.524 E11.33272
G1 X75.804 Y152.570 E11.36617
G1 X75.741 Y152.331 E11.37422
G1 X75.608 Y151.251 E11.40951
G1 X75.608 Y115.927 E12.55550
G1 X75.402 Y113.569 E12.63228
G1 X74.811 Y111.364 E12.70636
G1 X73.845 Y109.294 E12.78045
G1 X72.536 Y107.423 E12.85453
G1 X70.921 Y105.809 E12.92862
G1 X68.982 Y104.451 E13.00539
G1 X38.383 Y86.784 E14.15169
G1 X37.508 Y86.121 E14.18730
G1 X37.334 Y85.945 E14.19534
G1 X36.718 Y85.142 E14.22818
G1 X36.584 Y84.911 E14.23684
G1 X36.197 Y83.976 E14.26967
G1 X36.128 Y83.718 E14.27833
G1 X35.996 Y82.715 E14.31117
G1 X35.996 Y82.448 E14.31983
G1 X36.131 Y81.426 E14.35328
G1 X36.197 Y81.186 E14.36132
G1 X36.562 Y80.304 E14.39230
G1 X40.117 Y74.130 E14.62345
